;FLAVOR:Marlin
;TIME:7618
;Filament used: 5.49476m
;Layer height: 0.2
;MINX:77.7
;MINY:101.2
;MINZ:0.2
;MAXX:162.3
;MAXY:129.324
;MAXZ:16
;Generated with Cura_SteamEngine 5.2.2
M140 S50
M105
M190 S50
M104 S200
M105
M109 S200
M82 ;absolute extrusion mode
; Ender 3 Custom Start G-code
G92 E0 ; Reset Extruder
G28 ; Home all axes
G29 ; Auto Bed Level
G1 Z2.0 F3000 ; Move Z Axis up little to prevent scratching of Heat Bed
G1 X0.1 Y20 Z0.3 F5000.0 ; Move to start position
G1 X0.1 Y200.0 Z0.3 F1500.0 E15 ; Draw the first line
G1 X0.4 Y200.0 Z0.3 F5000.0 ; Move to side a little
G1 X0.4 Y20 Z0.3 F1500.0 E30 ; Draw the second line
G92 E0 ; Reset Extruder
G1 Z2.0 F3000 ; Move Z Axis up little to prevent scratching of Heat Bed
G1 X5 Y20 Z0.3 F5000.0 ; Move over to prevent blob squish
G92 E0
G92 E0
G1 F2700 E-5
;LAYER_COUNT:80
;LAYER:0
M107
;MESH:entretoise-simple-carte-tirettes.stl(1)
G0 F6000 X83.938 Y109.507 Z0.2
;TYPE:WALL-INNER
G1 F2700 E0
G1 F1200 X83.396 Y109.418 E0.01827
G1 X82.834 Y109.245 E0.03783
G1 X82.318 Y108.997 E0.05687
G1 X81.741 Y108.558 E0.08098
G1 X81.348 Y108.095 E0.10118
G1 X81.08 Y107.678 E0.11767
G1 X80.831 Y107.144 E0.13726
G1 X80.699 Y106.588 E0.15627
G1 X80.652 Y106.051 E0.1742
G1 X80.673 Y105.58 E0.18988
G1 X80.789 Y105.015 E0.20907
G1 X80.93 Y104.629 E0.22273
G1 X81.115 Y104.26 E0.23646
G1 X81.427 Y103.805 E0.25481
G1 X81.744 Y103.454 E0.27054
G1 X82.191 Y103.098 E0.28955
G1 X82.691 Y102.805 E0.30882
G1 X83.184 Y102.636 E0.32616
G1 X83.756 Y102.523 E0.34555
G1 X84.368 Y102.494 E0.36593
G1 X84.936 Y102.586 E0.38507
G1 X85.505 Y102.774 E0.405
G1 X85.996 Y103.015 E0.42319
G1 X86.552 Y103.435 E0.44637
G1 X86.902 Y103.837 E0.46409
G1 X87.237 Y104.347 E0.48439
G1 X87.479 Y104.878 E0.5038
G1 X87.608 Y105.466 E0.52382
G1 X87.649 Y105.973 E0.54074
G1 X87.626 Y106.425 E0.55579
G1 X87.497 Y107.023 E0.57614
G1 X87.35 Y107.416 E0.59009
G1 X87.19 Y107.731 E0.60184
G1 X86.849 Y108.23 E0.62195
G1 X86.547 Y108.552 E0.63663
G1 X86.125 Y108.888 E0.65457
G1 X85.612 Y109.195 E0.67445
G1 X85.075 Y109.376 E0.6933
G1 X84.552 Y109.476 E0.71101
G1 X83.938 Y109.507 E0.73146
G0 F6000 X83.941 Y109.102
;TYPE:WALL-OUTER
G1 F1200 X83.473 Y109.026 E0.74723
G1 X82.968 Y108.865 E0.76486
G1 X82.51 Y108.641 E0.78182
G1 X82.034 Y108.279 E0.80171
G1 X81.701 Y107.9 E0.81849
G1 X81.421 Y107.469 E0.83558
G1 X81.206 Y107.004 E0.85262
G1 X81.093 Y106.519 E0.86918
G1 X81.051 Y106.018 E0.88591
G1 X81.074 Y105.615 E0.89933
G1 X81.179 Y105.113 E0.91639
G1 X81.3 Y104.78 E0.92817
G1 X81.478 Y104.431 E0.9412
G1 X81.755 Y104.033 E0.95733
G1 X82.007 Y103.759 E0.96971
G1 X82.431 Y103.421 E0.98775
G1 X82.872 Y103.166 E1.00469
G1 X83.314 Y103.015 E1.02023
G1 X83.824 Y102.917 E1.0375
G1 X84.327 Y102.896 E1.05424
G1 X84.821 Y102.973 E1.07087
G1 X85.332 Y103.135 E1.0887
G1 X85.79 Y103.359 E1.10566
G1 X86.266 Y103.721 E1.12555
G1 X86.599 Y104.099 E1.14231
G1 X86.877 Y104.527 E1.15928
G1 X87.091 Y104.99 E1.17624
G1 X87.209 Y105.499 E1.19362
G1 X87.249 Y105.982 E1.20974
G1 X87.229 Y106.356 E1.2222
G1 X87.121 Y106.887 E1.24022
G1 X87.003 Y107.213 E1.25175
G1 X86.822 Y107.569 E1.26504
G1 X86.545 Y107.967 E1.28116
G1 X86.28 Y108.254 E1.29416
G1 X85.887 Y108.567 E1.31087
G1 X85.428 Y108.834 E1.32853
G1 X84.973 Y108.989 E1.34452
G1 X84.478 Y109.082 E1.36127
G1 X83.941 Y109.102 E1.37914
G1 F2700 E-3.62086
G0 F6000 X83.892 Y109.396
G0 X84.814 Y109.255
G0 X86.633 Y108.715
G0 X92.244 Y108.835
G0 X115.446 Y107.61
;TYPE:WALL-INNER
G1 F2700 E1.37914
G1 F1200 X118.125 Y107.591 E1.46825
G1 X120.73 Y107.588 E1.55489
G1 X125.359 Y107.619 E1.70885
G1 X127.523 Y107.651 E1.78084
G1 X129.678 Y107.694 E1.85253
G1 X131.625 Y107.744 E1.91731
G1 X133.636 Y107.809 E1.98423
G1 X135.505 Y107.881 E2.04644
G1 X137.018 Y107.952 E2.09681
G1 X138.469 Y108.031 E2.14515
G1 X139.783 Y108.115 E2.18894
G1 X140.926 Y108.199 E2.22706
G1 X142.263 Y108.314 E2.27169
G1 X143.169 Y108.403 E2.30197
G1 X144.214 Y108.519 E2.33694
G1 X145.242 Y108.648 E2.3714
G1 X146.285 Y108.797 E2.40644
G1 X146.954 Y108.902 E2.42897
G1 X147.983 Y109.079 E2.46369
G1 X148.886 Y109.247 E2.49424
G1 X151.538 Y109.782 E2.58423
G1 X152.336 Y109.931 E2.61123
G1 X152.98 Y110.039 E2.63294
G1 X153.607 Y110.133 E2.65403
G1 X154.218 Y110.208 E2.67451
G1 X155.301 Y110.308 E2.71068
G1 X155.925 Y110.347 E2.73147
G1 X156.628 Y110.378 E2.75488
G1 X157.329 Y110.396 E2.7782
G1 X158.63 Y110.401 E2.82147
G1 X158.898 Y110.375 E2.83043
G1 X159.417 Y110.28 E2.84798
G1 X159.992 Y110.063 E2.86842
G1 X160.427 Y109.798 E2.88536
G1 X160.754 Y109.542 E2.89917
G1 X161.043 Y109.252 E2.91279
G1 X161.296 Y108.929 E2.92644
G1 X161.565 Y108.489 E2.94359
G1 X161.781 Y107.916 E2.96396
G1 X161.875 Y107.401 E2.98137
G1 X161.9 Y107.137 E2.99019
G1 X161.9 Y104.864 E3.06579
G1 X161.876 Y104.6 E3.07461
G1 X161.78 Y104.084 E3.09206
G1 X161.599 Y103.606 E3.10906
G1 X161.407 Y103.242 E3.12275
G1 X161.12 Y102.825 E3.13959
G1 X160.752 Y102.457 E3.1569
G1 X160.429 Y102.203 E3.17056
G1 X159.989 Y101.935 E3.1877
G1 X159.418 Y101.72 E3.20799
G1 X158.9 Y101.625 E3.22551
G1 X158.635 Y101.601 E3.23436
G1 X154.849 Y101.606 E3.36028
G1 X154.203 Y101.621 E3.38177
G1 X153.476 Y101.651 E3.40597
G1 X152.435 Y101.73 E3.4407
G1 X151.896 Y101.789 E3.45873
G1 X151.439 Y101.851 E3.47407
G1 X150.949 Y101.93 E3.49058
G1 X150.443 Y102.023 E3.50769
G1 X149.852 Y102.149 E3.52779
G1 X149.247 Y102.29 E3.54845
G1 X148.036 Y102.59 E3.58995
G1 X147.142 Y102.8 E3.62049
G1 X146.425 Y102.955 E3.64489
G1 X145.799 Y103.079 E3.66611
G1 X145.071 Y103.211 E3.69072
G1 X144.304 Y103.336 E3.71657
G1 X143.474 Y103.454 E3.74445
G1 X142.571 Y103.569 E3.77473
G1 X141.438 Y103.693 E3.81264
G1 X140.449 Y103.786 E3.84568
G1 X138.432 Y103.938 E3.91295
G1 X136.724 Y104.04 E3.96986
G1 X135.42 Y104.104 E4.01329
G1 X133.624 Y104.18 E4.07307
G1 X131.971 Y104.238 E4.12809
G1 X130.073 Y104.292 E4.19124
G1 X127.908 Y104.34 E4.26327
G1 X123.722 Y104.397 E4.40251
G1 X121.57 Y104.41 E4.47408
G1 X118.892 Y104.411 E4.56315
G1 X116.408 Y104.398 E4.64577
G1 X113.994 Y104.37 E4.72607
G1 X111.767 Y104.333 E4.80015
G1 X109.467 Y104.279 E4.87667
G1 X107.576 Y104.222 E4.93959
G1 X105.479 Y104.144 E5.00939
G1 X103.813 Y104.068 E5.06486
G1 X102.471 Y103.993 E5.10956
G1 X101.148 Y103.909 E5.15365
G1 X99.967 Y103.819 E5.19305
G1 X98.925 Y103.728 E5.22784
G1 X97.889 Y103.622 E5.26247
G1 X96.426 Y103.44 E5.31151
G1 X95.6 Y103.32 E5.33927
G1 X94.854 Y103.198 E5.36441
G1 X94.185 Y103.077 E5.38702
G1 X93.49 Y102.939 E5.41059
G1 X92.736 Y102.772 E5.43628
G1 X90.322 Y102.189 E5.51887
G1 X89.741 Y102.06 E5.53867
G1 X89.261 Y101.966 E5.55494
G1 X88.711 Y101.873 E5.57349
G1 X88.181 Y101.798 E5.59129
G1 X87.616 Y101.735 E5.6102
G1 X87.06 Y101.687 E5.62876
G1 X86.439 Y101.646 E5.64946
G1 X85.124 Y101.604 E5.69322
G1 X81.366 Y101.6 E5.81821
G1 X81.102 Y101.625 E5.82703
G1 X80.584 Y101.72 E5.84455
G1 X80.008 Y101.938 E5.86503
G1 X79.573 Y102.202 E5.88196
G1 X79.246 Y102.458 E5.89577
G1 X78.957 Y102.748 E5.90939
G1 X78.703 Y103.072 E5.92308
G1 X78.435 Y103.513 E5.94024
G1 X78.22 Y104.079 E5.96038
G1 X78.125 Y104.6 E5.978
G1 X78.1 Y104.862 E5.98675
G1 X78.1 Y107.139 E6.06248
G1 X78.124 Y107.398 E6.07113
G1 X78.22 Y107.914 E6.08859
G1 X78.435 Y108.487 E6.10895
G1 X78.702 Y108.927 E6.12606
G1 X78.956 Y109.252 E6.13978
G1 X79.246 Y109.542 E6.15342
G1 X79.572 Y109.798 E6.16721
G1 X80.011 Y110.065 E6.1843
G1 X80.582 Y110.28 E6.20459
G1 X81.1 Y110.375 E6.22211
G1 X81.37 Y110.4 E6.23113
G1 X82.712 Y110.394 E6.27576
G1 X83.359 Y110.378 E6.29729
G1 X84.108 Y110.346 E6.32222
G1 X85.23 Y110.264 E6.35964
G1 X86.018 Y110.179 E6.386
G1 X86.628 Y110.099 E6.40647
G1 X87.233 Y110.006 E6.42682
G1 X88.717 Y109.731 E6.47702
G1 X91.308 Y109.209 E6.56493
G1 X92.278 Y109.032 E6.59773
G1 X93.902 Y108.769 E6.65244
G1 X94.836 Y108.638 E6.68381
G1 X95.859 Y108.51 E6.7181
G1 X96.677 Y108.419 E6.74548
G1 X97.818 Y108.306 E6.78361
G1 X98.962 Y108.207 E6.82181
G1 X101.408 Y108.037 E6.90336
G1 X103.026 Y107.949 E6.95725
G1 X104.746 Y107.87 E7.01452
G1 X106.358 Y107.808 E7.06817
G1 X108.708 Y107.734 E7.14637
G1 X110.777 Y107.683 E7.21521
G1 X113.197 Y107.639 E7.29571
G1 X115.446 Y107.61 E7.37052
G0 F6000 X115.449 Y108.01
;TYPE:WALL-OUTER
G1 F1200 X118.128 Y107.991 E7.45963
G1 X120.727 Y107.988 E7.54607
G1 X125.353 Y108.019 E7.69993
G1 X127.515 Y108.051 E7.77185
G1 X129.668 Y108.094 E7.84347
G1 X131.612 Y108.144 E7.90815
G1 X133.62 Y108.209 E7.97497
G1 X135.486 Y108.281 E8.03708
G1 X136.996 Y108.352 E8.08736
G1 X138.443 Y108.43 E8.13556
G1 X139.754 Y108.514 E8.17925
G1 X140.892 Y108.597 E8.2172
G1 X142.224 Y108.712 E8.26167
G1 X143.125 Y108.801 E8.29178
G1 X144.164 Y108.916 E8.32655
G1 X145.186 Y109.044 E8.36081
G1 X146.223 Y109.192 E8.39565
G1 X146.886 Y109.296 E8.41797
G1 X147.909 Y109.472 E8.4525
G1 X148.807 Y109.639 E8.48288
G1 X151.464 Y110.175 E8.57303
G1 X152.27 Y110.326 E8.6003
G1 X152.921 Y110.435 E8.62226
G1 X153.564 Y110.53 E8.64388
G1 X154.177 Y110.606 E8.66442
G1 X155.275 Y110.707 E8.70109
G1 X155.907 Y110.747 E8.72216
G1 X156.618 Y110.778 E8.74583
G1 X157.323 Y110.796 E8.76928
G1 X158.648 Y110.801 E8.81335
G1 X158.953 Y110.772 E8.82354
G1 X159.525 Y110.667 E8.84289
G1 X160.168 Y110.424 E8.86575
G1 X160.655 Y110.128 E8.8847
G1 X161.02 Y109.842 E8.90013
G1 X161.343 Y109.518 E8.91534
G1 X161.626 Y109.157 E8.9306
G1 X161.926 Y108.665 E8.94976
G1 X162.168 Y108.024 E8.97255
G1 X162.272 Y107.455 E8.99179
G1 X162.3 Y107.155 E9.00181
G1 X162.3 Y104.846 E9.07861
G1 X162.272 Y104.546 E9.08863
G1 X162.167 Y103.976 E9.10791
G1 X161.965 Y103.442 E9.1269
G1 X161.75 Y103.034 E9.14224
G1 X161.429 Y102.568 E9.16106
G1 X161.018 Y102.157 E9.18039
G1 X160.657 Y101.874 E9.19565
G1 X160.165 Y101.574 E9.21481
G1 X159.526 Y101.333 E9.23753
G1 X158.954 Y101.228 E9.25687
G1 X158.653 Y101.201 E9.26692
G1 X154.84 Y101.206 E9.39374
G1 X154.187 Y101.221 E9.41547
G1 X153.45 Y101.251 E9.44
G1 X152.957 Y101.283 E9.45643
G1 X152.392 Y101.332 E9.47529
G1 X151.843 Y101.393 E9.49367
G1 X151.377 Y101.456 E9.50931
G1 X150.877 Y101.536 E9.52615
G1 X150.36 Y101.632 E9.54364
G1 X149.761 Y101.759 E9.564
G1 X147.058 Y102.409 E9.65647
G1 X146.347 Y102.563 E9.68067
G1 X145.007 Y102.816 E9.72602
G1 X144.248 Y102.94 E9.7516
G1 X143.424 Y103.057 E9.77928
G1 X142.527 Y103.171 E9.80936
G1 X141.401 Y103.295 E9.84703
G1 X140.417 Y103.387 E9.8799
G1 X139.412 Y103.468 E9.91344
G1 X138.408 Y103.538 E9.94691
G1 X136.704 Y103.64 E10.00369
G1 X135.403 Y103.704 E10.04701
G1 X133.61 Y103.78 E10.1067
G1 X131.959 Y103.838 E10.16165
G1 X130.064 Y103.892 E10.2247
G1 X127.902 Y103.94 E10.29663
G1 X123.72 Y103.997 E10.43574
G1 X121.568 Y104.01 E10.50731
G1 X118.894 Y104.011 E10.59625
G1 X116.413 Y103.998 E10.67877
G1 X114 Y103.97 E10.75903
G1 X111.777 Y103.933 E10.83298
G1 X109.479 Y103.879 E10.90943
G1 X107.591 Y103.822 E10.97226
G1 X105.497 Y103.744 E11.04195
G1 X103.835 Y103.668 E11.09729
G1 X102.497 Y103.594 E11.14186
G1 X101.178 Y103.51 E11.18582
G1 X100.002 Y103.421 E11.22504
G1 X98.965 Y103.33 E11.25966
G1 X98.051 Y103.237 E11.29022
G1 X97.259 Y103.145 E11.31674
G1 X96.484 Y103.044 E11.34274
G1 X95.664 Y102.925 E11.37029
G1 X94.925 Y102.804 E11.3952
G1 X94.263 Y102.685 E11.41757
G1 X93.576 Y102.548 E11.44087
G1 X92.83 Y102.383 E11.46628
G1 X90.431 Y101.803 E11.54837
G1 X89.848 Y101.673 E11.56824
G1 X89.333 Y101.572 E11.5857
G1 X88.796 Y101.48 E11.60382
G1 X88.226 Y101.4 E11.62296
G1 X87.651 Y101.337 E11.6422
G1 X87.065 Y101.285 E11.66177
G1 X86.458 Y101.246 E11.682
G1 X85.125 Y101.204 E11.72635
G1 X81.348 Y101.2 E11.85198
G1 X81.048 Y101.228 E11.862
G1 X80.476 Y101.333 E11.88134
G1 X79.832 Y101.576 E11.90424
G1 X79.345 Y101.872 E11.92319
G1 X78.98 Y102.158 E11.93861
G1 X78.657 Y102.482 E11.95383
G1 X78.373 Y102.844 E11.96913
G1 X78.074 Y103.337 E11.98831
G1 X77.833 Y103.971 E12.01087
G1 X77.728 Y104.546 E12.03031
G1 X77.7 Y104.844 E12.04027
G1 X77.7 Y107.157 E12.1172
G1 X77.728 Y107.453 E12.12709
G1 X77.833 Y108.022 E12.14633
G1 X78.073 Y108.663 E12.1691
G1 X78.372 Y109.155 E12.18824
G1 X78.656 Y109.518 E12.20357
G1 X78.98 Y109.842 E12.21881
G1 X79.344 Y110.127 E12.23419
G1 X79.835 Y110.426 E12.25331
G1 X80.474 Y110.667 E12.27602
G1 X81.045 Y110.772 E12.29533
G1 X81.353 Y110.8 E12.30562
G1 X82.722 Y110.794 E12.35115
G1 X83.376 Y110.778 E12.37291
G1 X84.133 Y110.745 E12.39812
G1 X84.771 Y110.704 E12.41938
G1 X85.411 Y110.648 E12.44075
G1 X86.07 Y110.576 E12.4628
G1 X86.688 Y110.495 E12.48353
G1 X87.293 Y110.402 E12.50388
G1 X88.795 Y110.123 E12.5547
G1 X91.38 Y109.603 E12.6424
G1 X92.344 Y109.426 E12.67499
G1 X93.958 Y109.165 E12.72937
G1 X94.886 Y109.035 E12.76054
G1 X95.903 Y108.908 E12.79463
G1 X96.717 Y108.817 E12.82187
G1 X97.852 Y108.704 E12.85981
G1 X98.992 Y108.606 E12.89786
G1 X100.082 Y108.525 E12.93422
G1 X101.43 Y108.437 E12.97915
G1 X103.044 Y108.349 E13.03291
G1 X104.762 Y108.27 E13.09011
G1 X106.37 Y108.208 E13.14363
G1 X108.718 Y108.134 E13.22177
G1 X110.785 Y108.083 E13.29054
G1 X113.202 Y108.039 E13.37094
G1 X115.449 Y108.01 E13.44568
G1 F2700 E8.44568
G0 F6000 X115.345 Y107.512
G0 X135.494 Y108.042
G0 X140.909 Y108.359
G0 X145.214 Y108.808
G0 X147.95 Y109.236
G0 X148.321 Y109.34
G0 X151.141 Y109.497
G0 X153.383 Y108.742
G0 X154.532 Y109.245
;TYPE:WALL-INNER
G1 F2700 E13.44568
G1 F1200 X154.016 Y108.992 E13.4648
G1 X153.44 Y108.558 E13.48878
G1 X153.048 Y108.095 E13.50896
G1 X152.764 Y107.655 E13.52638
G1 X152.522 Y107.127 E13.5457
G1 X152.392 Y106.534 E13.56589
G1 X152.353 Y106.051 E13.582
G1 X152.351 Y105.966 E13.58483
G1 X152.373 Y105.581 E13.59766
G1 X152.495 Y105.001 E13.61737
G1 X152.629 Y104.631 E13.63046
G1 X152.807 Y104.274 E13.64373
G1 X153.133 Y103.796 E13.66297
G1 X153.442 Y103.457 E13.67823
G1 X153.858 Y103.124 E13.69595
G1 X154.379 Y102.81 E13.71618
G1 X154.927 Y102.621 E13.73546
G1 X155.534 Y102.515 E13.75596
G1 X156.069 Y102.494 E13.77377
G1 X156.585 Y102.578 E13.79115
G1 X157.127 Y102.743 E13.81
G1 X157.68 Y103.001 E13.83029
G1 X158.253 Y103.438 E13.85426
G1 X158.629 Y103.87 E13.87331
G1 X158.931 Y104.34 E13.89189
G1 X159.168 Y104.854 E13.91072
G1 X159.303 Y105.42 E13.93007
G1 X159.35 Y105.999 E13.94939
G1 X159.321 Y106.448 E13.96436
G1 X159.22 Y106.942 E13.98113
G1 X159.077 Y107.357 E13.99573
G1 X158.885 Y107.741 E14.01001
G1 X158.545 Y108.233 E14.0299
G1 X158.257 Y108.545 E14.04402
G1 X157.809 Y108.902 E14.06307
G1 X157.309 Y109.195 E14.08235
G1 X156.772 Y109.379 E14.10123
G1 X156.219 Y109.481 E14.11993
G1 X155.637 Y109.507 E14.13931
G1 X155.115 Y109.422 E14.1569
G1 X154.532 Y109.245 E14.17716
G0 F6000 X154.694 Y108.875
;TYPE:WALL-OUTER
G1 F1200 X154.226 Y108.652 E14.1944
G1 X153.704 Y108.251 E14.2163
G1 X153.384 Y107.878 E14.23264
G1 X153.123 Y107.473 E14.24867
G1 X152.912 Y107.017 E14.26538
G1 X152.791 Y106.501 E14.28301
G1 X152.751 Y106.018 E14.29913
G1 X152.771 Y105.644 E14.31159
G1 X152.879 Y105.113 E14.32961
G1 X153 Y104.781 E14.34136
G1 X153.178 Y104.431 E14.35442
G1 X153.457 Y104.03 E14.37067
G1 X153.707 Y103.759 E14.38293
G1 X154.131 Y103.421 E14.40097
G1 X154.572 Y103.166 E14.41791
G1 X155.014 Y103.015 E14.43345
G1 X155.55 Y102.915 E14.45158
G1 X156.059 Y102.898 E14.46852
G1 X156.521 Y102.973 E14.48409
G1 X157.032 Y103.135 E14.50192
G1 X157.49 Y103.359 E14.51887
G1 X157.966 Y103.721 E14.53876
G1 X158.316 Y104.122 E14.55647
G1 X158.583 Y104.537 E14.57288
G1 X158.794 Y104.996 E14.58968
G1 X158.909 Y105.499 E14.60684
G1 X158.95 Y105.999 E14.62353
G1 X158.927 Y106.379 E14.63619
G1 X158.821 Y106.887 E14.65345
G1 X158.7 Y107.22 E14.66524
G1 X158.522 Y107.569 E14.67827
G1 X158.245 Y107.967 E14.69439
G1 X157.993 Y108.241 E14.70678
G1 X157.569 Y108.579 E14.72481
G1 X157.128 Y108.834 E14.74175
G1 X156.686 Y108.985 E14.75729
G1 X156.167 Y109.084 E14.77486
G1 X155.661 Y109.104 E14.7917
G1 X155.179 Y109.027 E14.80794
G1 X154.694 Y108.875 E14.82484
G0 F6000 X154.946 Y109.836
;TYPE:SKIN
G1 F902.3 X155.613 Y109.916 E14.85456
G1 F895.5 X156.285 Y109.922 E14.88451
G1 F993.8 X156.884 Y110.022 E14.9089
G1 F1200 X157.326 Y110.035 E14.92361
G1 X158.721 Y110.042 E14.97001
G1 X159.322 Y109.93 E14.99034
G1 X159.835 Y109.737 E15.00857
G1 X160.22 Y109.502 E15.02357
