;FLAVOR:Marlin
;TIME:8489
;Filament used: 6.3098m
;Layer height: 0.2
;MINX:19
;MINY:60.1
;MINZ:0.2
;MAXX:216
;MAXY:174.9
;MAXZ:3
;Generated with Cura_SteamEngine 5.2.2
M140 S50
M105
M190 S50
M104 S200
M105
M109 S200
M82 ;absolute extrusion mode
; Ender 3 Custom Start G-code
G92 E0 ; Reset Extruder
G28 ; Home all axes
G29 ; Auto Bed Level
G1 Z2.0 F3000 ; Move Z Axis up little to prevent scratching of Heat Bed
G1 X0.1 Y20 Z0.3 F5000.0 ; Move to start position
G1 X0.1 Y200.0 Z0.3 F1500.0 E15 ; Draw the first line
G1 X0.4 Y200.0 Z0.3 F5000.0 ; Move to side a little
G1 X0.4 Y20 Z0.3 F1500.0 E30 ; Draw the second line
G92 E0 ; Reset Extruder
G1 Z2.0 F3000 ; Move Z Axis up little to prevent scratching of Heat Bed
G1 X5 Y20 Z0.3 F5000.0 ; Move over to prevent blob squish
G92 E0
G92 E0
G1 F2700 E-5
;LAYER_COUNT:15
;LAYER:0
M107
;MESH:Controle-Dimensions-Ecran7p-Rpi.stl
G0 F6000 X38.231 Y161.676 Z0.2
;TYPE:WALL-INNER
G1 F2700 E0
G1 F1200 X37.69 Y161.606 E0.01814
G1 X37.217 Y161.507 E0.03422
G1 X36.675 Y161.349 E0.05299
G1 X36.123 Y161.133 E0.07271
G1 X35.634 Y160.891 E0.09086
G1 X35.211 Y160.639 E0.10723
G1 X34.764 Y160.321 E0.12548
G1 X34.315 Y159.943 E0.145
G1 X33.928 Y159.551 E0.16332
G1 X33.606 Y159.172 E0.17986
G1 X33.261 Y158.689 E0.1996
G1 X33.007 Y158.264 E0.21607
G1 X32.749 Y157.735 E0.23565
G1 X32.548 Y157.219 E0.25407
G1 X32.403 Y156.73 E0.27103
G1 X32.29 Y156.189 E0.28941
G1 X32.224 Y155.669 E0.30685
G1 X32.201 Y155.128 E0.32486
G1 X32.2 Y79.9 E2.82695
G1 X32.224 Y79.331 E2.84589
G1 X32.294 Y78.79 E2.86403
G1 X32.393 Y78.317 E2.88011
G1 X32.568 Y77.725 E2.90064
G1 X32.746 Y77.271 E2.91686
G1 X33.009 Y76.734 E2.93675
G1 X33.288 Y76.269 E2.95478
G1 X33.577 Y75.865 E2.9713
G1 X33.962 Y75.41 E2.99113
G1 X34.349 Y75.028 E3.00921
G1 X34.727 Y74.707 E3.02571
G1 X35.211 Y74.361 E3.0455
G1 X35.636 Y74.107 E3.06196
G1 X36.165 Y73.849 E3.08154
G1 X36.681 Y73.648 E3.09996
G1 X37.17 Y73.503 E3.11692
G1 X37.711 Y73.39 E3.1353
G1 X38.23 Y73.324 E3.15271
G1 X38.773 Y73.301 E3.17078
G1 X196.225 Y73.3 E8.40766
G1 X196.769 Y73.324 E8.42577
G1 X197.31 Y73.394 E8.44391
G1 X197.783 Y73.493 E8.45998
G1 X198.325 Y73.651 E8.47876
G1 X198.877 Y73.867 E8.49848
G1 X199.366 Y74.109 E8.51662
G1 X199.831 Y74.388 E8.53466
G1 X200.235 Y74.677 E8.55118
G1 X200.685 Y75.057 E8.57077
G1 X201.072 Y75.449 E8.58909
G1 X201.393 Y75.827 E8.60559
G1 X201.738 Y76.309 E8.6253
G1 X201.993 Y76.736 E8.64184
G1 X202.251 Y77.265 E8.66142
G1 X202.452 Y77.781 E8.67984
G1 X202.597 Y78.27 E8.6968
G1 X202.714 Y78.837 E8.71606
G1 X202.776 Y79.329 E8.73255
G1 X202.8 Y79.874 E8.75069
G1 X202.8 Y155.125 E11.25355
G1 X202.776 Y155.669 E11.27166
G1 X202.71 Y156.191 E11.28916
G1 X202.607 Y156.683 E11.30588
G1 X202.449 Y157.225 E11.32466
G1 X202.233 Y157.777 E11.34438
G1 X201.991 Y158.266 E11.36252
G1 X201.712 Y158.731 E11.38056
G1 X201.393 Y159.173 E11.39869
G1 X201.043 Y159.585 E11.41667
G1 X200.651 Y159.972 E11.43499
G1 X200.273 Y160.293 E11.45148
G1 X199.789 Y160.639 E11.47127
G1 X199.364 Y160.893 E11.48774
G1 X198.835 Y161.151 E11.50732
G1 X198.319 Y161.352 E11.52573
G1 X197.83 Y161.497 E11.5427
G1 X197.289 Y161.61 E11.56108
G1 X196.769 Y161.676 E11.57851
G1 X196.224 Y161.7 E11.59666
G1 X38.775 Y161.7 E16.83343
G1 X38.231 Y161.676 E16.85154
G1 F2700 E11.85154
G0 F6000 X38.216 Y161.775
G0 X37.18 Y161.684
G0 X30.71 Y174.299
G0 X28.411 Y174.5
G1 F2700 E16.85154
G1 F1200 X206.59 Y174.5 E22.7778
G1 X207.185 Y174.479 E22.7976
G1 X207.774 Y174.422 E22.81729
G1 X208.353 Y174.327 E22.8368
G1 X208.929 Y174.192 E22.85648
G1 X209.493 Y174.021 E22.87608
G1 X210.042 Y173.814 E22.89559
G1 X210.581 Y173.571 E22.91526
G1 X211.098 Y173.295 E22.93475
G1 X211.596 Y172.983 E22.9543
G1 X212.078 Y172.638 E22.97401
G1 X212.535 Y172.265 E22.99363
G1 X212.963 Y171.863 E23.01316
G1 X213.367 Y171.433 E23.03279
G1 X213.738 Y170.979 E23.05229
G1 X214.082 Y170.499 E23.07193
G1 X214.393 Y170 E23.09148
G1 X214.671 Y169.48 E23.1111
G1 X214.914 Y168.943 E23.1307
G1 X215.122 Y168.394 E23.15023
G1 X215.297 Y167.811 E23.17047
G1 X215.427 Y167.256 E23.18943
G1 X215.522 Y166.676 E23.20898
G1 X215.579 Y166.087 E23.22866
G1 X215.6 Y165.489 E23.24856
G1 X215.6 Y69.51 E26.44084
G1 X215.579 Y68.913 E26.46071
G1 X215.522 Y68.325 E26.48035
G1 X215.427 Y67.747 E26.49984
G1 X215.294 Y67.184 E26.51908
G1 X215.123 Y66.608 E26.53906
G1 X214.914 Y66.057 E26.55866
G1 X214.671 Y65.52 E26.57827
G1 X214.393 Y65 E26.59788
G1 X214.083 Y64.501 E26.61742
G1 X213.74 Y64.025 E26.63693
G1 X213.367 Y63.567 E26.65658
G1 X212.963 Y63.137 E26.6762
G1 X212.535 Y62.735 E26.69573
G1 X212.077 Y62.362 E26.71538
G1 X211.598 Y62.017 E26.73501
G1 X211.1 Y61.707 E26.75452
G1 X210.58 Y61.429 E26.77413
G1 X210.064 Y61.196 E26.79296
G1 X209.493 Y60.979 E26.81328
G1 X208.908 Y60.802 E26.83361
G1 X208.356 Y60.673 E26.85246
G1 X207.774 Y60.578 E26.87208
G1 X207.189 Y60.521 E26.89163
G1 X206.589 Y60.501 E26.91159
G1 X28.41 Y60.501 E32.83785
G1 X27.815 Y60.521 E32.85765
G1 X27.226 Y60.578 E32.87733
G1 X26.647 Y60.673 E32.89685
G1 X26.071 Y60.808 E32.91653
G1 X25.507 Y60.979 E32.93613
G1 X24.958 Y61.186 E32.95564
G1 X24.419 Y61.429 E32.97531
G1 X23.92 Y61.695 E32.99411
G1 X23.403 Y62.017 E33.01437
G1 X22.922 Y62.362 E33.03406
G1 X22.465 Y62.735 E33.05368
G1 X22.037 Y63.137 E33.07321
G1 X21.633 Y63.567 E33.09283
G1 X21.262 Y64.021 E33.11233
G1 X20.918 Y64.501 E33.13198
G1 X20.607 Y65 E33.15153
G1 X20.329 Y65.52 E33.17114
G1 X20.086 Y66.057 E33.19075
G1 X19.877 Y66.608 E33.21035
G1 X19.703 Y67.189 E33.23052
G1 X19.573 Y67.744 E33.24948
G1 X19.478 Y68.324 E33.26903
G1 X19.421 Y68.913 E33.28871
G1 X19.4 Y69.511 E33.30861
G1 X19.4 Y165.49 E36.50089
G1 X19.421 Y166.089 E36.52082
G1 X19.478 Y166.673 E36.54034
G1 X19.573 Y167.253 E36.55989
G1 X19.708 Y167.829 E36.57956
G1 X19.878 Y168.391 E36.59909
G1 X20.086 Y168.942 E36.61868
G1 X20.329 Y169.481 E36.63834
G1 X20.605 Y169.998 E36.65784
G1 X20.917 Y170.496 E36.67738
G1 X21.262 Y170.978 E36.6971
G1 X21.633 Y171.433 E36.71662
G1 X22.037 Y171.863 E36.73625
G1 X22.467 Y172.267 E36.75587
G1 X22.92 Y172.638 E36.77535
G1 X23.399 Y172.98 E36.79492
G1 X23.9 Y173.293 E36.81457
G1 X24.42 Y173.571 E36.83418
G1 X24.938 Y173.806 E36.8531
G1 X25.505 Y174.021 E36.87327
G1 X26.089 Y174.197 E36.89356
G1 X26.644 Y174.327 E36.91252
G1 X27.224 Y174.422 E36.93206
G1 X27.813 Y174.479 E36.95175
G1 X28.411 Y174.5 E36.97165
G0 F6000 X28.404 Y174.9
;TYPE:WALL-OUTER
G1 F1200 X206.597 Y174.9 E42.89837
G1 X207.211 Y174.879 E42.9188
G1 X207.826 Y174.819 E42.93936
G1 X208.431 Y174.719 E42.95975
G1 X209.033 Y174.578 E42.98032
G1 X209.622 Y174.4 E43.00078
G1 X210.195 Y174.184 E43.02115
G1 X210.757 Y173.93 E43.04166
G1 X211.298 Y173.641 E43.06206
G1 X211.819 Y173.315 E43.0825
G1 X212.321 Y172.956 E43.10303
G1 X212.799 Y172.566 E43.12355
G1 X213.246 Y172.146 E43.14395
G1 X213.668 Y171.697 E43.16444
G1 X214.056 Y171.223 E43.18482
G1 X214.415 Y170.721 E43.20534
G1 X214.739 Y170.2 E43.22575
G1 X215.03 Y169.657 E43.24624
G1 X215.284 Y169.097 E43.26669
G1 X215.501 Y168.522 E43.28713
G1 X215.684 Y167.914 E43.30825
G1 X215.819 Y167.334 E43.32806
G1 X215.919 Y166.728 E43.34849
G1 X215.979 Y166.113 E43.36904
G1 X216 Y165.496 E43.38957
G1 X216 Y69.503 E46.58231
G1 X215.979 Y68.887 E46.60281
G1 X215.919 Y68.273 E46.62333
G1 X215.819 Y67.669 E46.64369
G1 X215.681 Y67.081 E46.66378
G1 X215.502 Y66.48 E46.68464
G1 X215.284 Y65.903 E46.70515
G1 X215.03 Y65.343 E46.72561
G1 X214.739 Y64.8 E46.7461
G1 X214.415 Y64.279 E46.7665
G1 X214.058 Y63.781 E46.78688
G1 X213.668 Y63.303 E46.8074
G1 X213.246 Y62.854 E46.82789
G1 X212.799 Y62.434 E46.8483
G1 X212.321 Y62.044 E46.86881
G1 X211.821 Y61.685 E46.88929
G1 X211.3 Y61.361 E46.90969
G1 X210.757 Y61.07 E46.93018
G1 X210.218 Y60.826 E46.94986
G1 X209.622 Y60.6 E46.97106
G1 X209.012 Y60.416 E46.99225
G1 X208.434 Y60.281 E47.012
G1 X207.826 Y60.181 E47.03249
G1 X207.215 Y60.121 E47.05291
G1 X206.596 Y60.101 E47.07351
G1 X28.403 Y60.101 E53.00023
G1 X27.789 Y60.121 E53.02066
G1 X27.174 Y60.181 E53.04122
G1 X26.569 Y60.281 E53.06161
G1 X25.967 Y60.422 E53.08218
G1 X25.378 Y60.6 E53.10264
G1 X24.805 Y60.816 E53.12301
G1 X24.243 Y61.07 E53.14352
G1 X23.72 Y61.349 E53.16324
G1 X23.181 Y61.685 E53.18436
G1 X22.679 Y62.044 E53.20489
G1 X22.201 Y62.434 E53.22541
G1 X21.754 Y62.854 E53.24581
G1 X21.332 Y63.303 E53.2663
G1 X20.944 Y63.777 E53.28667
G1 X20.585 Y64.279 E53.3072
G1 X20.261 Y64.8 E53.32761
G1 X19.97 Y65.343 E53.3481
G1 X19.716 Y65.903 E53.36855
G1 X19.498 Y66.48 E53.38906
G1 X19.316 Y67.086 E53.41011
G1 X19.181 Y67.666 E53.42992
G1 X19.081 Y68.272 E53.45034
G1 X19.021 Y68.887 E53.4709
G1 X19 Y69.504 E53.49143
G1 X19 Y165.497 E56.68417
G1 X19.021 Y166.115 E56.70474
G1 X19.081 Y166.725 E56.72512
G1 X19.181 Y167.331 E56.74555
G1 X19.322 Y167.933 E56.76612
G1 X19.499 Y168.52 E56.78651
G1 X19.716 Y169.095 E56.80695
G1 X19.97 Y169.657 E56.82746
G1 X20.259 Y170.198 E56.84786
G1 X20.585 Y170.719 E56.8683
G1 X20.944 Y171.221 E56.88883
G1 X21.332 Y171.697 E56.90926
G1 X21.754 Y172.146 E56.92975
G1 X22.203 Y172.568 E56.95024
G1 X22.677 Y172.956 E56.97062
G1 X23.177 Y173.313 E56.99105
G1 X23.7 Y173.639 E57.01155
G1 X24.243 Y173.93 E57.03204
G1 X24.784 Y174.176 E57.05181
G1 X25.376 Y174.4 E57.07286
G1 X25.986 Y174.584 E57.09405
G1 X26.566 Y174.719 E57.11386
G1 X27.172 Y174.819 E57.13428
G1 X27.787 Y174.879 E57.15484
G1 X28.404 Y174.9 E57.17537
G1 F2700 E52.17537
G0 F6000 X28.272 Y174.393
G0 X196.199 Y174.3
G0 X196.792 Y161.855
G0 X196.719 Y161.279
G1 F2700 E57.17537
G1 F1200 X196.208 Y161.3 E57.19238
G1 X38.791 Y161.3 E62.42809
G1 X38.281 Y161.279 E62.44507
G1 X37.772 Y161.214 E62.46214
G1 X37.283 Y161.111 E62.47876
G1 X36.772 Y160.96 E62.49648
G1 X36.299 Y160.774 E62.51338
G1 X35.839 Y160.547 E62.53044
G1 X35.402 Y160.286 E62.54737
G1 X34.997 Y159.996 E62.56394
G1 X34.598 Y159.66 E62.58129
G1 X34.233 Y159.292 E62.59853
G1 X33.901 Y158.9 E62.61562
G1 X33.605 Y158.484 E62.6326
G1 X33.343 Y158.044 E62.64963
G1 X33.121 Y157.589 E62.66647
G1 X32.937 Y157.122 E62.68316
G1 X32.783 Y156.6 E62.70126
G1 X32.683 Y156.111 E62.71787
G1 X32.621 Y155.619 E62.73436
G1 X32.601 Y155.128 E62.7507
G1 X32.6 Y79.9 E65.2528
G1 X32.621 Y79.381 E65.27007
G1 X32.686 Y78.872 E65.28714
G1 X32.789 Y78.383 E65.30376
G1 X32.94 Y77.871 E65.32152
G1 X33.118 Y77.417 E65.33773
G1 X33.345 Y76.953 E65.35492
G1 X33.614 Y76.502 E65.37238
G1 X33.913 Y76.085 E65.38945
G1 X34.244 Y75.694 E65.40649
G1 X34.608 Y75.333 E65.42354
G1 X34.999 Y75.002 E65.44058
G1 X35.416 Y74.705 E65.4576
G1 X35.856 Y74.443 E65.47464
G1 X36.311 Y74.221 E65.49147
G1 X36.778 Y74.037 E65.50817
G1 X37.3 Y73.883 E65.52627
G1 X37.789 Y73.783 E65.54287
G1 X38.28 Y73.721 E65.55933
G1 X38.773 Y73.701 E65.57574
G1 X196.209 Y73.7 E70.81209
G1 X196.719 Y73.721 E70.82906
G1 X197.228 Y73.786 E70.84613
G1 X197.717 Y73.889 E70.86275
G1 X198.228 Y74.04 E70.88047
G1 X198.701 Y74.226 E70.89738
G1 X199.161 Y74.453 E70.91444
G1 X199.598 Y74.714 E70.93137
G1 X200.015 Y75.013 E70.94844
G1 X200.402 Y75.34 E70.96529
G1 X200.767 Y75.708 E70.98253
G1 X201.098 Y76.099 E70.99956
G1 X201.394 Y76.514 E71.01652
G1 X201.657 Y76.956 E71.03363
G1 X201.879 Y77.411 E71.05046
G1 X202.063 Y77.878 E71.06716
G1 X202.217 Y78.4 E71.08526
G1 X202.317 Y78.887 E71.1018
G1 X202.379 Y79.379 E71.11829
G1 X202.4 Y79.89 E71.1353
G1 X202.4 Y155.109 E73.63709
G1 X202.379 Y155.619 E73.65407
G1 X202.316 Y156.122 E73.67093
G1 X202.211 Y156.617 E73.68776
G1 X202.06 Y157.128 E73.70548
G1 X201.874 Y157.601 E73.72239
G1 X201.647 Y158.061 E73.73945
G1 X201.386 Y158.498 E73.75638
G1 X201.087 Y158.915 E73.77345
G1 X200.76 Y159.302 E73.7903
G1 X200.392 Y159.667 E73.80754
G1 X200.001 Y159.998 E73.82457
G1 X199.584 Y160.295 E73.8416
G1 X199.144 Y160.557 E73.85864
G1 X198.689 Y160.779 E73.87547
G1 X198.222 Y160.963 E73.89217
G1 X197.7 Y161.117 E73.91027
G1 X197.211 Y161.217 E73.92687
G1 X196.719 Y161.279 E73.94336
G1 F2700 E68.94336
G0 F6000 X196.878 Y161.763
G0 X38.279 Y161.78
G1 F2700 E73.94336
G0 F6000 X38.252 Y162.039
;TYPE:SKIN
G1 F1200 X37.614 Y161.958 E73.96475
G1 X37.129 Y161.858 E73.98122
G1 X36.56 Y161.692 E74.00094
G1 X35.961 Y161.456 E74.02235
G1 X35.46 Y161.207 E74.04096
G1 X35.011 Y160.939 E74.05835
G1 X34.543 Y160.605 E74.07748
G1 X34.045 Y160.185 E74.09914
G1 X33.677 Y159.813 E74.11655
G1 X33.327 Y159.401 E74.13453
G1 X32.949 Y158.87 E74.15621
G1 X32.657 Y158.375 E74.17532
G1 X32.413 Y157.865 E74.19413
G1 X32.202 Y157.321 E74.21353
G1 X32.053 Y156.818 E74.23098
G1 X31.934 Y156.252 E74.25022
G1 X31.86 Y155.629 E74.27108
G1 X31.841 Y155.162 E74.28663
G1 X31.84 Y79.87 E76.79085
G1 X31.861 Y79.352 E76.80809
G1 X31.942 Y78.713 E76.82952
G1 X32.062 Y78.152 E76.8486
G1 X32.209 Y77.657 E76.86577
G1 X32.435 Y77.081 E76.88635
G1 X32.7 Y76.547 E76.90618
G1 X32.996 Y76.058 E76.92519
G1 X33.292 Y75.644 E76.94212
G1 X33.65 Y75.216 E76.96068
G1 X34.083 Y74.781 E76.98109
G1 X34.506 Y74.422 E76.99954
G1 X35.028 Y74.05 E77.02086
G1 X35.463 Y73.79 E77.03772
G1 X35.976 Y73.539 E77.05672
G1 X36.562 Y73.305 E77.0777
G1 X37.082 Y73.153 E77.09572
G1 X37.645 Y73.035 E77.11485
G1 X38.27 Y72.96 E77.13579
G1 X38.742 Y72.941 E77.1515
G1 X196.239 Y72.94 E82.38987
G1 X196.748 Y72.961 E82.40682
G1 X197.387 Y73.042 E82.42824
G1 X197.943 Y73.16 E82.44714
G1 X198.439 Y73.308 E82.46436
G1 X199.026 Y73.538 E82.48533
G1 X199.554 Y73.801 E82.50495
G1 X200.042 Y74.096 E82.52391
G1 X200.456 Y74.392 E82.54084
G1 X200.884 Y74.75 E82.5594
G1 X201.347 Y75.216 E82.58125
G1 X201.677 Y75.605 E82.59822
G1 X202.046 Y76.123 E82.61937
G1 X202.31 Y76.565 E82.63649
G1 X202.587 Y77.132 E82.65748
G1 X202.776 Y77.612 E82.67464
G1 X202.947 Y78.181 E82.6944
G1 X203.062 Y78.732 E82.71312
G1 X203.14 Y79.366 E82.73437
G1 X203.16 Y79.856 E82.75068
G1 X203.16 Y155.14 E85.25463
G1 X203.139 Y155.647 E85.27151
G1 X203.063 Y156.266 E85.29225
G1 X202.938 Y156.848 E85.31205
G1 X202.791 Y157.343 E85.32923
G1 X202.563 Y157.924 E85.34999
G1 X202.332 Y158.395 E85.36743
G1 X202.042 Y158.884 E85.38634
G1 X201.707 Y159.357 E85.40562
G1 X201.307 Y159.829 E85.4262
G1 X200.917 Y160.219 E85.44454
G1 X200.494 Y160.578 E85.463
G1 X199.975 Y160.949 E85.48422
G1 X199.537 Y161.21 E85.50117
G1 X199.023 Y161.462 E85.52021
G1 X198.419 Y161.699 E85.54179
G1 X197.865 Y161.86 E85.56098
G1 X197.356 Y161.965 E85.57827
G1 X196.729 Y162.04 E85.59927
G1 X196.238 Y162.06 E85.61562
G1 X38.761 Y162.06 E90.85332
G1 X38.252 Y162.039 E90.87027
G1 F2700 E85.87027
G0 F6000 X38.279 Y161.78
G0 X37.18 Y161.684
G0 X30.71 Y174.299
G0 X28.417 Y174.139
G1 F2700 E90.87027
G1 F1200 X206.585 Y174.14 E96.79616
G1 X207.158 Y174.12 E96.81523
G1 X207.725 Y174.065 E96.83417
G1 X208.28 Y173.972 E96.85289
G1 X208.835 Y173.842 E96.87185
G1 X209.378 Y173.679 E96.89071
G1 X209.902 Y173.481 E96.90934
G1 X210.422 Y173.247 E96.9283
G1 X210.916 Y172.984 E96.94692
G1 X211.393 Y172.684 E96.96566
G1 X211.857 Y172.351 E96.98466
G1 X212.297 Y171.992 E97.00354
G1 X212.708 Y171.608 E97.02225
G1 X213.097 Y171.194 E97.04115
G1 X213.451 Y170.761 E97.05975
G1 X213.782 Y170.298 E97.07868
G1 X214.079 Y169.82 E97.09739
G1 X214.348 Y169.32 E97.11628
G1 X214.581 Y168.805 E97.13508
G1 X214.786 Y168.264 E97.15432
G1 X214.948 Y167.717 E97.1733
G1 X215.072 Y167.183 E97.19153
G1 X215.165 Y166.629 E97.21021
G1 X215.22 Y166.063 E97.22913
G1 X215.24 Y165.483 E97.24843
G1 X215.24 Y69.515 E100.44034
G1 X215.22 Y68.936 E100.45961
G1 X215.165 Y68.374 E100.47839
G1 X215.073 Y67.818 E100.49713
G1 X214.945 Y67.277 E100.51562
G1 X214.78 Y66.723 E100.53485
G1 X214.581 Y66.197 E100.55355
G1 X214.348 Y65.68 E100.57242
G1 X214.081 Y65.182 E100.59121
G1 X213.782 Y64.705 E100.60993
G1 X213.452 Y64.245 E100.62876
G1 X213.099 Y63.81 E100.6474
G1 X212.709 Y63.393 E100.66639
G1 X212.297 Y63.006 E100.68519
G1 X211.859 Y62.649 E100.70398
G1 X211.399 Y62.32 E100.72279
G1 X210.92 Y62.021 E100.74157
G1 X210.421 Y61.753 E100.76041
G1 X209.925 Y61.529 E100.77851
G1 X209.379 Y61.32 E100.79796
G1 X208.816 Y61.152 E100.8175
G1 X208.284 Y61.028 E100.83567
G1 X207.727 Y60.935 E100.85445
G1 X207.165 Y60.88 E100.87323
G1 X206.583 Y60.862 E100.8926
G1 X28.415 Y60.862 E106.81849
