;FLAVOR:Marlin
;TIME:27217
;Filament used: 18.7492m
;Layer height: 0.2
;MINX:42.634
;MINY:93.804
;MINZ:0.2
;MAXX:197.366
;MAXY:140.834
;MAXZ:85
;Generated with Cura_SteamEngine 5.2.2
M140 S70
M105
M190 S70
M104 S230
M105
M109 S230
M82 ;absolute extrusion mode
; Ender 3 Custom Start G-code
G92 E0 ; Reset Extruder
G28 ; Home all axes
G29 ; Auto Bed Level
G1 Z2.0 F3000 ; Move Z Axis up little to prevent scratching of Heat Bed
G1 X0.1 Y20 Z0.3 F5000.0 ; Move to start position
G1 X0.1 Y200.0 Z0.3 F1500.0 E15 ; Draw the first line
G1 X0.4 Y200.0 Z0.3 F5000.0 ; Move to side a little
G1 X0.4 Y20 Z0.3 F1500.0 E30 ; Draw the second line
G92 E0 ; Reset Extruder
G1 Z2.0 F3000 ; Move Z Axis up little to prevent scratching of Heat Bed
G1 X5 Y20 Z0.3 F5000.0 ; Move over to prevent blob squish
G92 E0
G92 E0
G1 F2700 E-5
;LAYER_COUNT:425
;LAYER:0
M107
G0 F6000 X47.763 Y94.938 Z0.2
;TYPE:SKIRT
G1 F2700 E0
G1 F900 X48.483 Y94.614 E0.02626
G1 X49.932 Y94.167 E0.0767
G1 X50.704 Y94.001 E0.10296
G1 X51.396 Y93.924 E0.12612
G1 X51.895 Y93.847 E0.14291
G1 X52.7 Y93.805 E0.16972
G1 X186 Y93.804 E4.6033
G1 X186.359 Y93.812 E4.61524
G1 X186.947 Y93.839 E4.63482
G1 X187.736 Y93.835 E4.66106
G1 X188.522 Y93.912 E4.68733
G1 X188.612 Y93.931 E4.69039
G1 X188.89 Y93.947 E4.69965
G1 X189.67 Y94.072 E4.72592
G1 X190.433 Y94.276 E4.75219
G1 X190.523 Y94.308 E4.75537
G1 X191.061 Y94.451 E4.77388
G1 X191.799 Y94.731 E4.80014
G1 X192.506 Y95.083 E4.82641
G1 X192.923 Y95.336 E4.84263
G1 X193.568 Y95.755 E4.86821
G1 X194.208 Y96.218 E4.89448
G1 X194.797 Y96.744 E4.92075
G1 X195.331 Y97.326 E4.94702
G1 X195.802 Y97.959 E4.97326
G1 X196.341 Y98.899 E5.0093
G1 X196.49 Y99.207 E5.02068
G1 X196.797 Y99.935 E5.04696
G1 X196.962 Y100.442 E5.06469
G1 X197.037 Y100.702 E5.07369
G1 X197.218 Y101.471 E5.09997
G1 X197.324 Y102.236 E5.12566
G1 X197.366 Y103.108 E5.15469
G1 X197.365 Y104.127 E5.18858
G1 X197.324 Y104.915 E5.21483
G1 X197.204 Y105.696 E5.24111
G1 X197.005 Y106.46 E5.26737
G1 X196.731 Y107.2 E5.29361
G1 X196.382 Y107.909 E5.3199
G1 X195.964 Y108.579 E5.34616
G1 X195.48 Y109.203 E5.37243
G1 X194.936 Y109.775 E5.39868
G1 X194.337 Y110.289 E5.42494
G1 X193.688 Y110.74 E5.45122
G1 X192.998 Y111.123 E5.47747
G1 X192.272 Y111.434 E5.50374
G1 X191.518 Y111.67 E5.53002
G1 X190.745 Y111.829 E5.55627
G1 X189.565 Y111.919 E5.59563
G1 X188.315 Y111.919 E5.6372
G1 X188.315 Y122.719 E5.99641
G1 X189.566 Y122.719 E6.03802
G1 X190.355 Y122.759 E6.06429
G1 X191.135 Y122.878 E6.09054
G1 X191.9 Y123.076 E6.11682
G1 X192.64 Y123.35 E6.14307
G1 X193.349 Y123.698 E6.16933
G1 X194.02 Y124.116 E6.19563
G1 X194.644 Y124.599 E6.22187
G1 X195.217 Y125.142 E6.24813
G1 X195.732 Y125.741 E6.2744
G1 X196.183 Y126.389 E6.30066
G1 X196.567 Y127.08 E6.32696
G1 X196.879 Y127.805 E6.35321
G1 X197.116 Y128.558 E6.37946
G1 X197.275 Y129.332 E6.40574
G1 X197.356 Y130.117 E6.43199
G1 X197.366 Y130.519 E6.44537
G1 X197.366 Y131.526 E6.47886
G1 X197.326 Y132.311 E6.505
G1 X197.3 Y132.568 E6.51359
G1 X197.181 Y133.349 E6.53987
G1 X197.032 Y133.954 E6.56059
G1 X196.961 Y134.199 E6.56908
G1 X196.703 Y134.945 E6.59533
G1 X196.517 Y135.37 E6.61076
G1 X196.37 Y135.68 E6.62217
G1 X195.996 Y136.375 E6.64842
G1 X195.553 Y137.03 E6.67472
G1 X195.047 Y137.636 E6.70098
G1 X194.482 Y138.187 E6.72723
G1 X193.563 Y138.884 E6.76559
G1 X192.907 Y139.309 E6.79159
G1 X192.223 Y139.705 E6.81788
G1 X191.503 Y140.029 E6.84414
G1 X190.442 Y140.358 E6.88109
G1 X189.93 Y140.508 E6.89883
G1 X189.155 Y140.659 E6.92509
G1 X188.715 Y140.699 E6.93979
G1 X188.063 Y140.797 E6.96172
G1 X187.303 Y140.834 E6.98702
G1 X54.002 Y140.833 E11.42063
G1 X53.648 Y140.825 E11.43241
G1 X52.86 Y140.789 E11.45865
G1 X52.701 Y140.792 E11.46394
G1 X51.912 Y140.766 E11.49019
G1 X51.659 Y140.732 E11.49868
G1 X50.875 Y140.663 E11.52486
G1 X50.099 Y140.516 E11.55113
G1 X49.643 Y140.375 E11.567
G1 X48.789 Y140.134 E11.59652
G1 X48.057 Y139.839 E11.62277
G1 X47.929 Y139.767 E11.62765
G1 X47.203 Y139.434 E11.65422
G1 X46.522 Y139.033 E11.6805
G1 X45.886 Y138.566 E11.70674
G1 X45.3 Y138.036 E11.73302
G1 X44.771 Y137.45 E11.75928
G1 X44.44 Y137.014 E11.77749
G1 X44.278 Y136.784 E11.78685
G1 X43.857 Y136.116 E11.81311
G1 X43.614 Y135.649 E11.83062
G1 X43.491 Y135.391 E11.84012
G1 X43.188 Y134.662 E11.86638
G1 X43.022 Y134.142 E11.88454
G1 X42.949 Y133.882 E11.89352
G1 X42.775 Y133.112 E11.91977
G1 X42.679 Y132.424 E11.94288
G1 X42.634 Y131.529 E11.97268
G1 X42.634 Y130.519 E12.00628
G1 X42.674 Y129.73 E12.03255
G1 X42.793 Y128.95 E12.0588
G1 X42.991 Y128.185 E12.08508
G1 X43.265 Y127.445 E12.11132
G1 X43.613 Y126.736 E12.13759
G1 X44.031 Y126.065 E12.16389
G1 X44.514 Y125.441 E12.19013
G1 X45.057 Y124.868 E12.21639
G1 X45.656 Y124.353 E12.24266
G1 X46.304 Y123.902 E12.26892
G1 X46.995 Y123.518 E12.29521
G1 X47.72 Y123.206 E12.32147
G1 X48.473 Y122.969 E12.34772
G1 X49.247 Y122.81 E12.374
G1 X50.032 Y122.729 E12.40025
G1 X50.434 Y122.719 E12.41363
G1 X51.685 Y122.719 E12.45523
G1 X51.686 Y111.919 E12.81444
G1 X50.435 Y111.919 E12.85605
G1 X49.646 Y111.879 E12.88233
G1 X48.866 Y111.76 E12.90857
G1 X48.101 Y111.562 E12.93485
G1 X47.361 Y111.288 E12.9611
G1 X46.652 Y110.94 E12.98737
G1 X45.981 Y110.522 E13.01366
G1 X45.357 Y110.039 E13.03991
G1 X44.784 Y109.496 E13.06616
G1 X44.269 Y108.897 E13.09244
G1 X43.818 Y108.249 E13.1187
G1 X43.434 Y107.558 E13.14499
G1 X43.122 Y106.833 E13.17124
G1 X42.885 Y106.08 E13.1975
G1 X42.726 Y105.306 E13.22378
G1 X42.645 Y104.521 E13.25002
G1 X42.635 Y104.119 E13.2634
G1 X42.635 Y103.131 E13.29626
G1 X42.668 Y102.41 E13.32027
G1 X42.694 Y102.13 E13.32962
G1 X42.807 Y101.348 E13.3559
G1 X42.974 Y100.665 E13.37928
G1 X43.047 Y100.415 E13.38795
G1 X43.306 Y99.669 E13.41421
G1 X43.615 Y98.985 E13.43918
G1 X43.986 Y98.288 E13.46544
G1 X44.425 Y97.632 E13.49169
G1 X44.929 Y97.023 E13.51798
G1 X45.491 Y96.469 E13.54423
G1 X46.107 Y95.975 E13.57049
G1 X46.438 Y95.748 E13.58384
G1 X47.079 Y95.333 E13.60924
G1 X47.763 Y94.938 E13.63551
G0 F6000 X47.963 Y95.285
G1 F900 X48.666 Y94.973 E13.66109
G1 X50.055 Y94.548 E13.7094
G1 X50.808 Y94.39 E13.735
G1 X51.399 Y94.328 E13.75476
G1 X51.976 Y94.241 E13.77417
G1 X52.7 Y94.205 E13.79828
G1 X186 Y94.204 E18.23185
G1 X186.34 Y94.212 E18.24317
G1 X186.94 Y94.24 E18.26314
G1 X187.738 Y94.236 E18.28969
G1 X188.503 Y94.313 E18.31526
G1 X188.583 Y94.33 E18.31798
G1 X188.867 Y94.347 E18.32744
G1 X189.626 Y94.472 E18.35303
G1 X190.099 Y94.615 E18.36946
G1 X190.214 Y94.639 E18.37337
G1 X190.957 Y94.838 E18.39895
G1 X191.676 Y95.113 E18.42455
G1 X192.362 Y95.461 E18.45014
G1 X192.705 Y95.671 E18.46352
G1 X193.35 Y96.09 E18.4891
G1 X193.973 Y96.542 E18.5147
G1 X194.545 Y97.056 E18.54028
G1 X195.06 Y97.627 E18.56585
G1 X195.514 Y98.248 E18.59144
G1 X195.98 Y99.073 E18.62295
G1 X196.129 Y99.381 E18.63433
G1 X196.428 Y100.09 E18.65992
G1 X196.578 Y100.553 E18.67611
G1 X196.653 Y100.813 E18.68511
G1 X196.828 Y101.562 E18.71069
G1 X196.926 Y102.277 E18.7347
G1 X196.966 Y103.107 E18.76233
G1 X196.965 Y104.126 E18.79623
G1 X196.924 Y104.894 E18.82181
G1 X196.804 Y105.654 E18.8474
G1 X196.606 Y106.397 E18.87297
G1 X196.331 Y107.116 E18.89858
G1 X195.983 Y107.802 E18.92416
G1 X195.567 Y108.448 E18.94972
G1 X195.085 Y109.048 E18.97531
G1 X194.543 Y109.594 E19.0009
G1 X193.948 Y110.081 E19.02648
G1 X193.306 Y110.504 E19.05205
G1 X192.623 Y110.858 E19.07763
G1 X191.907 Y111.139 E19.10322
G1 X191.165 Y111.344 E19.12882
G1 X190.407 Y111.471 E19.15438
G1 X189.565 Y111.519 E19.18243
G1 X187.915 Y111.519 E19.23731
G1 X187.915 Y123.119 E19.62313
G1 X189.566 Y123.119 E19.67804
G1 X190.334 Y123.159 E19.70362
G1 X191.094 Y123.278 E19.72921
G1 X191.837 Y123.476 E19.75478
G1 X192.556 Y123.75 E19.78037
G1 X193.242 Y124.097 E19.80594
G1 X193.889 Y124.513 E19.83153
G1 X194.489 Y124.994 E19.8571
G1 X195.036 Y125.535 E19.88269
G1 X195.524 Y126.13 E19.90829
G1 X195.947 Y126.772 E19.93386
G1 X196.302 Y127.455 E19.95946
G1 X196.583 Y128.17 E19.98501
G1 X196.789 Y128.912 E20.01062
G1 X196.917 Y129.67 E20.03619
G1 X196.966 Y130.519 E20.06448
G1 X196.966 Y131.526 E20.09797
G1 X196.928 Y132.271 E20.12278
G1 X196.902 Y132.528 E20.13137
G1 X196.785 Y133.288 E20.15695
G1 X196.648 Y133.843 E20.17596
G1 X196.577 Y134.088 E20.18444
G1 X196.324 Y134.814 E20.21001
G1 X196.155 Y135.199 E20.224
G1 X196.008 Y135.509 E20.23541
G1 X195.643 Y136.186 E20.26099
G1 X195.21 Y136.821 E20.28655
G1 X194.712 Y137.408 E20.31216
G1 X194.157 Y137.94 E20.33773
G1 X193.346 Y138.549 E20.37146
G1 X192.69 Y138.974 E20.39746
G1 X192.023 Y139.358 E20.42306
G1 X191.321 Y139.67 E20.44861
G1 X190.351 Y139.969 E20.48237
G1 X190.248 Y139.993 E20.48589
G1 X189.814 Y140.124 E20.50096
G1 X189.059 Y140.269 E20.52653
G1 X188.686 Y140.301 E20.53899
G1 X187.984 Y140.403 E20.56258
G1 X187.303 Y140.434 E20.58525
G1 X54.002 Y140.433 E25.01886
G1 X53.666 Y140.425 E25.03004
G1 X52.871 Y140.389 E25.05651
G1 X52.694 Y140.392 E25.0624
G1 X51.925 Y140.365 E25.08799
G1 X51.678 Y140.331 E25.09628
G1 X50.89 Y140.262 E25.12259
G1 X50.136 Y140.113 E25.14816
G1 X49.726 Y139.985 E25.16244
G1 X48.901 Y139.75 E25.19097
G1 X48.188 Y139.459 E25.21659
G1 X48.069 Y139.393 E25.22111
G1 X47.37 Y139.07 E25.24672
G1 X46.709 Y138.677 E25.2723
G1 X46.093 Y138.218 E25.29785
G1 X45.527 Y137.696 E25.32346
G1 X45.018 Y137.119 E25.34905
G1 X44.605 Y136.553 E25.37235
G1 X44.195 Y135.902 E25.39794
G1 X43.975 Y135.477 E25.41386
G1 X43.852 Y135.219 E25.42337
G1 X43.558 Y134.508 E25.44896
G1 X43.407 Y134.034 E25.4655
G1 X43.334 Y133.774 E25.47448
G1 X43.165 Y133.024 E25.50006
G1 X43.077 Y132.378 E25.52174
G1 X43.034 Y131.529 E25.55001
G1 X43.034 Y130.519 E25.58361
G1 X43.074 Y129.751 E25.60918
G1 X43.193 Y128.991 E25.63477
G1 X43.391 Y128.248 E25.66035
G1 X43.665 Y127.529 E25.68594
G1 X44.012 Y126.843 E25.71151
G1 X44.428 Y126.196 E25.73709
G1 X44.909 Y125.596 E25.76267
G1 X45.45 Y125.049 E25.78826
G1 X46.045 Y124.561 E25.81385
G1 X46.687 Y124.138 E25.83942
G1 X47.37 Y123.783 E25.86502
G1 X48.085 Y123.502 E25.89057
G1 X48.827 Y123.296 E25.91619
G1 X49.585 Y123.168 E25.94176
G1 X50.434 Y123.119 E25.97004
G1 X52.085 Y123.119 E26.02495
G1 X52.086 Y111.519 E26.41077
G1 X50.435 Y111.519 E26.46568
G1 X49.667 Y111.479 E26.49126
G1 X48.907 Y111.36 E26.51685
G1 X48.164 Y111.162 E26.54242
G1 X47.445 Y110.888 E26.56801
G1 X46.759 Y110.541 E26.59358
G1 X46.112 Y110.125 E26.61917
G1 X45.512 Y109.644 E26.64474
G1 X44.965 Y109.103 E26.67033
G1 X44.477 Y108.508 E26.69593
G1 X44.054 Y107.866 E26.7215
G1 X43.699 Y107.183 E26.7471
G1 X43.418 Y106.468 E26.77265
G1 X43.212 Y105.726 E26.79826
G1 X43.084 Y104.968 E26.82383
G1 X43.035 Y104.119 E26.85212
G1 X43.035 Y103.131 E26.88498
G1 X43.067 Y102.447 E26.90775
G1 X43.093 Y102.167 E26.91711
G1 X43.204 Y101.406 E26.94268
G1 X43.358 Y100.777 E26.96422
G1 X43.431 Y100.527 E26.97288
G1 X43.834 Y99.46 E27.01082
G1 X43.977 Y99.155 E27.02202
G1 X44.339 Y98.476 E27.04762
G1 X44.77 Y97.839 E27.0732
G1 X45.264 Y97.25 E27.09877
G1 X45.817 Y96.715 E27.12436
G1 X46.655 Y96.084 E27.15925
G1 X47.296 Y95.669 E27.18465
G1 X47.963 Y95.285 E27.21024
G0 F6000 X48.162 Y95.633
G1 F900 X48.847 Y95.332 E27.23513
G1 X49.828 Y95.042 E27.26915
G1 X50.177 Y94.93 E27.28134
G1 X50.91 Y94.779 E27.30624
G1 X51.392 Y94.732 E27.32234
G1 X52.056 Y94.635 E27.34466
G1 X52.7 Y94.605 E27.36611
G1 X186 Y94.604 E31.79968
G1 X186.322 Y94.611 E31.81039
G1 X186.953 Y94.64 E31.8314
G1 X187.739 Y94.636 E31.85755
G1 X188.483 Y94.715 E31.88243
G1 X188.547 Y94.729 E31.88461
G1 X188.843 Y94.747 E31.89447
G1 X189.58 Y94.872 E31.91934
G1 X190.026 Y95.008 E31.93484
G1 X190.131 Y95.03 E31.93841
G1 X190.853 Y95.225 E31.96329
G1 X191.551 Y95.495 E31.98818
G1 X192.487 Y96.007 E32.02366
G1 X193.132 Y96.426 E32.04924
G1 X193.737 Y96.866 E32.07413
G1 X194.291 Y97.369 E32.09901
G1 X194.789 Y97.928 E32.12391
G1 X195.224 Y98.536 E32.14878
G1 X195.62 Y99.248 E32.17588
G1 X195.769 Y99.556 E32.18726
G1 X196.059 Y100.245 E32.21212
G1 X196.194 Y100.664 E32.22676
G1 X196.269 Y100.924 E32.23576
G1 X196.437 Y101.653 E32.26064
G1 X196.528 Y102.316 E32.2829
G1 X196.566 Y103.107 E32.30924
G1 X196.565 Y104.126 E32.34313
G1 X196.524 Y104.873 E32.36802
G1 X196.404 Y105.611 E32.39288
G1 X196.206 Y106.332 E32.41775
G1 X195.932 Y107.029 E32.44266
G1 X195.585 Y107.691 E32.46752
G1 X195.169 Y108.313 E32.49241
G1 X194.69 Y108.887 E32.51728
G1 X194.152 Y109.407 E32.54216
G1 X193.561 Y109.866 E32.56705
G1 X192.925 Y110.26 E32.59193
G1 X192.25 Y110.583 E32.61682
G1 X191.545 Y110.833 E32.6417
G1 X190.817 Y111.006 E32.66659
G1 X190.075 Y111.1 E32.69147
G1 X189.565 Y111.119 E32.70844
G1 X187.775 Y111.119 E32.76798
G1 X187.515 Y111.105 E32.77664
G1 X187.515 Y123.529 E33.18986
G1 X187.775 Y123.519 E33.19851
G1 X189.566 Y123.519 E33.25808
G1 X190.313 Y123.559 E33.28296
G1 X191.051 Y123.678 E33.30783
G1 X191.773 Y123.876 E33.33273
G1 X192.469 Y124.149 E33.35759
G1 X193.132 Y124.496 E33.38248
G1 X193.755 Y124.911 E33.40738
G1 X194.329 Y125.39 E33.43225
G1 X194.85 Y125.927 E33.45713
G1 X195.309 Y126.517 E33.48199
G1 X195.704 Y127.153 E33.50689
G1 X196.028 Y127.827 E33.53177
G1 X196.278 Y128.532 E33.55665
G1 X196.452 Y129.26 E33.58154
G1 X196.547 Y130.002 E33.60642
G1 X196.566 Y130.519 E33.62363
G1 X196.566 Y131.526 E33.65712
G1 X196.53 Y132.231 E33.6806
G1 X196.504 Y132.488 E33.68919
G1 X196.389 Y133.227 E33.71407
G1 X196.263 Y133.731 E33.73135
G1 X196.192 Y133.976 E33.73983
G1 X195.946 Y134.683 E33.76473
G1 X195.647 Y135.337 E33.78865
G1 X195.291 Y135.995 E33.81353
G1 X194.866 Y136.611 E33.83842
G1 X194.379 Y137.178 E33.86328
G1 X193.833 Y137.69 E33.88818
G1 X193.128 Y138.213 E33.91737
G1 X192.472 Y138.638 E33.94337
G1 X191.823 Y139.01 E33.96825
G1 X191.139 Y139.312 E33.99312
G1 X189.699 Y139.741 E34.04309
G1 X188.963 Y139.878 E34.06799
G1 X188.655 Y139.902 E34.07827
G1 X187.906 Y140.008 E34.10343
G1 X187.303 Y140.034 E34.1235
G1 X54.002 Y140.033 E38.55711
G1 X53.684 Y140.026 E38.56769
G1 X52.866 Y139.989 E38.59493
G1 X52.687 Y139.992 E38.60088
G1 X51.939 Y139.965 E38.62578
G1 X51.651 Y139.931 E38.63542
G1 X50.906 Y139.86 E38.66031
G1 X50.174 Y139.709 E38.68517
G1 X49.809 Y139.593 E38.69791
G1 X49.013 Y139.365 E38.72545
G1 X48.321 Y139.08 E38.75034
G1 X48.211 Y139.018 E38.75454
G1 X47.539 Y138.707 E38.77917
G1 X46.897 Y138.322 E38.80407
G1 X46.301 Y137.87 E38.82895
G1 X45.756 Y137.358 E38.85382
G1 X45.094 Y136.553 E38.88848
G1 X44.932 Y136.323 E38.89784
G1 X44.535 Y135.689 E38.92272
G1 X44.336 Y135.304 E38.93713
G1 X44.213 Y135.046 E38.94664
G1 X43.928 Y134.355 E38.9715
G1 X43.793 Y133.926 E38.98646
G1 X43.72 Y133.666 E38.99544
G1 X43.556 Y132.936 E39.02033
G1 X43.475 Y132.336 E39.04046
G1 X43.434 Y131.529 E39.06734
G1 X43.434 Y130.519 E39.10093
G1 X43.474 Y129.772 E39.12581
G1 X43.593 Y129.034 E39.15068
G1 X43.791 Y128.312 E39.17558
G1 X44.064 Y127.616 E39.20044
G1 X44.411 Y126.953 E39.22533
G1 X44.826 Y126.33 E39.25023
G1 X45.305 Y125.756 E39.27509
G1 X45.842 Y125.235 E39.29998
G1 X46.432 Y124.776 E39.32484
G1 X47.068 Y124.381 E39.34974
G1 X47.742 Y124.057 E39.37462
G1 X48.447 Y123.807 E39.39949
G1 X49.175 Y123.633 E39.42439
G1 X49.917 Y123.538 E39.44927
G1 X50.434 Y123.519 E39.46648
G1 X52.225 Y123.519 E39.52605
G1 X52.485 Y123.533 E39.53471
G1 X52.486 Y111.109 E39.94793
G1 X52.225 Y111.119 E39.95662
G1 X50.435 Y111.119 E40.01615
G1 X49.688 Y111.079 E40.04103
G1 X48.95 Y110.96 E40.0659
G1 X48.228 Y110.762 E40.0908
G1 X47.532 Y110.489 E40.11566
G1 X46.869 Y110.142 E40.14055
G1 X46.246 Y109.727 E40.16545
G1 X45.672 Y109.248 E40.19032
G1 X45.151 Y108.711 E40.2152
G1 X44.692 Y108.121 E40.24006
G1 X44.297 Y107.485 E40.26497
G1 X43.973 Y106.811 E40.28984
G1 X43.723 Y106.106 E40.31472
G1 X43.549 Y105.378 E40.33961
G1 X43.454 Y104.636 E40.36449
G1 X43.435 Y104.119 E40.3817
G1 X43.435 Y103.131 E40.41456
G1 X43.465 Y102.484 E40.4361
G1 X43.491 Y102.204 E40.44546
G1 X43.6 Y101.464 E40.47033
G1 X43.742 Y100.889 E40.49003
G1 X43.815 Y100.639 E40.4987
G1 X44.196 Y99.629 E40.5346
G1 X44.339 Y99.324 E40.5458
G1 X44.692 Y98.665 E40.57067
G1 X45.114 Y98.047 E40.59556
G1 X45.599 Y97.478 E40.62043
G1 X46.142 Y96.963 E40.64532
G1 X46.873 Y96.42 E40.6756
