;FLAVOR:Marlin
;TIME:23809
;Filament used: 30.6514m
;Layer height: 0.2
;MINX:74.053
;MINY:67.899
;MINZ:0.2
;MAXX:166.24
;MAXY:167.1
;MAXZ:50
;Generated with Cura_SteamEngine 5.2.2
M140 S50
M105
M190 S50
M104 S210
M105
M109 S210
M82 ;absolute extrusion mode
; Ender 3 Custom Start G-code
G92 E0 ; Reset Extruder
G28 ; Home all axes
G29 ; Auto Bed Level
G1 Z2.0 F3000 ; Move Z Axis up little to prevent scratching of Heat Bed
G1 X0.1 Y20 Z0.3 F5000.0 ; Move to start position
G1 X0.1 Y200.0 Z0.3 F1500.0 E15 ; Draw the first line
G1 X0.4 Y200.0 Z0.3 F5000.0 ; Move to side a little
G1 X0.4 Y20 Z0.3 F1500.0 E30 ; Draw the second line
G92 E0 ; Reset Extruder
G1 Z2.0 F3000 ; Move Z Axis up little to prevent scratching of Heat Bed
G1 X5 Y20 Z0.3 F5000.0 ; Move over to prevent blob squish
G92 E0
G92 E0
G1 F2700 E-5
;LAYER_COUNT:250
;LAYER:0
M107
G0 F6000 X82.862 Y77.912 Z0.2
;TYPE:SKIRT
G1 F2700 E0
G1 F1200 X83.368 Y77.39 E0.03627
G1 X84.24 Y76.545 E0.09685
G1 X84.956 Y75.895 E0.14509
G1 X85.506 Y75.422 E0.18129
G1 X86.26 Y74.808 E0.2298
G1 X87.03 Y74.219 E0.27816
G1 X87.822 Y73.65 E0.32682
G1 X88.829 Y72.977 E0.38724
G1 X89.653 Y72.466 E0.43562
G1 X90.278 Y72.101 E0.47173
G1 X91.12 Y71.638 E0.51966
G1 X92.209 Y71.088 E0.58053
G1 X93.094 Y70.677 E0.62921
G1 X93.986 Y70.296 E0.6776
G1 X94.881 Y69.945 E0.72557
G1 X95.562 Y69.698 E0.76171
G1 X96.493 Y69.389 E0.81065
G1 X97.417 Y69.113 E0.85876
G1 X98.596 Y68.803 E0.91958
G1 X99.527 Y68.592 E0.9672
G1 X100.487 Y68.404 E1.01601
G1 X101.203 Y68.284 E1.05223
G1 X102.165 Y68.149 E1.10069
G1 X103.378 Y68.02 E1.16155
G1 X104.335 Y67.952 E1.20942
G1 X105.059 Y67.919 E1.24557
G1 X106.152 Y67.9 E1.30011
G1 X114.152 Y67.899 E1.69923
G1 X114.956 Y67.939 E1.7394
G1 X115.752 Y68.058 E1.77955
G1 X116.532 Y68.256 E1.8197
G1 X117.288 Y68.53 E1.85982
G1 X118.014 Y68.878 E1.89998
G1 X118.701 Y69.297 E1.94013
G1 X119.344 Y69.781 E1.98028
G1 X119.935 Y70.327 E2.02042
G1 X120.146 Y70.565 E2.03629
G1 X120.467 Y70.217 E2.05991
G1 X121.069 Y69.683 E2.10006
G1 X121.721 Y69.211 E2.14022
G1 X122.417 Y68.806 E2.18039
G1 X123.149 Y68.472 E2.22053
G1 X123.911 Y68.213 E2.26068
G1 X124.694 Y68.03 E2.3008
G1 X125.492 Y67.926 E2.34095
G1 X126.139 Y67.9 E2.37325
G1 X134.262 Y67.901 E2.77851
G1 X135.233 Y67.919 E2.82696
G1 X136.19 Y67.966 E2.87477
G1 X136.914 Y68.02 E2.91099
G1 X137.894 Y68.121 E2.96014
G1 X139.095 Y68.285 E3.02061
G1 X140.046 Y68.449 E3.06876
G1 X140.989 Y68.64 E3.11676
G1 X141.95 Y68.865 E3.166
G1 X142.873 Y69.112 E3.21367
G1 X143.808 Y69.392 E3.26237
G1 X144.73 Y69.698 E3.31083
G1 X145.411 Y69.945 E3.34697
G1 X146.306 Y70.296 E3.39493
G1 X147.198 Y70.677 E3.44333
G1 X148.309 Y71.197 E3.50453
G1 X148.954 Y71.524 E3.5406
G1 X150.023 Y72.106 E3.60133
G1 X150.848 Y72.593 E3.64912
G1 X151.664 Y73.107 E3.69724
G1 X152.473 Y73.651 E3.74588
G1 X153.273 Y74.227 E3.79506
G1 X154.019 Y74.799 E3.84196
G1 X154.786 Y75.422 E3.89125
G1 X155.519 Y76.057 E3.93964
G1 X156.054 Y76.546 E3.9758
G1 X156.925 Y77.391 E4.03634
G1 X157.593 Y78.085 E4.0844
G1 X158.082 Y78.62 E4.12056
G1 X158.717 Y79.353 E4.16894
G1 X159.331 Y80.107 E4.21746
G1 X160.073 Y81.084 E4.27866
G1 X160.622 Y81.862 E4.32617
G1 X161.159 Y82.671 E4.37461
G1 X161.544 Y83.286 E4.41081
G1 X162.156 Y84.335 E4.4714
G1 X162.619 Y85.193 E4.52004
G1 X163.055 Y86.065 E4.56868
G1 X163.457 Y86.932 E4.61636
G1 X163.843 Y87.833 E4.66526
G1 X164.194 Y88.728 E4.71322
G1 X164.441 Y89.409 E4.74936
G1 X164.75 Y90.34 E4.7983
G1 X165.025 Y91.26 E4.84621
G1 X165.276 Y92.203 E4.89489
G1 X165.547 Y93.374 E4.95486
G1 X165.689 Y94.084 E4.99098
G1 X165.855 Y95.053 E5.04003
G1 X166.02 Y96.259 E5.10076
G1 X166.117 Y97.213 E5.1486
G1 X166.172 Y97.934 E5.18467
G1 X166.22 Y98.907 E5.23328
G1 X166.239 Y100 E5.28781
G1 X166.24 Y159 E8.23134
G1 X166.2 Y159.804 E8.2715
G1 X166.081 Y160.599 E8.3116
G1 X165.883 Y161.379 E8.35175
G1 X165.608 Y162.136 E8.39193
G1 X165.26 Y162.862 E8.4321
G1 X164.842 Y163.549 E8.47222
G1 X164.357 Y164.192 E8.5124
G1 X163.812 Y164.783 E8.55251
G1 X163.21 Y165.317 E8.59266
G1 X162.558 Y165.789 E8.63281
G1 X161.863 Y166.194 E8.67295
G1 X161.13 Y166.528 E8.71313
G1 X160.369 Y166.787 E8.75324
G1 X159.585 Y166.97 E8.7934
G1 X158.787 Y167.074 E8.83355
G1 X158.14 Y167.1 E8.86586
G1 X126.139 Y167.1 E10.46239
G1 X125.335 Y167.06 E10.50256
G1 X124.539 Y166.94 E10.54272
G1 X123.759 Y166.743 E10.58285
G1 X123.003 Y166.468 E10.62299
G1 X122.277 Y166.12 E10.66315
G1 X121.59 Y165.702 E10.70327
G1 X120.947 Y165.217 E10.74346
G1 X120.356 Y164.672 E10.78356
G1 X120.146 Y164.435 E10.79936
G1 X119.825 Y164.783 E10.82298
G1 X119.223 Y165.317 E10.86313
G1 X118.571 Y165.789 E10.90329
G1 X117.875 Y166.194 E10.94346
G1 X117.143 Y166.528 E10.9836
G1 X116.381 Y166.787 E11.02376
G1 X115.598 Y166.97 E11.06387
G1 X114.8 Y167.074 E11.10402
G1 X114.153 Y167.1 E11.13633
G1 X82.153 Y167.1 E12.73281
G1 X81.349 Y167.06 E12.77297
G1 X80.553 Y166.94 E12.81314
G1 X79.773 Y166.743 E12.85327
G1 X79.017 Y166.468 E12.89341
G1 X78.291 Y166.12 E12.93357
G1 X77.604 Y165.702 E12.97369
G1 X76.961 Y165.217 E13.01387
G1 X76.37 Y164.672 E13.05398
G1 X75.836 Y164.07 E13.09413
G1 X75.364 Y163.418 E13.13429
G1 X74.959 Y162.722 E13.17446
G1 X74.625 Y161.99 E13.2146
G1 X74.366 Y161.228 E13.25476
G1 X74.183 Y160.445 E13.29487
G1 X74.079 Y159.647 E13.33502
G1 X74.053 Y159 E13.36733
G1 X74.054 Y99.877 E16.31699
G1 X74.072 Y98.904 E16.36554
G1 X74.105 Y98.182 E16.4016
G1 X74.175 Y97.214 E16.45001
G1 X74.273 Y96.257 E16.49801
G1 X74.4 Y95.295 E16.54642
G1 X74.558 Y94.333 E16.59506
G1 X74.794 Y93.146 E16.65544
G1 X74.957 Y92.438 E16.69168
G1 X75.201 Y91.496 E16.74023
G1 X75.47 Y90.57 E16.78834
G1 X75.849 Y89.416 E16.84894
G1 X76.185 Y88.497 E16.89775
G1 X76.452 Y87.825 E16.93383
G1 X76.928 Y86.725 E16.99363
G1 X77.35 Y85.83 E17.04299
G1 X77.677 Y85.185 E17.07907
G1 X78.256 Y84.122 E17.13946
G1 X78.744 Y83.294 E17.18741
G1 X79.128 Y82.679 E17.22358
G1 X79.668 Y81.865 E17.27232
G1 X80.226 Y81.075 E17.32057
G1 X80.817 Y80.292 E17.36951
G1 X81.575 Y79.353 E17.42972
G1 X82.211 Y78.62 E17.47814
G1 X82.862 Y77.912 E17.52612
G0 F6000 X83.293 Y78.33
G1 F1200 X83.964 Y77.642 E17.57407
G1 X84.484 Y77.138 E17.6102
G1 X85.348 Y76.35 E17.66854
G1 X86.074 Y75.73 E17.71617
G1 X86.815 Y75.135 E17.76358
G1 X87.58 Y74.559 E17.81135
G1 X88.352 Y74.013 E17.85853
G1 X88.955 Y73.61 E17.89471
G1 X89.763 Y73.101 E17.94236
G1 X90.771 Y72.512 E18.0006
G1 X91.62 Y72.053 E18.04875
G1 X92.463 Y71.631 E18.09578
G1 X93.12 Y71.323 E18.13199
G1 X94.207 Y70.854 E18.19105
G1 X95.086 Y70.509 E18.23816
G1 X95.767 Y70.262 E18.2743
G1 X96.892 Y69.893 E18.33337
G1 X97.587 Y69.688 E18.36952
G1 X98.503 Y69.444 E18.41681
G1 X99.434 Y69.226 E18.46452
G1 X100.586 Y68.996 E18.52312
G1 X101.528 Y68.842 E18.57074
G1 X102.464 Y68.717 E18.61786
G1 X103.185 Y68.64 E18.65403
G1 X104.145 Y68.565 E18.70207
G1 X105.087 Y68.519 E18.74912
G1 X106.152 Y68.5 E18.80227
G1 X114.152 Y68.499 E19.20139
G1 X114.925 Y68.539 E19.24
G1 X115.69 Y68.658 E19.27863
G1 X116.439 Y68.856 E19.31728
G1 X117.163 Y69.13 E19.3559
G1 X117.856 Y69.477 E19.39457
G1 X118.508 Y69.893 E19.43315
G1 X119.115 Y70.375 E19.47182
G1 X119.668 Y70.916 E19.51042
G1 X120.151 Y71.497 E19.54811
G1 X120.516 Y71.038 E19.57737
G1 X121.057 Y70.484 E19.616
G1 X121.653 Y69.99 E19.65462
G1 X122.297 Y69.559 E19.69328
G1 X122.981 Y69.197 E19.73189
G1 X123.699 Y68.908 E19.77051
G1 X124.444 Y68.694 E19.80918
G1 X125.206 Y68.558 E19.8478
G1 X126.139 Y68.5 E19.89443
G1 X134.253 Y68.501 E20.29924
G1 X135.205 Y68.519 E20.34675
G1 X136.146 Y68.565 E20.39375
G1 X137.111 Y68.641 E20.44204
G1 X138.043 Y68.744 E20.48882
G1 X138.996 Y68.877 E20.53683
G1 X139.929 Y69.037 E20.58406
G1 X140.642 Y69.179 E20.62033
G1 X141.56 Y69.387 E20.66729
G1 X142.498 Y69.63 E20.71563
G1 X143.621 Y69.962 E20.77405
G1 X144.525 Y70.262 E20.82157
G1 X145.206 Y70.509 E20.85771
G1 X146.085 Y70.854 E20.90482
G1 X146.96 Y71.228 E20.9523
G1 X147.829 Y71.631 E21.00009
G1 X148.87 Y72.158 E21.0583
G1 X149.72 Y72.624 E21.10666
G1 X150.53 Y73.102 E21.15358
G1 X151.146 Y73.487 E21.18982
G1 X151.931 Y74.007 E21.2368
G1 X152.716 Y74.562 E21.28476
G1 X153.485 Y75.143 E21.33285
G1 X154.208 Y75.722 E21.37906
G1 X155.114 Y76.5 E21.43864
G1 X155.809 Y77.139 E21.48574
G1 X156.329 Y77.643 E21.52187
G1 X156.999 Y78.33 E21.56975
G1 X157.639 Y79.025 E21.61688
G1 X158.409 Y79.921 E21.67582
G1 X159.002 Y80.66 E21.72309
G1 X159.584 Y81.431 E21.77129
G1 X160.002 Y82.019 E21.80728
G1 X160.527 Y82.799 E21.85419
G1 X161.035 Y83.604 E21.90168
G1 X161.522 Y84.432 E21.9496
G1 X161.976 Y85.259 E21.99667
G1 X162.411 Y86.111 E22.0444
G1 X162.819 Y86.976 E22.09211
G1 X163.285 Y88.054 E22.1507
G1 X163.63 Y88.933 E22.19781
G1 X163.877 Y89.614 E22.23395
G1 X164.245 Y90.736 E22.29286
G1 X164.45 Y91.43 E22.32897
G1 X164.696 Y92.355 E22.37672
G1 X164.912 Y93.276 E22.42391
G1 X165.143 Y94.435 E22.48287
G1 X165.297 Y95.373 E22.5303
G1 X165.395 Y96.089 E22.56635
G1 X165.499 Y97.045 E22.61433
G1 X165.587 Y98.209 E22.67257
G1 X165.627 Y99.161 E22.7201
G1 X165.639 Y100 E22.76197
G1 X165.64 Y159 E25.70549
G1 X165.6 Y159.773 E25.74411
G1 X165.481 Y160.538 E25.78273
G1 X165.283 Y161.287 E25.82138
G1 X165.009 Y162.011 E25.86
G1 X164.662 Y162.703 E25.89862
G1 X164.245 Y163.356 E25.93728
G1 X163.764 Y163.962 E25.97588
G1 X163.222 Y164.516 E26.01454
G1 X162.626 Y165.01 E26.05317
G1 X161.983 Y165.441 E26.09178
G1 X161.298 Y165.803 E26.13044
G1 X160.58 Y166.092 E26.16905
G1 X159.835 Y166.306 E26.20772
G1 X159.073 Y166.442 E26.24634
G1 X158.14 Y166.5 E26.29298
G1 X126.139 Y166.5 E27.88951
G1 X125.366 Y166.46 E27.92813
G1 X124.601 Y166.341 E27.96676
G1 X123.852 Y166.143 E28.00541
G1 X123.128 Y165.869 E28.04403
G1 X122.435 Y165.522 E28.08269
G1 X121.783 Y165.105 E28.12131
G1 X121.177 Y164.623 E28.15994
G1 X120.623 Y164.082 E28.19857
G1 X120.142 Y163.502 E28.23616
G1 X119.776 Y163.962 E28.26549
G1 X119.235 Y164.516 E28.30412
G1 X118.639 Y165.01 E28.34274
G1 X117.995 Y165.441 E28.3814
G1 X117.311 Y165.803 E28.42001
G1 X116.593 Y166.092 E28.45862
G1 X115.848 Y166.306 E28.4973
G1 X115.086 Y166.442 E28.53591
G1 X114.153 Y166.5 E28.58255
G1 X82.153 Y166.5 E30.17904
G1 X81.38 Y166.46 E30.21765
G1 X80.615 Y166.341 E30.25628
G1 X79.866 Y166.143 E30.29493
G1 X79.142 Y165.869 E30.33355
G1 X78.449 Y165.522 E30.37222
G1 X77.797 Y165.105 E30.41083
G1 X77.191 Y164.623 E30.44946
G1 X76.637 Y164.082 E30.48809
G1 X76.143 Y163.486 E30.52671
G1 X75.712 Y162.842 E30.56537
G1 X75.35 Y162.158 E30.60398
G1 X75.061 Y161.44 E30.6426
G1 X74.847 Y160.695 E30.68127
G1 X74.711 Y159.933 E30.71988
G1 X74.653 Y159 E30.76652
G1 X74.654 Y99.886 E33.71573
G1 X74.672 Y98.932 E33.76334
G1 X74.718 Y97.985 E33.81064
G1 X74.773 Y97.26 E33.84691
G1 X74.897 Y96.095 E33.90536
G1 X75.029 Y95.148 E33.95306
G1 X75.149 Y94.433 E33.98924
G1 X75.333 Y93.494 E34.03697
G1 X75.542 Y92.572 E34.08414
G1 X75.781 Y91.648 E34.13175
G1 X76.115 Y90.518 E34.19054
G1 X76.413 Y89.62 E34.23775
G1 X76.743 Y88.719 E34.28562
G1 X77.098 Y87.834 E34.33319
G1 X77.472 Y86.978 E34.37979
G1 X77.778 Y86.322 E34.41591
G1 X78.313 Y85.265 E34.47501
G1 X78.774 Y84.425 E34.52281
G1 X79.253 Y83.612 E34.56989
G1 X79.763 Y82.802 E34.61765
G1 X80.293 Y82.015 E34.66498
G1 X80.857 Y81.23 E34.71321
G1 X81.295 Y80.655 E34.74927
G1 X82.03 Y79.744 E34.80767
G1 X82.504 Y79.193 E34.84393
G1 X83.293 Y78.33 E34.90227
G0 F6000 X83.585 Y78.895
G1 F1200 X84.23 Y78.225 E34.94866
G1 X84.902 Y77.569 E34.99552
G1 X85.583 Y76.943 E35.04167
G1 X86.451 Y76.196 E35.0988
G1 X87.014 Y75.741 E35.13491
G1 X87.927 Y75.048 E35.1921
G1 X88.685 Y74.512 E35.23841
G1 X89.288 Y74.109 E35.2746
G1 X90.258 Y73.503 E35.33166
G1 X91.058 Y73.039 E35.3778
G1 X91.89 Y72.589 E35.42499
G1 X92.718 Y72.174 E35.4712
G1 X93.375 Y71.866 E35.5074
G1 X94.428 Y71.412 E35.56461
G1 X95.29 Y71.073 E35.61082
G1 X95.971 Y70.826 E35.64696
G1 X97.062 Y70.469 E35.70423
G1 X97.953 Y70.209 E35.75054
G1 X98.656 Y70.024 E35.7868
G1 X99.763 Y69.769 E35.84348
G1 X100.685 Y69.588 E35.89035
G1 X101.609 Y69.436 E35.93707
G1 X102.327 Y69.338 E35.97323
G1 X103.467 Y69.217 E36.03042
G1 X104.39 Y69.151 E36.07659
G1 X105.114 Y69.118 E36.11274
G1 X106.152 Y69.1 E36.16454
G1 X114.152 Y69.099 E36.56366
G1 X114.894 Y69.139 E36.60073
G1 X115.627 Y69.258 E36.63778
G1 X116.343 Y69.456 E36.67484
G1 X117.033 Y69.729 E36.71186
G1 X117.691 Y70.075 E36.74895
G1 X118.307 Y70.489 E36.78598
G1 X118.875 Y70.968 E36.82305
G1 X119.388 Y71.504 E36.86007
G1 X119.841 Y72.093 E36.89714
G1 X120.137 Y72.578 E36.92548
G1 X120.63 Y71.845 E36.96955
G1 X121.108 Y71.277 E37.00659
G1 X121.645 Y70.764 E37.04364
G1 X122.234 Y70.311 E37.08071
G1 X122.868 Y69.925 E37.11775
G1 X123.54 Y69.608 E37.15481
G1 X124.242 Y69.366 E37.19186
G1 X124.966 Y69.2 E37.22892
G1 X125.704 Y69.114 E37.26599
G1 X126.139 Y69.1 E37.2877
G1 X134.244 Y69.101 E37.69206
G1 X135.178 Y69.118 E37.73867
G1 X135.902 Y69.151 E37.77482
G1 X136.825 Y69.217 E37.82099
G1 X137.766 Y69.314 E37.86818
G1 X138.682 Y69.436 E37.91429
G1 X139.812 Y69.626 E37.97146
G1 X140.525 Y69.768 E38.00773
G1 X141.644 Y70.025 E38.06501
G1 X142.345 Y70.21 E38.10118
G1 X143.23 Y70.468 E38.14717
G1 X144.321 Y70.826 E38.20445
G1 X145.002 Y71.073 E38.24059
G1 X145.864 Y71.412 E38.28681
G1 X146.723 Y71.779 E38.33341
G1 X147.574 Y72.174 E38.38022
G1 X148.584 Y72.685 E38.43669
G1 X149.223 Y73.032 E38.47296
G1 X150.042 Y73.508 E38.52022
G1 X150.828 Y73.996 E38.56638
G1 X151.776 Y74.628 E38.62322
G1 X152.546 Y75.181 E38.67052
G1 X153.122 Y75.62 E38.70665
G1 X153.832 Y76.189 E38.75204
G1 X154.709 Y76.943 E38.80975
G1 X155.391 Y77.57 E38.85597
G1 X156.064 Y78.227 E38.90289
G1 X156.569 Y78.748 E38.93909
G1 X157.196 Y79.43 E38.98531
G1 X157.943 Y80.298 E39.04244
G1 X158.525 Y81.023 E39.08882
G1 X158.965 Y81.602 E39.1251
G1 X159.513 Y82.367 E39.17205
G1 X160.142 Y83.308 E39.22852
G1 X160.639 Y84.108 E39.27551
G1 X161.004 Y84.734 E39.31166
G1 X161.449 Y85.546 E39.35786
G1 X161.968 Y86.573 E39.41526
G1 X162.356 Y87.409 E39.46125
G1 X162.727 Y88.275 E39.50825
G1 X163.066 Y89.137 E39.55446
G1 X163.313 Y89.818 E39.5906
G1 X163.669 Y90.906 E39.64771
G1 X163.932 Y91.806 E39.69449
G1 X164.116 Y92.508 E39.7307
G1 X164.327 Y93.411 E39.77696
G1 X164.512 Y94.32 E39.82324
G1 X164.671 Y95.251 E39.87036
G1 X164.8 Y96.17 E39.91666
G1 X164.92 Y97.304 E39.97355
G1 X164.988 Y98.236 E40.02017
G1 X165.021 Y98.961 E40.05638
G1 X165.039 Y100 E40.10823
G1 X165.04 Y159 E43.05175
G1 X165 Y159.742 E43.08882
G1 X164.881 Y160.475 E43.12587
G1 X164.683 Y161.19 E43.16288
G1 X164.41 Y161.881 E43.19995
G1 X164.064 Y162.538 E43.23699
G1 X163.649 Y163.154 E43.27405
G1 X163.171 Y163.723 E43.31113
G1 X162.634 Y164.236 E43.34818
G1 X162.045 Y164.689 E43.38525
G1 X161.411 Y165.075 E43.42228
G1 X160.739 Y165.392 E43.45935
G1 X160.037 Y165.634 E43.49639
G1 X159.313 Y165.8 E43.53345
G1 X158.576 Y165.886 E43.57047
G1 X158.14 Y165.9 E43.59223
G1 X126.139 Y165.9 E45.18877
G1 X125.397 Y165.86 E45.22584
G1 X124.664 Y165.741 E45.26289
G1 X123.948 Y165.543 E45.29995
G1 X123.258 Y165.27 E45.33697
G1 X122.601 Y164.924 E45.37402
G1 X121.984 Y164.509 E45.41112
G1 X121.416 Y164.031 E45.44815
G1 X120.903 Y163.494 E45.4852
G1 X120.45 Y162.905 E45.52228
G1 X120.155 Y162.421 E45.55055
G1 X119.662 Y163.155 E45.59467
G1 X119.184 Y163.723 E45.6317
G1 X118.647 Y164.236 E45.66876
G1 X118.058 Y164.689 E45.70583
G1 X117.424 Y165.075 E45.74286
G1 X116.752 Y165.392 E45.77993
G1 X116.05 Y165.634 E45.81697
G1 X115.326 Y165.8 E45.85403
G1 X114.588 Y165.886 E45.8911
G1 X114.153 Y165.9 E45.91281
G1 X82.153 Y165.9 E47.5093
G1 X81.411 Y165.86 E47.54637
G1 X80.678 Y165.741 E47.58342
G1 X79.962 Y165.543 E47.62048
G1 X79.272 Y165.27 E47.6575
G1 X78.615 Y164.924 E47.69455
G1 X77.998 Y164.509 E47.73164
G1 X77.43 Y164.031 E47.76868
G1 X76.917 Y163.494 E47.80573
G1 X76.464 Y162.905 E47.8428
G1 X76.078 Y162.271 E47.87984
G1 X75.761 Y161.599 E47.9169
G1 X75.519 Y160.897 E47.95395
G1 X75.353 Y160.173 E47.99101
G1 X75.267 Y159.435 E48.02808
G1 X75.253 Y159 E48.04979
G1 X75.254 Y99.895 E50.99855
G1 X75.271 Y98.959 E51.04525
G1 X75.304 Y98.237 E51.08131
G1 X75.39 Y97.102 E51.1381
G1 X75.491 Y96.176 E51.18457
G1 X75.621 Y95.247 E51.23137
