;FLAVOR:Marlin
;TIME:13261
;Filament used: 7.2316m
;Layer height: 0.12
;MINX:37.2
;MINY:88.2
;MINZ:0.12
;MAXX:202.8
;MAXY:143.8
;MAXZ:3
;Generated with Cura_SteamEngine 5.2.2
M140 S50
M105
M190 S50
M104 S200
M105
M109 S200
M82 ;absolute extrusion mode
; Ender 3 Custom Start G-code
G92 E0 ; Reset Extruder
G28 ; Home all axes
G29 ; Auto Bed Level
G1 Z2.0 F3000 ; Move Z Axis up little to prevent scratching of Heat Bed
G1 X0.1 Y20 Z0.3 F5000.0 ; Move to start position
G1 X0.1 Y200.0 Z0.3 F1500.0 E15 ; Draw the first line
G1 X0.4 Y200.0 Z0.3 F5000.0 ; Move to side a little
G1 X0.4 Y20 Z0.3 F1500.0 E30 ; Draw the second line
G92 E0 ; Reset Extruder
G1 Z2.0 F3000 ; Move Z Axis up little to prevent scratching of Heat Bed
G1 X5 Y20 Z0.3 F5000.0 ; Move over to prevent blob squish
G92 E0
G92 E0
G1 F2700 E-5
;LAYER_COUNT:25
;LAYER:0
M107
G0 F6000 X44.661 Y89.744 Z0.12
;TYPE:SKIRT
G1 F2700 E0
G1 F1200 X45.142 Y89.507 E0.0107
G1 X45.506 Y89.343 E0.01867
G1 X45.949 Y89.16 E0.02823
G1 X46.311 Y89.023 E0.03596
G1 X46.809 Y88.854 E0.04645
G1 X47.185 Y88.74 E0.05429
G1 X47.669 Y88.61 E0.06429
G1 X48.049 Y88.521 E0.07208
G1 X48.562 Y88.418 E0.08252
G1 X48.951 Y88.354 E0.09039
G1 X49.464 Y88.287 E0.10072
G1 X49.856 Y88.249 E0.10858
G1 X50.364 Y88.217 E0.11873
G1 X50.991 Y88.201 E0.13125
G1 X188.999 Y88.2 E2.88535
G1 X189.672 Y88.219 E2.89878
G1 X190.152 Y88.25 E2.90838
G1 X190.544 Y88.288 E2.91624
G1 X191.044 Y88.353 E2.9263
G1 X191.425 Y88.415 E2.93401
G1 X191.948 Y88.519 E2.94465
G1 X192.32 Y88.606 E2.95227
G1 X192.833 Y88.744 E2.96287
G1 X193.224 Y88.864 E2.97104
G1 X193.696 Y89.026 E2.981
G1 X194.058 Y89.163 E2.98872
G1 X194.501 Y89.346 E2.99828
G1 X194.865 Y89.51 E3.00625
G1 X195.359 Y89.754 E3.01725
G1 X195.697 Y89.936 E3.02491
G1 X196.112 Y90.177 E3.03449
G1 X196.452 Y90.388 E3.04247
G1 X196.878 Y90.672 E3.05269
G1 X197.191 Y90.896 E3.06037
G1 X197.616 Y91.223 E3.07107
G1 X197.919 Y91.473 E3.07891
G1 X198.282 Y91.791 E3.08854
G1 X198.574 Y92.064 E3.09652
G1 X198.951 Y92.441 E3.10716
G1 X199.215 Y92.724 E3.11488
G1 X199.538 Y93.094 E3.12468
G1 X199.791 Y93.402 E3.13264
G1 X200.104 Y93.81 E3.1429
G1 X200.329 Y94.124 E3.15061
G1 X200.617 Y94.555 E3.16095
G1 X200.823 Y94.887 E3.16875
G1 X201.07 Y95.314 E3.17859
G1 X201.256 Y95.661 E3.18645
G1 X201.493 Y96.142 E3.19715
G1 X201.657 Y96.506 E3.20512
G1 X201.838 Y96.942 E3.21454
G1 X201.975 Y97.303 E3.22224
G1 X202.146 Y97.808 E3.23288
G1 X202.26 Y98.184 E3.24072
G1 X202.392 Y98.673 E3.25083
G1 X202.481 Y99.054 E3.25864
G1 X202.581 Y99.559 E3.26891
G1 X202.645 Y99.947 E3.27676
G1 X202.713 Y100.463 E3.28715
G1 X202.751 Y100.855 E3.29501
G1 X202.783 Y101.349 E3.30489
G1 X202.8 Y102 E3.31788
G1 X202.8 Y129.999 E3.87663
G1 X202.781 Y130.672 E3.89007
G1 X202.75 Y131.152 E3.89967
G1 X202.712 Y131.544 E3.90753
G1 X202.647 Y132.044 E3.91759
G1 X202.585 Y132.425 E3.92529
G1 X202.481 Y132.948 E3.93593
G1 X202.394 Y133.32 E3.94356
G1 X202.26 Y133.817 E3.95383
G1 X202.143 Y134.201 E3.96184
G1 X201.975 Y134.695 E3.97225
G1 X201.835 Y135.064 E3.98013
G1 X201.652 Y135.504 E3.98964
G1 X201.491 Y135.861 E3.99745
G1 X201.255 Y136.34 E4.00811
G1 X201.07 Y136.685 E4.01592
G1 X200.827 Y137.107 E4.02564
G1 X200.617 Y137.446 E4.0336
G1 X200.326 Y137.881 E4.04404
G1 X200.101 Y138.195 E4.05175
G1 X199.777 Y138.616 E4.06235
G1 X199.527 Y138.919 E4.07019
G1 X199.212 Y139.278 E4.07972
G1 X198.944 Y139.565 E4.08756
G1 X198.561 Y139.948 E4.09837
G1 X198.267 Y140.222 E4.10639
G1 X197.91 Y140.535 E4.11586
G1 X197.614 Y140.779 E4.12352
G1 X197.188 Y141.106 E4.13424
G1 X196.862 Y141.339 E4.14223
G1 X196.435 Y141.623 E4.15247
G1 X196.109 Y141.825 E4.16012
G1 X195.686 Y142.07 E4.16988
G1 X195.339 Y142.256 E4.17773
G1 X194.861 Y142.491 E4.18836
G1 X194.504 Y142.652 E4.19618
G1 X194.064 Y142.835 E4.20569
G1 X193.695 Y142.975 E4.21356
G1 X193.191 Y143.146 E4.22418
G1 X192.815 Y143.26 E4.23202
G1 X192.331 Y143.39 E4.24203
G1 X191.951 Y143.479 E4.24981
G1 X191.438 Y143.582 E4.26026
G1 X191.049 Y143.646 E4.26812
G1 X190.536 Y143.713 E4.27845
G1 X190.144 Y143.751 E4.28631
G1 X189.65 Y143.783 E4.29619
G1 X189 Y143.8 E4.30916
G1 X50.729 Y143.796 E7.06851
G1 X50.345 Y143.783 E7.07618
G1 X49.879 Y143.753 E7.0855
G1 X49.496 Y143.717 E7.09317
G1 X48.969 Y143.649 E7.10378
G1 X48.571 Y143.584 E7.11182
G1 X48.052 Y143.481 E7.12238
G1 X47.68 Y143.394 E7.13001
G1 X47.183 Y143.26 E7.14028
G1 X46.799 Y143.143 E7.14829
G1 X46.305 Y142.975 E7.1587
G1 X45.936 Y142.835 E7.16658
G1 X45.499 Y142.654 E7.17602
G1 X45.135 Y142.49 E7.18399
G1 X44.642 Y142.246 E7.19496
G1 X44.302 Y142.063 E7.20267
G1 X43.887 Y141.823 E7.21224
G1 X43.555 Y141.617 E7.22003
G1 X43.128 Y141.332 E7.23028
G1 X42.808 Y141.103 E7.23813
G1 X42.375 Y140.77 E7.24903
G1 X42.068 Y140.516 E7.25698
G1 X41.716 Y140.206 E7.26634
G1 X41.428 Y139.937 E7.27421
G1 X41.042 Y139.551 E7.2851
G1 X40.774 Y139.263 E7.29295
G1 X40.458 Y138.901 E7.30254
G1 X40.209 Y138.598 E7.31037
G1 X39.895 Y138.189 E7.32066
G1 X39.67 Y137.875 E7.32837
G1 X39.377 Y137.436 E7.3389
G1 X39.171 Y137.103 E7.34671
G1 X38.93 Y136.685 E7.35634
G1 X38.745 Y136.34 E7.36415
G1 X38.507 Y135.858 E7.37488
G1 X38.343 Y135.494 E7.38285
G1 X38.16 Y135.051 E7.39241
G1 X38.023 Y134.689 E7.40014
G1 X37.854 Y134.191 E7.41063
G1 X37.74 Y133.815 E7.41847
G1 X37.61 Y133.331 E7.42848
G1 X37.521 Y132.951 E7.43626
G1 X37.418 Y132.438 E7.44671
G1 X37.354 Y132.049 E7.45457
G1 X37.287 Y131.536 E7.4649
G1 X37.249 Y131.144 E7.47276
G1 X37.217 Y130.65 E7.48264
G1 X37.2 Y130 E7.49561
G1 X37.2 Y102.001 E8.05436
G1 X37.217 Y101.35 E8.06736
G1 X37.247 Y100.879 E8.07678
G1 X37.283 Y100.496 E8.08445
G1 X37.351 Y99.969 E8.09506
G1 X37.416 Y99.571 E8.1031
G1 X37.519 Y99.052 E8.11366
G1 X37.606 Y98.68 E8.12129
G1 X37.74 Y98.183 E8.13156
G1 X37.857 Y97.799 E8.13957
G1 X38.025 Y97.305 E8.14998
G1 X38.165 Y96.936 E8.15786
G1 X38.346 Y96.499 E8.1673
G1 X38.51 Y96.135 E8.17527
G1 X38.754 Y95.641 E8.18626
G1 X38.936 Y95.303 E8.19392
G1 X39.173 Y94.893 E8.20337
G1 X39.383 Y94.554 E8.21133
G1 X39.68 Y94.11 E8.22199
G1 X39.91 Y93.79 E8.22986
G1 X40.236 Y93.368 E8.2405
G1 X40.486 Y93.066 E8.24832
G1 X40.79 Y92.72 E8.25751
G1 X41.053 Y92.438 E8.26521
G1 X41.439 Y92.052 E8.2761
G1 X41.733 Y91.778 E8.28412
G1 X42.09 Y91.465 E8.2936
G1 X42.386 Y91.221 E8.30125
G1 X42.808 Y90.897 E8.31187
G1 X43.128 Y90.668 E8.31972
G1 X43.555 Y90.383 E8.32997
G1 X43.887 Y90.177 E8.33776
G1 X44.314 Y89.93 E8.34761
G1 X44.661 Y89.744 E8.35546
G0 F6000 X44.85 Y90.097
G1 F1200 X45.306 Y89.872 E8.36561
G1 X45.67 Y89.708 E8.37358
G1 X46.091 Y89.534 E8.38267
G1 X46.453 Y89.397 E8.39039
G1 X46.925 Y89.236 E8.40035
G1 X47.301 Y89.122 E8.40819
G1 X47.761 Y88.999 E8.41769
G1 X48.141 Y88.91 E8.42548
G1 X48.627 Y88.813 E8.43537
G1 X49.016 Y88.749 E8.44324
G1 X49.503 Y88.686 E8.45303
G1 X49.895 Y88.648 E8.46089
G1 X50.377 Y88.617 E8.47053
G1 X50.991 Y88.601 E8.48279
G1 X188.999 Y88.6 E11.23689
G1 X189.658 Y88.619 E11.25005
G1 X190.113 Y88.649 E11.25915
G1 X190.505 Y88.687 E11.267
G1 X190.98 Y88.748 E11.27656
G1 X191.361 Y88.81 E11.28427
G1 X191.857 Y88.908 E11.29435
G1 X192.229 Y88.995 E11.30198
G1 X192.715 Y89.127 E11.31203
G1 X193.106 Y89.247 E11.32019
G1 X193.554 Y89.4 E11.32964
G1 X193.916 Y89.537 E11.33736
G1 X194.337 Y89.711 E11.34645
G1 X194.701 Y89.875 E11.35442
G1 X195.169 Y90.107 E11.36484
G1 X195.507 Y90.289 E11.37251
G1 X195.901 Y90.516 E11.38158
G1 X196.241 Y90.727 E11.38956
G1 X196.646 Y90.997 E11.39928
G1 X196.959 Y91.221 E11.40696
G1 X197.362 Y91.531 E11.41711
G1 X197.665 Y91.781 E11.42495
G1 X198.009 Y92.084 E11.43409
G1 X198.301 Y92.357 E11.44207
G1 X198.658 Y92.714 E11.45215
G1 X198.922 Y92.997 E11.45987
G1 X199.229 Y93.348 E11.46918
G1 X199.482 Y93.656 E11.47713
G1 X199.779 Y94.043 E11.48686
G1 X200.004 Y94.357 E11.49457
G1 X200.277 Y94.765 E11.50437
G1 X200.483 Y95.097 E11.51217
G1 X200.717 Y95.503 E11.52152
G1 X200.903 Y95.85 E11.52938
G1 X201.128 Y96.306 E11.53952
G1 X201.292 Y96.67 E11.54749
G1 X201.464 Y97.084 E11.55644
G1 X201.601 Y97.445 E11.56414
G1 X201.764 Y97.924 E11.57424
G1 X201.878 Y98.3 E11.58208
G1 X202.002 Y98.764 E11.59166
G1 X202.091 Y99.145 E11.59947
G1 X202.186 Y99.624 E11.60922
G1 X202.25 Y100.012 E11.61707
G1 X202.314 Y100.502 E11.62693
G1 X202.352 Y100.894 E11.63479
G1 X202.383 Y101.363 E11.64417
G1 X202.4 Y102 E11.65688
G1 X202.4 Y129.999 E12.21563
G1 X202.381 Y130.658 E12.22879
G1 X202.351 Y131.113 E12.23789
G1 X202.313 Y131.505 E12.24575
G1 X202.252 Y131.98 E12.25531
G1 X202.19 Y132.361 E12.26301
G1 X202.092 Y132.857 E12.2731
G1 X202.005 Y133.229 E12.28072
G1 X201.878 Y133.701 E12.29048
G1 X201.761 Y134.085 E12.29849
G1 X201.601 Y134.553 E12.30836
G1 X201.461 Y134.922 E12.31623
G1 X201.288 Y135.339 E12.32524
G1 X201.127 Y135.696 E12.33306
G1 X200.903 Y136.151 E12.34318
G1 X200.718 Y136.496 E12.35099
G1 X200.487 Y136.896 E12.36021
G1 X200.277 Y137.235 E12.36817
G1 X200.001 Y137.648 E12.37808
G1 X199.776 Y137.962 E12.38579
G1 X199.469 Y138.362 E12.39585
G1 X199.219 Y138.665 E12.40369
G1 X198.92 Y139.005 E12.41273
G1 X198.652 Y139.292 E12.42056
G1 X198.288 Y139.655 E12.43082
G1 X197.994 Y139.929 E12.43884
G1 X197.656 Y140.226 E12.44782
G1 X197.36 Y140.47 E12.45548
G1 X196.956 Y140.78 E12.46564
G1 X196.63 Y141.013 E12.47363
G1 X196.225 Y141.283 E12.48335
G1 X195.899 Y141.485 E12.491
G1 X195.497 Y141.717 E12.50026
G1 X195.15 Y141.903 E12.50812
G1 X194.696 Y142.127 E12.51822
G1 X194.339 Y142.288 E12.52604
G1 X193.922 Y142.461 E12.53505
G1 X193.553 Y142.601 E12.54292
G1 X193.075 Y142.764 E12.553
G1 X192.699 Y142.878 E12.56084
G1 X192.239 Y143.001 E12.57035
G1 X191.859 Y143.09 E12.57813
G1 X191.373 Y143.187 E12.58802
G1 X190.984 Y143.251 E12.59589
G1 X190.497 Y143.314 E12.60569
G1 X190.105 Y143.352 E12.61355
G1 X189.637 Y143.383 E12.62291
G1 X189 Y143.4 E12.63563
G1 X50.993 Y143.4 E15.38971
G1 X50.359 Y143.383 E15.40236
G1 X49.916 Y143.355 E15.41122
G1 X49.533 Y143.319 E15.4189
G1 X49.033 Y143.254 E15.42896
G1 X48.635 Y143.189 E15.43701
G1 X48.143 Y143.092 E15.44702
G1 X47.771 Y143.005 E15.45464
G1 X47.299 Y142.878 E15.46439
G1 X46.915 Y142.761 E15.4724
G1 X46.447 Y142.601 E15.48227
G1 X46.078 Y142.461 E15.49015
G1 X45.663 Y142.289 E15.49912
G1 X45.299 Y142.125 E15.50708
G1 X44.832 Y141.894 E15.51748
G1 X44.492 Y141.711 E15.52519
G1 X44.097 Y141.483 E15.53429
G1 X43.765 Y141.277 E15.54208
G1 X43.361 Y141.007 E15.55178
G1 X43.041 Y140.778 E15.55963
G1 X42.63 Y140.462 E15.56998
G1 X42.323 Y140.208 E15.57793
G1 X41.989 Y139.914 E15.58681
G1 X41.701 Y139.645 E15.59468
G1 X41.335 Y139.278 E15.60502
G1 X41.067 Y138.99 E15.61287
G1 X40.767 Y138.647 E15.62196
G1 X40.518 Y138.344 E15.62979
G1 X40.22 Y137.956 E15.63955
G1 X39.995 Y137.642 E15.64726
G1 X39.717 Y137.225 E15.65726
G1 X39.511 Y136.892 E15.66508
G1 X39.282 Y136.496 E15.67421
G1 X39.097 Y136.151 E15.68202
G1 X38.872 Y135.694 E15.69218
G1 X38.708 Y135.33 E15.70015
G1 X38.534 Y134.909 E15.70924
G1 X38.397 Y134.547 E15.71697
G1 X38.236 Y134.075 E15.72692
G1 X38.122 Y133.699 E15.73476
G1 X37.999 Y133.239 E15.74426
G1 X37.91 Y132.859 E15.75205
G1 X37.813 Y132.373 E15.76194
G1 X37.749 Y131.984 E15.76981
G1 X37.686 Y131.497 E15.77961
G1 X37.648 Y131.105 E15.78747
G1 X37.617 Y130.637 E15.79683
G1 X37.6 Y130 E15.80954
G1 X37.6 Y102.001 E16.36829
G1 X37.617 Y101.364 E16.38101
G1 X37.645 Y100.916 E16.38997
G1 X37.681 Y100.533 E16.39764
G1 X37.746 Y100.033 E16.40771
G1 X37.811 Y99.635 E16.41575
G1 X37.908 Y99.143 E16.42576
G1 X37.995 Y98.771 E16.43339
G1 X38.122 Y98.299 E16.44314
G1 X38.239 Y97.915 E16.45115
G1 X38.399 Y97.447 E16.46102
G1 X38.539 Y97.078 E16.4689
G1 X38.711 Y96.663 E16.47786
G1 X38.875 Y96.299 E16.48583
G1 X39.107 Y95.831 E16.49625
G1 X39.289 Y95.493 E16.50391
G1 X39.513 Y95.104 E16.51287
G1 X39.723 Y94.765 E16.52083
G1 X40.005 Y94.343 E16.53096
G1 X40.235 Y94.023 E16.53882
G1 X40.544 Y93.623 E16.54891
G1 X40.794 Y93.321 E16.55673
G1 X41.082 Y92.993 E16.56544
G1 X41.345 Y92.711 E16.57314
G1 X41.712 Y92.345 E16.58348
G1 X42.006 Y92.071 E16.5915
G1 X42.344 Y91.774 E16.60048
G1 X42.64 Y91.53 E16.60814
G1 X43.041 Y91.222 E16.61823
G1 X43.361 Y90.993 E16.62608
G1 X43.765 Y90.723 E16.63578
G1 X44.097 Y90.517 E16.64357
G1 X44.503 Y90.283 E16.65293
G1 X44.85 Y90.097 E16.66078
G0 F6000 X45.039 Y90.449
G1 F1200 X45.471 Y90.237 E16.67039
G1 X45.835 Y90.073 E16.67835
G1 X46.232 Y89.908 E16.68693
G1 X46.594 Y89.771 E16.69466
G1 X47.041 Y89.619 E16.70408
G1 X47.417 Y89.505 E16.71192
G1 X47.852 Y89.388 E16.72091
G1 X48.232 Y89.299 E16.7287
G1 X48.692 Y89.208 E16.73806
G1 X49.081 Y89.144 E16.74592
G1 X49.542 Y89.084 E16.7552
G1 X49.934 Y89.046 E16.76306
G1 X50.389 Y89.016 E16.77216
G1 X50.991 Y89.001 E16.78418
G1 X188.999 Y89 E19.53828
G1 X189.644 Y89.018 E19.55115
G1 X190.074 Y89.047 E19.55975
G1 X190.466 Y89.085 E19.56761
G1 X190.915 Y89.143 E19.57665
G1 X191.296 Y89.205 E19.58435
G1 X191.766 Y89.298 E19.59391
G1 X192.138 Y89.385 E19.60154
G1 X192.598 Y89.509 E19.61104
G1 X192.989 Y89.629 E19.6192
G1 X193.413 Y89.774 E19.62815
G1 X193.775 Y89.911 E19.63587
G1 X194.172 Y90.076 E19.64445
G1 X194.536 Y90.24 E19.65242
G1 X194.98 Y90.459 E19.6623
G1 X195.318 Y90.641 E19.66996
G1 X195.69 Y90.856 E19.67853
G1 X196.03 Y91.067 E19.68652
G1 X196.413 Y91.323 E19.69571
G1 X196.726 Y91.547 E19.70339
G1 X197.107 Y91.84 E19.71298
G1 X197.41 Y92.09 E19.72082
G1 X197.736 Y92.376 E19.72948
G1 X198.028 Y92.649 E19.73746
G1 X198.366 Y92.987 E19.74699
G1 X198.63 Y93.27 E19.75472
G1 X198.92 Y93.602 E19.76352
G1 X199.173 Y93.91 E19.77147
G1 X199.454 Y94.276 E19.78068
G1 X199.679 Y94.59 E19.78839
G1 X199.937 Y94.976 E19.79765
G1 X200.143 Y95.308 E19.80545
G1 X200.365 Y95.692 E19.8143
G1 X200.551 Y96.039 E19.82216
G1 X200.763 Y96.471 E19.83176
G1 X200.927 Y96.835 E19.83973
G1 X201.09 Y97.226 E19.84818
G1 X201.227 Y97.587 E19.85589
G1 X201.381 Y98.04 E19.86544
G1 X201.495 Y98.416 E19.87328
G1 X201.612 Y98.855 E19.88234
G1 X201.701 Y99.236 E19.89015
G1 X201.792 Y99.689 E19.89937
G1 X201.856 Y100.077 E19.90722
G1 X201.916 Y100.541 E19.91656
G1 X201.954 Y100.933 E19.92441
G1 X201.983 Y101.376 E19.93327
G1 X202 Y102 E19.94573
G1 X202 Y129.999 E20.50448
G1 X201.982 Y130.644 E20.51736
G1 X201.953 Y131.074 E20.52596
G1 X201.915 Y131.466 E20.53382
G1 X201.857 Y131.915 E20.54285
G1 X201.795 Y132.296 E20.55056
G1 X201.702 Y132.766 E20.56012
G1 X201.615 Y133.138 E20.56774
G1 X201.495 Y133.584 E20.57696
G1 X201.378 Y133.968 E20.58497
G1 X201.227 Y134.411 E20.59431
G1 X201.087 Y134.78 E20.60219
G1 X200.923 Y135.175 E20.61072
G1 X200.762 Y135.532 E20.61854
G1 X200.55 Y135.962 E20.6281
G1 X200.365 Y136.307 E20.63592
G1 X200.147 Y136.685 E20.64462
G1 X199.937 Y137.024 E20.65258
G1 X199.676 Y137.415 E20.66196
G1 X199.451 Y137.729 E20.66967
G1 X199.16 Y138.107 E20.67919
G1 X198.91 Y138.41 E20.68703
G1 X198.627 Y138.732 E20.69559
G1 X198.359 Y139.019 E20.70342
G1 X198.016 Y139.363 E20.71312
G1 X197.722 Y139.637 E20.72114
G1 X197.402 Y139.917 E20.72962
G1 X197.106 Y140.161 E20.73728
G1 X196.723 Y140.455 E20.74691
G1 X196.397 Y140.688 E20.75491
G1 X196.014 Y140.943 E20.76409
G1 X195.688 Y141.145 E20.77174
G1 X195.308 Y141.365 E20.78051
G1 X194.961 Y141.551 E20.78836
G1 X194.532 Y141.762 E20.7979
G1 X194.175 Y141.923 E20.80572
G1 X193.78 Y142.087 E20.81426
G1 X193.411 Y142.227 E20.82213
G1 X192.959 Y142.381 E20.83166
G1 X192.583 Y142.495 E20.8395
G1 X192.148 Y142.612 E20.84849
G1 X191.768 Y142.701 E20.85628
G1 X191.308 Y142.792 E20.86564
G1 X190.919 Y142.856 E20.8735
G1 X190.458 Y142.916 E20.88278
G1 X190.066 Y142.954 E20.89064
G1 X189.624 Y142.983 E20.89948
G1 X189 Y143 E20.91194
G1 X50.993 Y143 E23.66602
G1 X50.372 Y142.983 E23.67841
G1 X49.954 Y142.956 E23.68677
G1 X49.571 Y142.92 E23.69445
G1 X49.098 Y142.859 E23.70397
G1 X48.7 Y142.794 E23.71202
G1 X48.234 Y142.702 E23.72149
G1 X47.862 Y142.615 E23.72912
G1 X47.416 Y142.495 E23.73834
G1 X47.032 Y142.378 E23.74635
G1 X46.589 Y142.227 E23.75569
G1 X46.22 Y142.087 E23.76356
G1 X45.828 Y141.924 E23.77203
G1 X45.464 Y141.76 E23.78
G1 X45.021 Y141.542 E23.78985
G1 X44.681 Y141.359 E23.79756
G1 X44.308 Y141.143 E23.80616
G1 X43.976 Y140.937 E23.81396
G1 X43.593 Y140.682 E23.82314
