; generated by PrusaSlicer 2.7.2+linux-x64-GTK3 on 2024-03-03 at 08:55:51 UTC


;
;

;
;

;
;

;
;

;
;
; 

; external perimeters extrusion width = 0.45mm
; perimeters extrusion width = 0.45mm
; infill extrusion width = 0.45mm
; solid infill extrusion width = 0.45mm
; top infill extrusion width = 0.40mm
; first layer extrusion width = 0.50mm

; external perimeters extrusion width = 0.45mm
; perimeters extrusion width = 0.45mm
; infill extrusion width = 0.45mm
; solid infill extrusion width = 0.45mm
; top infill extrusion width = 0.40mm
; first layer extrusion width = 0.50mm

M73 P0 R84
M201 X2500 Y2500 Z200 E2500 ; sets maximum accelerations, mm/sec^2
M203 X200 Y200 Z40 E100 ; sets maximum feedrates, mm / sec
M204 P2000 R1200 T2000 ; sets acceleration (P, T) and retract acceleration (R), mm/sec^2
M205 X8.00 Y8.00 Z2.00 E10.00 ; sets the jerk limits, mm/sec
M205 S0 T0 ; sets the minimum extruding and travel feed rate, mm/sec

M486 S0
M486 AEnjoliveurBoutonsGauche2.stl
M486 S-1

;TYPE:Custom
M17 ; enable steppers
M862.3 P "MK4" ; printer model check
M862.1 P0.4 ; nozzle diameter check
M115 U5.1.2+13478
M555 X48.0677 Y77.0677 W153.865 H73.3016

G90 ; use absolute coordinates
M83 ; extruder relative mode

M140 S75 ; set bed temp
M104 T0 S225 ; set extruder temp for bed leveling
M109 T0 R225 ; wait for temp

M84 E ; turn off E motor

G28 ; home all without mesh bed level

G1 X42 Y-4 Z5 F4800

M302 S160 ; lower cold extrusion limit to 160C


G1 E-2 F2400 ; retraction


M84 E ; turn off E motor

G29 P9 X10 Y-4 W32 H4



G0 Z40 F10000

M190 S75 ; wait for bed temp

M107

;
; MBL
;
M84 E ; turn off E motor
G29 P1 ; invalidate mbl & probe print area
G29 P1 X0 Y0 W50 H20 C ; probe near purge place
G29 P3.2 ; interpolate mbl probes
G29 P3.13 ; extrapolate mbl outside probe area
G29 A ; activate mbl

; prepare for purge
M104 S235
G0 X0 Y-4 Z15 F4800 ; move away and ready for the purge
M109 S235

G92 E0
M569 S0 E ; set spreadcycle mode for extruder

;
; Extrude purge line
;
G92 E0 ; reset extruder position
G1 E2 F2400 ; deretraction after the initial one before nozzle cleaning
G0 E7 X15 Z0.2 F500 ; purge
G0 X25 E4 F500 ; purge
G0 X35 E4 F650 ; purge
G0 X45 E4 F800 ; purge
G0 X48 Z0.05 F8000 ; wipe, move close to the bed
G0 X51 Z0.2 F8000 ; wipe, move quickly away from the bed

G92 E0
M221 S100 ; set flow to 100%
G21 ; set units to millimeters
G90 ; use absolute coordinates
M83 ; use relative distances for extrusion
M600
T0
M900 K0.07 ; Filament gcode



M142 S36 ; set heatbreak target temp
M107
;LAYER_CHANGE
;Z:0.2
;HEIGHT:0.2
G1 E-1 F2100
M486 S0
G1 Z.35 F720
G1 X177.699 Y124.749 F12000
G1 Z.2 F720
G1 E1 F1500
M204 P600
;TYPE:External perimeter
;WIDTH:0.5
;HEIGHT:0.2
G1 F1200
G1 X177.739 Y124.878 E.00513
G3 X176.544 Y124.996 I-.842 J-2.425 E.04607
G3 X175.623 Y124.371 I.234 J-1.335 E.04359
G3 X175.413 Y123.753 I1.729 J-.935 E.02492
G3 X175.506 Y122.648 I2.418 J-.352 E.04252
G3 X176.306 Y121.814 I1.382 J.526 E.04512
G3 X177.053 Y121.71 I.619 J1.713 E.02887
G3 X177.711 Y121.867 I-.154 J2.111 E.02582
G1 X177.669 Y121.986 E.0048
G2 X176.65 Y121.855 I-.743 J1.754 E.03954
G2 X175.801 Y122.477 I.245 J1.226 E.04129
G2 X175.6 Y123.364 I1.755 J.863 E.03489
G2 X175.778 Y124.235 I2.069 J.03 E.03405
G2 X176.608 Y124.872 I1.068 J-.531 E.04116
G2 X177.643 Y124.771 I.331 J-1.967 E.03999
M204 P1000
;WIPE_START
G1 F9600
G1 X177.699 Y124.749 E-.0125
G1 X177.739 Y124.878 E-.02807
G3 X176.544 Y124.996 I-.843 J-2.425 E-.25188
G3 X175.623 Y124.371 I.234 J-1.336 E-.23835
G3 X175.413 Y123.753 I1.73 J-.933 E-.13627
G3 X175.506 Y122.648 I2.418 J-.353 E-.23247
G3 X175.748 Y122.232 I1.382 J.526 E-.10046
;WIPE_END
G1 Z.35 F720
G1 X179.186 Y86.929 F12000
G1 Z.2 F720
G1 E1 F1500
M204 P600
G1 F1200
G1 X178.251 Y86.929 E.03554
G1 X178.251 Y86.794 E.00513
G1 X179.186 Y86.794 E.03554
G1 X179.186 Y86.869 E.00285
M204 P1000
;WIPE_START
G1 F9600
G1 X179.186 Y86.929 E-.01247
G1 X178.251 Y86.929 E-.1943
G1 X178.251 Y86.794 E-.02805
G1 X179.186 Y86.794 E-.1943
G1 X179.186 Y86.869 E-.01559
;WIPE_END
G1 E-.55529 F2100
G1 Z.35 F720
G1 X181.07 Y122.037 F12000
G1 Z.2 F720
G1 E1 F1500
M204 P600
G1 F1200
G3 X180.305 Y122.477 I-4.023 J-6.12 E.03356
G1 X180.232 Y122.506 E.00299
G1 X180.2 Y122.427 E.00324
G2 X181.118 Y121.784 I-.975 J-2.369 E.04294
G1 X181.235 Y121.784 E.00445
G1 X181.235 Y124.949 E.12029
G1 X181.07 Y124.949 E.00627
G1 X181.07 Y122.097 E.10839
M204 P1000
;WIPE_START
G1 F9600
G1 X181.07 Y122.037 E-.01247
G3 X180.305 Y122.477 I-4.028 J-6.118 E-.18351
G1 X180.232 Y122.506 E-.01632
G1 X180.2 Y122.427 E-.01771
G2 X181.118 Y121.784 I-.975 J-2.369 E-.23481
G1 X181.235 Y121.784 E-.02431
G1 X181.235 Y124.243 E-.51087
;WIPE_END
G1 Z.35 F720
G1 X179.26 Y123.669 F12000
G1 Z.2 F720
G1 E1 F1500
M204 P600
G1 F1200
G1 X178.325 Y123.669 E.03554
G1 X178.325 Y123.534 E.00513
G1 X179.26 Y123.534 E.03554
G1 X179.26 Y123.609 E.00285
M204 P1000
;WIPE_START
G1 F9600
G1 X179.26 Y123.669 E-.01247
G1 X178.325 Y123.669 E-.1943
G1 X178.325 Y123.534 E-.02805
G1 X179.26 Y123.534 E-.1943
G1 X179.26 Y123.609 E-.01559
;WIPE_END
G1 E-.55529 F2100
G1 Z.35 F720
G1 X140.103 Y118.27 F12000
G1 Z.2 F720
G1 E1 F1500
M204 P600
G1 F1200
G3 X140.325 Y118.446 I-.789 J1.223 E.01078
G3 X140.741 Y119.298 I-1.285 J1.155 E.0365
G3 X140.647 Y120.422 I-2.345 J.371 E.04328
G3 X140.107 Y121.117 I-1.388 J-.522 E.03396
G3 X138.21 Y120.939 I-.83 J-1.359 E.07763
G3 X137.794 Y120.084 I1.265 J-1.144 E.03662
G3 X137.884 Y118.96 I2.435 J-.371 E.04324
G3 X138.687 Y118.136 I1.352 J.516 E.04497
G3 X139.53 Y118.054 I.589 J1.665 E.03251
G3 X140.052 Y118.239 I-.216 J1.439 E.02118
M204 P1000
;WIPE_START
G1 F9600
G1 X140.103 Y118.27 E-.0124
G3 X140.325 Y118.446 I-.789 J1.223 E-.05897
G3 X140.741 Y119.298 I-1.284 J1.155 E-.1996
G3 X140.647 Y120.422 I-2.344 J.37 E-.23666
G3 X140.107 Y121.117 I-1.389 J-.522 E-.1857
G3 X138.689 Y121.238 I-.83 J-1.359 E-.30667
;WIPE_END
G1 Z.35 F720
G1 X138.504 Y118.406 F12000
G1 Z.2 F720
G1 E1 F1500
M204 P600
G1 F1200
G3 X139.02 Y118.18 I.725 J.951 E.02161
G1 X139.268 Y118.155 E.00947
G3 X140.363 Y118.811 I.013 J1.221 E.05105
G3 X140.471 Y120.311 I-1.965 J.895 E.05838
G3 X139.806 Y121.118 I-1.284 J-.381 E.04083
G3 X138.985 Y121.2 I-.554 J-1.396 E.03177
G3 X138.165 Y120.572 I.252 J-1.178 E.04057
G3 X138.165 Y118.812 I1.911 J-.881 E.06901
G3 X138.457 Y118.444 I1.064 J.545 E.01797
M204 P1000
;WIPE_START
G1 F9600
G1 X138.504 Y118.406 E-.01256
G3 X139.02 Y118.18 I.724 J.951 E-.11818
G1 X139.268 Y118.155 E-.0518
G3 X140.363 Y118.811 I.012 J1.221 E-.27912
G3 X140.471 Y120.311 I-1.965 J.895 E-.31921
G3 X139.824 Y121.109 I-1.285 J-.381 E-.21913
;WIPE_END
G1 Z.35 F720
G1 X102.908 Y118.111 F12000
G1 Z.2 F720
G1 E1 F1500
M204 P600
G1 F1200
G1 X103.093 Y118.111 E.00703
G1 X103.093 Y120.131 E.07677
G3 X102.934 Y120.836 I-1.625 J.003 E.0277
G3 X102.217 Y121.326 I-.888 J-.529 E.03406
G3 X101.396 Y121.256 I-.272 J-1.655 E.03164
G3 X100.832 Y120.63 I.386 J-.914 E.03307
G3 X100.763 Y120.131 I2.031 J-.533 E.01919
G1 X100.763 Y118.111 E.07677
G1 X100.948 Y118.111 E.00703
G1 X100.948 Y120.085 E.07502
G2 X101.097 Y120.775 I1.522 J.035 E.02708
G2 X101.928 Y121.221 I.802 J-.498 E.03753
G2 X102.842 Y120.577 I.044 J-.907 E.04577
G2 X102.908 Y120.085 I-1.924 J-.511 E.01892
G1 X102.908 Y118.171 E.07274
M204 P1000
;WIPE_START
G1 F9600
G1 X102.908 Y118.111 E-.01247
G1 X103.093 Y118.111 E-.03845
G1 X103.093 Y120.131 E-.41978
G3 X102.934 Y120.836 I-1.626 J.004 E-.15145
G3 X102.217 Y121.326 I-.888 J-.529 E-.18626
G3 X101.396 Y121.256 I-.272 J-1.655 E-.173
G3 X101.315 Y121.218 I.386 J-.915 E-.01859
;WIPE_END
G1 Z.35 F720
G1 X144.824 Y120.618 F12000
G1 Z.2 F720
G1 E1 F1500
M204 P600
G1 F1200
G2 X145.346 Y118.111 I-47.296 J-11.159 E.09734
G1 X145.536 Y118.111 E.00722
G3 X144.762 Y121.276 I-23.908 J-4.167 E.12393
G1 X144.49 Y121.276 E.01034
G3 X143.751 Y119.257 I32.39 J-13.006 E.08173
G1 X143.324 Y119.257 E.01623
G3 X142.58 Y121.276 I-37.592 J-12.715 E.08179
G1 X142.307 Y121.276 E.01038
G3 X141.534 Y118.111 I20.458 J-6.679 E.12394
G1 X141.738 Y118.111 E.00775
G1 X141.838 Y118.648 E.02076
G2 X142.271 Y120.622 I39.206 J-7.566 E.07682
G1 X142.715 Y120.647 E.0169
G2 X143.444 Y118.521 I-28.373 J-10.917 E.08544
G1 X143.642 Y118.521 E.00753
G2 X144.38 Y120.644 I31.192 J-9.662 E.08544
G1 X144.764 Y120.621 E.01462
M204 P1000
;WIPE_START
G1 F9600
G1 X144.824 Y120.618 E-.01248
G2 X145.346 Y118.111 I-47.297 J-11.156 E-.53222
G1 X145.536 Y118.111 E-.03948
G3 X145.112 Y120.066 I-23.908 J-4.168 E-.41582
;WIPE_END
G1 Z.35 F720
G1 X150.638 Y119.946 F12000
G1 Z.2 F720
G1 E1 F1500
M204 P600
G1 F1200
G3 X151.418 Y121.086 I-10.856 J8.262 E.05252
G1 X151.518 Y121.276 E.00816
G1 X151.325 Y121.276 E.00734
G2 X150.41 Y119.917 I-8.479 J4.717 E.06234
G1 X149.478 Y119.922 E.03542
G1 X149.478 Y121.276 E.05146
G1 X149.293 Y121.276 E.00703
G1 X149.293 Y118.135 E.11938
G3 X150.342 Y118.09 I.721 J4.565 E.03999
G3 X150.899 Y118.218 I-.184 J2.076 E.02179
G3 X151.386 Y118.796 I-.304 J.75 E.02989
G3 X151.32 Y119.413 I-.975 J.208 E.02398
G3 X151.064 Y119.7 I-.739 J-.401 E.01475
G1 X150.69 Y119.916 E.01641
M204 P1000
G1 X149.478 Y119.824 F12000
M204 P600
G1 F1200
G1 X149.478 Y118.221 E.06092
G1 X149.863 Y118.204 E.01465
G3 X150.681 Y118.28 I.166 J2.648 E.03135
G3 X151.198 Y119.015 I-.229 J.711 E.03665
G3 X150.984 Y119.579 I-.759 J.034 E.02357
G3 X150.444 Y119.795 I-.647 J-.835 E.02239
G3 X149.538 Y119.825 I-.792 J-10.076 E.03446
M204 P1000
;WIPE_START
G1 F9600
G1 X149.478 Y119.824 E-.01247
G1 X149.478 Y118.221 E-.33312
G1 X149.863 Y118.204 E-.08009
G3 X150.681 Y118.28 I.166 J2.648 E-.17141
G3 X151.198 Y119.015 I-.229 J.711 E-.20038
G3 X150.984 Y119.579 I-.76 J.034 E-.1289
G3 X150.673 Y119.745 I-.646 J-.835 E-.07363
;WIPE_END
G1 Z.35 F720
G1 X135.493 Y121.156 F12000
G1 Z.2 F720
G1 E1 F1500
M204 P600
G1 F1200
G1 X137.093 Y121.156 E.06081
G1 X137.093 Y121.276 E.00456
G1 X135.308 Y121.276 E.06784
G1 X135.308 Y118.111 E.12029
G1 X135.493 Y118.111 E.00703
G1 X135.493 Y121.096 E.11345
M204 P1000
;WIPE_START
G1 F9600
G1 X135.493 Y121.156 E-.01247
G1 X137.093 Y121.156 E-.3325
G1 X137.093 Y121.276 E-.02494
G1 X135.308 Y121.276 E-.37095
G1 X135.308 Y120.029 E-.25914
;WIPE_END
G1 Z.35 F720
G1 X146.623 Y118.226 F12000
G1 Z.2 F720
G1 E1 F1500
M204 P600
G1 F1200
G1 X146.623 Y119.556 E.05055
G1 X148.073 Y119.556 E.05511
G1 X148.073 Y119.661 E.00399
G1 X146.623 Y119.661 E.05511
G1 X146.623 Y121.161 E.05701
G1 X148.378 Y121.161 E.0667
G1 X148.378 Y121.276 E.00437
G1 X146.438 Y121.276 E.07373
G1 X146.438 Y118.111 E.12029
G1 X148.253 Y118.111 E.06898
G1 X148.253 Y118.226 E.00437
G1 X146.683 Y118.226 E.05967
M204 P1000
;WIPE_START
G1 F9600
G1 X146.623 Y118.226 E-.01247
G1 X146.623 Y119.556 E-.27639
G1 X148.073 Y119.556 E-.30133
G1 X148.073 Y119.661 E-.02182
G1 X146.623 Y119.661 E-.30133
G1 X146.623 Y120.078 E-.08666
;WIPE_END
G1 Z.35 F720
G1 X104.413 Y119.997 F12000
G1 Z.2 F720
G1 E1 F1500
M204 P600
G1 F1200
G1 X104.413 Y121.276 E.04861
G1 X104.228 Y121.276 E.00703
G1 X104.228 Y118.135 E.11938
G3 X105.278 Y118.09 I.72 J4.546 E.04003
G3 X106.03 Y118.328 I-.09 J1.593 E.03029
G3 X106.341 Y118.804 I-.465 J.643 E.0221
G3 X106.268 Y119.478 I-1.156 J.216 E.02614
G3 X105.816 Y119.863 I-.75 J-.422 E.02304
G3 X105.283 Y119.976 I-.765 J-2.296 E.02075
G1 X104.473 Y119.995 E.03079
M204 P1000
G1 X104.473 Y119.995 F12000
M73 P0 R83
G1 X104.413 Y119.88
M204 P600
G1 F1200
G1 X104.413 Y118.221 E.06305
G1 X104.799 Y118.204 E.01468
G3 X105.624 Y118.282 I.169 J2.627 E.03163
G3 X106.154 Y119.025 I-.234 J.727 E.03717
G3 X105.944 Y119.599 I-.821 J.025 E.0238
G3 X105.404 Y119.844 I-.688 J-.8 E.02284
G3 X104.473 Y119.881 I-.805 J-8.603 E.03543
M204 P1000
;WIPE_START
G1 F9600
G1 X104.413 Y119.88 E-.01247
G1 X104.413 Y118.221 E-.34476
G1 X104.799 Y118.204 E-.08029
G3 X105.624 Y118.282 I.168 J2.627 E-.17293
G3 X106.154 Y119.025 I-.234 J.728 E-.20325
G3 X105.944 Y119.599 I-.821 J.025 E-.13015
G3 X105.719 Y119.747 I-.689 J-.8 E-.05615
;WIPE_END
G1 Z.35 F720
G1 X107.453 Y119.997 F12000
G1 Z.2 F720
G1 E1 F1500
M204 P600
G1 F1200
G1 X107.453 Y121.276 E.04861
G1 X107.268 Y121.276 E.00703
G1 X107.268 Y118.135 E.11938
G3 X108.318 Y118.09 I.72 J4.546 E.04003
G3 X109.07 Y118.328 I-.09 J1.593 E.03029
G3 X109.381 Y118.804 I-.465 J.643 E.0221
G3 X109.308 Y119.478 I-1.156 J.216 E.02614
G3 X108.856 Y119.863 I-.75 J-.422 E.02304
G3 X108.323 Y119.976 I-.765 J-2.296 E.02075
G1 X107.513 Y119.995 E.03079
M204 P1000
G1 X107.513 Y119.995 F12000
G1 X107.453 Y119.88
M204 P600
G1 F1200
G1 X107.453 Y118.221 E.06305
G1 X107.839 Y118.204 E.01468
G3 X108.664 Y118.282 I.169 J2.627 E.03163
G3 X109.194 Y119.025 I-.234 J.727 E.03717
G3 X108.984 Y119.599 I-.821 J.025 E.0238
G3 X108.444 Y119.844 I-.688 J-.8 E.02284
G3 X107.513 Y119.881 I-.805 J-8.603 E.03543
M204 P1000
;WIPE_START
G1 F9600
G1 X107.453 Y119.88 E-.01247
G1 X107.453 Y118.221 E-.34476
G1 X107.839 Y118.204 E-.08029
G3 X108.664 Y118.282 I.168 J2.627 E-.17293
G3 X109.194 Y119.025 I-.234 J.728 E-.20325
G3 X108.984 Y119.599 I-.821 J.025 E-.13015
G3 X108.759 Y119.747 I-.689 J-.8 E-.05615
;WIPE_END
G1 Z.35 F720
G1 X114.509 Y119.946 F12000
G1 Z.2 F720
G1 E1 F1500
M204 P600
G1 F1200
G3 X115.288 Y121.086 I-10.857 J8.263 E.0525
G1 X115.389 Y121.276 E.00818
G1 X115.195 Y121.276 E.00737
G2 X114.281 Y119.917 I-8.479 J4.717 E.06232
G1 X113.348 Y119.922 E.03546
G1 X113.348 Y121.276 E.05146
G1 X113.163 Y121.276 E.00703
G1 X113.163 Y118.135 E.11938
G3 X114.212 Y118.09 I.721 J4.565 E.03999
G3 X114.77 Y118.218 I-.183 J2.076 E.02183
G3 X115.257 Y118.796 I-.305 J.75 E.02989
G3 X115.19 Y119.413 I-.976 J.208 E.02399
G3 X114.935 Y119.7 I-.739 J-.4 E.01472
G1 X114.561 Y119.916 E.01641
M204 P1000
G1 X114.561 Y119.916 F12000
G1 X113.348 Y119.824
M204 P600
G1 F1200
G1 X113.348 Y118.221 E.06092
G1 X113.734 Y118.204 E.01468
G3 X114.551 Y118.28 I.166 J2.649 E.03131
G3 X115.069 Y119.015 I-.228 J.711 E.03667
G3 X114.854 Y119.579 I-.76 J.034 E.02359
G3 X114.315 Y119.795 I-.646 J-.835 E.02236
G3 X113.408 Y119.825 I-.792 J-10.076 E.0345
M204 P1000
;WIPE_START
G1 F9600
G1 X113.348 Y119.824 E-.01247
G1 X113.348 Y118.221 E-.33312
G1 X113.734 Y118.204 E-.08029
G3 X114.551 Y118.28 I.166 J2.649 E-.1712
G3 X115.069 Y119.015 I-.228 J.711 E-.20053
G3 X114.854 Y119.579 I-.76 J.033 E-.12898
G3 X114.544 Y119.745 I-.646 J-.835 E-.07341
;WIPE_END
G1 Z.35 F720
G1 X110.493 Y118.226 F12000
G1 Z.2 F720
G1 E1 F1500
M204 P600
G1 F1200
G1 X110.493 Y119.556 E.05055
G1 X111.943 Y119.556 E.05511
G1 X111.943 Y119.661 E.00399
G1 X110.493 Y119.661 E.05511
G1 X110.493 Y121.161 E.05701
G1 X112.248 Y121.161 E.0667
G1 X112.248 Y121.276 E.00437
G1 X110.308 Y121.276 E.07373
G1 X110.308 Y118.111 E.12029
G1 X112.123 Y118.111 E.06898
G1 X112.123 Y118.226 E.00437
G1 X110.553 Y118.226 E.05967
M204 P1000
;WIPE_START
G1 F9600
G1 X110.493 Y118.226 E-.01247
G1 X110.493 Y119.556 E-.27639
G1 X111.943 Y119.556 E-.30133
G1 X111.943 Y119.661 E-.02182
G1 X110.493 Y119.661 E-.30133
G1 X110.493 Y120.078 E-.08666
;WIPE_END
G1 Z.35 F720
G1 X61.586 Y115.398 F12000
G1 Z.2 F720
G1 E1 F1500
M204 P600
G1 F1200
G3 X61.808 Y115.574 I-.79 J1.222 E.01078
G3 X62.223 Y116.426 I-1.285 J1.154 E.03649
G3 X62.129 Y117.55 I-2.344 J.37 E.04328
G3 X61.589 Y118.244 I-1.388 J-.522 E.03393
G3 X59.692 Y118.067 I-.829 J-1.359 E.07763
G3 X59.276 Y117.212 I1.266 J-1.145 E.03662
G3 X59.366 Y116.087 I2.435 J-.371 E.04328
G3 X60.17 Y115.264 I1.353 J.517 E.04497
G3 X61.012 Y115.181 I.588 J1.665 E.03247
G3 X61.535 Y115.366 I-.216 J1.439 E.02121
M204 P1000
;WIPE_START
G1 F9600
G1 X61.586 Y115.398 E-.01251
G3 X61.808 Y115.574 I-.789 J1.223 E-.05897
G3 X62.223 Y116.426 I-1.286 J1.153 E-.1995
G3 X62.129 Y117.55 I-2.344 J.37 E-.23666
G3 X61.589 Y118.244 I-1.388 J-.523 E-.18553
G3 X60.17 Y118.364 I-.83 J-1.359 E-.30683
;WIPE_END
G1 Z.35 F720
G1 X59.987 Y115.534 F12000
G1 Z.2 F720
G1 E1 F1500
M204 P600
G1 F1200
G3 X60.503 Y115.307 I.725 J.95 E.02163
G1 X60.75 Y115.283 E.00943
G3 X61.846 Y115.938 I.014 J1.221 E.05106
G3 X61.954 Y117.438 I-1.965 J.895 E.05838
G3 X61.288 Y118.246 I-1.285 J-.381 E.04089
G3 X60.468 Y118.327 I-.553 J-1.397 E.03172
G3 X59.648 Y117.699 I.252 J-1.178 E.04057
