;FLAVOR:Marlin
;TIME:27392
;Filament used: 36.9546m
;Layer height: 0.2
;MINX:33.274
;MINY:27.787
;MINZ:0.2
;MAXX:212.685
;MAXY:207.213
;MAXZ:50
;Generated with Cura_SteamEngine 5.2.2
M140 S50
M105
M190 S50
M104 S210
M105
M109 S210
M82 ;absolute extrusion mode
; Ender 3 Custom Start G-code
G92 E0 ; Reset Extruder
G28 ; Home all axes
G29 ; Auto Bed Level
G1 Z2.0 F3000 ; Move Z Axis up little to prevent scratching of Heat Bed
G1 X0.1 Y20 Z0.3 F5000.0 ; Move to start position
G1 X0.1 Y200.0 Z0.3 F1500.0 E15 ; Draw the first line
G1 X0.4 Y200.0 Z0.3 F5000.0 ; Move to side a little
G1 X0.4 Y20 Z0.3 F1500.0 E30 ; Draw the second line
G92 E0 ; Reset Extruder
G1 Z2.0 F3000 ; Move Z Axis up little to prevent scratching of Heat Bed
G1 X5 Y20 Z0.3 F5000.0 ; Move over to prevent blob squish
G92 E0
G92 E0
G1 F2700 E-5
;LAYER_COUNT:250
;LAYER:0
M107
G0 F6000 X35.851 Y170.545 Z0.2
;TYPE:SKIRT
G1 F2700 E0
G1 F1200 X176.022 Y30.373 E9.88986
G1 X176.619 Y29.833 E9.93002
G1 X177.266 Y29.355 E9.97015
G1 X178.239 Y28.801 E10.02601
G1 X178.607 Y28.624 E10.04638
G1 X179.349 Y28.312 E10.08654
G1 X180.118 Y28.075 E10.12669
G1 X180.906 Y27.915 E10.1668
G1 X181.413 Y27.855 E10.19227
G1 X181.848 Y27.817 E10.21406
G1 X182.652 Y27.787 E10.2542
G1 X183.455 Y27.836 E10.29433
G1 X184.25 Y27.966 E10.33452
G1 X185.027 Y28.173 E10.37464
G1 X185.959 Y28.537 E10.42456
G1 X186.397 Y28.74 E10.44864
G1 X187.109 Y29.114 E10.48877
G1 X187.781 Y29.557 E10.52892
G1 X188.406 Y30.065 E10.56911
G1 X188.719 Y30.361 E10.5906
G1 X210.108 Y51.75 E12.09971
G1 X210.648 Y52.347 E12.13987
G1 X211.126 Y52.994 E12.18
G1 X211.68 Y53.968 E12.23591
G1 X211.856 Y54.334 E12.25617
G1 X212.168 Y55.075 E12.29628
G1 X212.405 Y55.844 E12.33643
G1 X212.565 Y56.633 E12.37659
G1 X212.626 Y57.148 E12.40246
G1 X212.656 Y57.496 E12.41989
G1 X212.685 Y58.301 E12.46008
G1 X212.635 Y59.104 E12.50022
G1 X212.413 Y60.278 E12.55983
G1 X212.324 Y60.612 E12.57707
G1 X212.078 Y61.378 E12.61721
G1 X211.758 Y62.116 E12.65734
G1 X211.431 Y62.723 E12.69174
G1 X210.942 Y63.476 E12.73653
G1 X210.438 Y64.104 E12.7767
G1 X210.108 Y64.455 E12.80074
G1 X69.937 Y204.627 E22.6906
G1 X69.34 Y205.167 E22.73076
G1 X68.693 Y205.645 E22.77089
G1 X67.72 Y206.199 E22.82675
G1 X67.352 Y206.376 E22.84712
G1 X66.61 Y206.688 E22.88728
G1 X65.841 Y206.925 E22.92743
G1 X65.053 Y207.085 E22.96754
G1 X64.546 Y207.145 E22.99301
G1 X64.111 Y207.183 E23.0148
G1 X63.307 Y207.213 E23.05494
G1 X62.504 Y207.164 E23.09508
G1 X61.709 Y207.034 E23.13526
G1 X60.932 Y206.827 E23.17538
G1 X60 Y206.463 E23.2253
G1 X59.562 Y206.26 E23.24938
G1 X58.85 Y205.886 E23.28951
G1 X58.178 Y205.443 E23.32966
G1 X57.553 Y204.935 E23.36985
G1 X57.24 Y204.639 E23.39134
G1 X35.851 Y183.25 E24.90045
G1 X35.311 Y182.653 E24.94061
G1 X34.833 Y182.006 E24.98074
G1 X34.279 Y181.032 E25.03665
G1 X34.103 Y180.666 E25.05691
G1 X33.791 Y179.925 E25.09702
G1 X33.554 Y179.156 E25.13717
G1 X33.394 Y178.367 E25.17733
G1 X33.333 Y177.852 E25.2032
G1 X33.303 Y177.504 E25.22063
G1 X33.274 Y176.699 E25.26082
G1 X33.324 Y175.896 E25.30096
G1 X33.546 Y174.722 E25.36057
G1 X33.635 Y174.388 E25.37781
G1 X33.881 Y173.622 E25.41795
G1 X34.201 Y172.884 E25.45808
G1 X34.528 Y172.277 E25.49248
G1 X35.017 Y171.524 E25.53727
G1 X35.521 Y170.896 E25.57744
G1 X35.851 Y170.545 E25.60148
G0 F6000 X36.276 Y170.97
G1 F1200 X176.447 Y30.798 E35.49134
G1 X177.022 Y30.279 E35.52998
G1 X177.647 Y29.823 E35.56858
G1 X178.499 Y29.342 E35.61739
G1 X178.867 Y29.165 E35.63776
G1 X179.581 Y28.866 E35.67638
G1 X180.323 Y28.642 E35.71505
G1 X181.465 Y28.452 E35.77281
G1 X181.9 Y28.414 E35.7946
G1 X182.674 Y28.387 E35.83323
G1 X183.447 Y28.439 E35.87189
G1 X184.21 Y28.571 E35.91052
G1 X184.955 Y28.781 E35.94913
G1 X185.707 Y29.081 E35.98953
G1 X186.145 Y29.284 E36.01361
G1 X186.83 Y29.646 E36.05227
G1 X187.473 Y30.076 E36.09086
G1 X188.294 Y30.786 E36.14501
G1 X209.683 Y52.175 E37.65412
G1 X210.202 Y52.75 E37.69276
G1 X210.658 Y53.375 E37.73136
G1 X211.139 Y54.228 E37.78022
G1 X211.315 Y54.594 E37.80048
G1 X211.614 Y55.308 E37.8391
G1 X211.838 Y56.049 E37.87772
G1 X211.984 Y56.81 E37.91638
G1 X212.058 Y57.548 E37.95338
G1 X212.085 Y58.322 E37.99202
G1 X212.032 Y59.094 E38.03062
G1 X211.833 Y60.123 E38.08291
G1 X211.744 Y60.457 E38.10016
G1 X211.506 Y61.194 E38.1388
G1 X211.194 Y61.903 E38.17744
G1 X210.862 Y62.5 E38.21152
G1 X210.438 Y63.148 E38.25016
G1 X209.95 Y63.749 E38.28878
G1 X209.683 Y64.03 E38.30812
G1 X69.512 Y204.202 E48.19798
G1 X68.937 Y204.721 E48.23662
G1 X68.312 Y205.177 E48.27522
G1 X67.46 Y205.658 E48.32403
G1 X67.092 Y205.835 E48.3444
G1 X66.378 Y206.134 E48.38302
G1 X65.636 Y206.358 E48.42169
G1 X64.494 Y206.548 E48.47945
G1 X64.059 Y206.586 E48.50123
G1 X63.285 Y206.613 E48.53987
G1 X62.512 Y206.561 E48.57852
G1 X61.749 Y206.429 E48.61716
G1 X61.004 Y206.219 E48.65577
G1 X60.252 Y205.919 E48.69617
G1 X59.814 Y205.716 E48.72025
G1 X59.129 Y205.354 E48.7589
G1 X58.486 Y204.924 E48.7975
G1 X57.665 Y204.214 E48.85165
G1 X36.276 Y182.825 E50.36076
G1 X35.757 Y182.25 E50.3994
G1 X35.301 Y181.625 E50.438
G1 X34.82 Y180.772 E50.48686
G1 X34.644 Y180.406 E50.50712
G1 X34.345 Y179.692 E50.54574
G1 X34.121 Y178.951 E50.58436
G1 X33.975 Y178.19 E50.62302
G1 X33.901 Y177.452 E50.66002
G1 X33.874 Y176.678 E50.69866
G1 X33.927 Y175.906 E50.73726
G1 X34.126 Y174.877 E50.78955
G1 X34.215 Y174.543 E50.8068
G1 X34.453 Y173.806 E50.84544
G1 X34.765 Y173.097 E50.88408
G1 X35.097 Y172.5 E50.91816
G1 X35.521 Y171.852 E50.9568
G1 X36.009 Y171.251 E50.99542
G1 X36.276 Y170.97 E51.01476
G0 F6000 X36.7 Y171.394
G1 F1200 X176.871 Y31.222 E60.90461
G1 X177.424 Y30.726 E60.94167
G1 X178.026 Y30.292 E60.9787
G1 X178.759 Y29.883 E61.02058
G1 X179.127 Y29.706 E61.04095
G1 X179.813 Y29.42 E61.07803
G1 X180.525 Y29.21 E61.11506
G1 X181.518 Y29.05 E61.16524
G1 X181.953 Y29.012 E61.18703
G1 X182.695 Y28.987 E61.22407
G1 X183.435 Y29.043 E61.26109
G1 X184.166 Y29.177 E61.29817
G1 X184.878 Y29.389 E61.33523
G1 X185.454 Y29.626 E61.36631
G1 X185.892 Y29.829 E61.39039
G1 X186.549 Y30.177 E61.42748
G1 X187.163 Y30.593 E61.46449
G1 X187.87 Y31.21 E61.5113
G1 X209.259 Y52.599 E63.02041
G1 X209.755 Y53.152 E63.05747
G1 X210.189 Y53.754 E63.0945
G1 X210.598 Y54.488 E63.13642
G1 X210.774 Y54.854 E63.15668
G1 X211.06 Y55.539 E63.19371
G1 X211.27 Y56.252 E63.2308
G1 X211.431 Y57.251 E63.28128
G1 X211.461 Y57.599 E63.29871
G1 X211.484 Y58.342 E63.33579
G1 X211.428 Y59.082 E63.37282
G1 X211.253 Y59.969 E63.41792
G1 X211.164 Y60.303 E63.43517
G1 X210.935 Y61.009 E63.4722
G1 X210.419 Y62.081 E63.53155
G1 X209.936 Y62.819 E63.57555
G1 X209.259 Y63.606 E63.62735
G1 X69.088 Y203.778 E73.5172
G1 X68.535 Y204.274 E73.55426
G1 X67.933 Y204.708 E73.59129
G1 X67.2 Y205.117 E73.63317
G1 X66.832 Y205.294 E73.65354
G1 X66.146 Y205.58 E73.69062
G1 X65.434 Y205.79 E73.72765
G1 X64.441 Y205.95 E73.77783
G1 X64.006 Y205.988 E73.79962
G1 X63.264 Y206.013 E73.83666
G1 X62.524 Y205.957 E73.87368
G1 X61.793 Y205.823 E73.91076
G1 X61.081 Y205.611 E73.94782
G1 X60.505 Y205.374 E73.9789
G1 X60.067 Y205.171 E74.00298
G1 X59.41 Y204.823 E74.04007
G1 X58.796 Y204.407 E74.07707
G1 X58.089 Y203.79 E74.12389
G1 X36.7 Y182.401 E75.633
G1 X36.204 Y181.848 E75.67006
G1 X35.77 Y181.246 E75.70709
G1 X35.361 Y180.512 E75.74901
G1 X35.185 Y180.146 E75.76927
G1 X34.899 Y179.461 E75.8063
G1 X34.689 Y178.748 E75.84338
G1 X34.528 Y177.749 E75.89387
G1 X34.498 Y177.401 E75.91129
G1 X34.475 Y176.658 E75.94838
G1 X34.531 Y175.918 E75.9854
G1 X34.706 Y175.031 E76.03051
G1 X34.795 Y174.697 E76.04775
G1 X35.024 Y173.991 E76.08478
G1 X35.54 Y172.919 E76.14414
G1 X36.023 Y172.181 E76.18814
G1 X36.7 Y171.394 E76.23993
G0 F6000 X37.124 Y171.818
G1 F1200 X177.295 Y31.646 E86.12979
G1 X177.824 Y31.174 E86.16516
G1 X178.404 Y30.763 E86.20063
G1 X179.019 Y30.424 E86.23566
G1 X179.387 Y30.247 E86.25603
G1 X180.043 Y29.975 E86.29146
G1 X180.725 Y29.78 E86.32685
G1 X181.57 Y29.648 E86.36952
G1 X182.005 Y29.61 E86.39131
G1 X182.714 Y29.588 E86.4267
G1 X183.421 Y29.646 E86.46209
G1 X184.118 Y29.783 E86.49752
G1 X184.794 Y29.998 E86.53292
G1 X185.202 Y30.17 E86.55501
G1 X185.64 Y30.373 E86.57909
G1 X186.266 Y30.707 E86.61449
G1 X186.851 Y31.11 E86.64993
G1 X187.446 Y31.634 E86.68948
G1 X208.835 Y53.023 E88.19859
G1 X209.308 Y53.552 E88.234
G1 X209.718 Y54.132 E88.26943
G1 X210.058 Y54.748 E88.30454
G1 X210.234 Y55.114 E88.3248
G1 X210.505 Y55.77 E88.36021
G1 X210.7 Y56.452 E88.3956
G1 X210.833 Y57.303 E88.43857
G1 X210.863 Y57.651 E88.456
G1 X210.884 Y58.36 E88.49138
G1 X210.825 Y59.067 E88.52678
G1 X210.674 Y59.814 E88.5648
G1 X210.585 Y60.148 E88.58204
G1 X210.364 Y60.822 E88.61743
G1 X209.899 Y61.783 E88.67069
G1 X209.434 Y62.489 E88.71287
G1 X208.835 Y63.182 E88.75857
G1 X68.664 Y203.354 E98.64843
G1 X68.135 Y203.826 E98.6838
G1 X67.555 Y204.237 E98.71926
G1 X66.94 Y204.576 E98.7543
G1 X66.572 Y204.753 E98.77467
G1 X65.916 Y205.025 E98.8101
G1 X65.234 Y205.22 E98.84549
G1 X64.389 Y205.352 E98.88816
G1 X63.954 Y205.39 E98.90994
G1 X63.245 Y205.412 E98.94533
G1 X62.538 Y205.354 E98.98072
G1 X61.841 Y205.217 E99.01616
G1 X61.165 Y205.002 E99.05155
G1 X60.757 Y204.83 E99.07364
G1 X60.319 Y204.627 E99.09772
G1 X59.693 Y204.293 E99.13312
G1 X59.108 Y203.89 E99.16856
G1 X58.513 Y203.366 E99.20812
G1 X37.124 Y181.977 E100.71723
G1 X36.651 Y181.448 E100.75263
G1 X36.241 Y180.868 E100.78807
G1 X35.901 Y180.252 E100.82317
G1 X35.725 Y179.886 E100.84343
G1 X35.454 Y179.23 E100.87884
G1 X35.259 Y178.548 E100.91423
G1 X35.126 Y177.697 E100.9572
G1 X35.096 Y177.349 E100.97463
G1 X35.075 Y176.64 E101.01002
G1 X35.134 Y175.933 E101.04541
G1 X35.285 Y175.186 E101.08343
G1 X35.374 Y174.852 E101.10068
G1 X35.595 Y174.178 E101.13607
G1 X36.06 Y173.217 E101.18933
G1 X36.525 Y172.511 E101.2315
G1 X37.124 Y171.818 E101.2772
G0 F6000 X37.548 Y172.243
G1 F1200 X177.719 Y32.071 E111.16706
G1 X178.224 Y31.622 E111.20077
G1 X178.778 Y31.237 E111.23443
G1 X179.279 Y30.964 E111.2629
G1 X179.647 Y30.787 E111.28327
G1 X180.272 Y30.531 E111.31696
G1 X180.922 Y30.351 E111.35061
G1 X181.622 Y30.246 E111.38593
G1 X182.057 Y30.208 E111.40771
G1 X182.732 Y30.189 E111.4414
G1 X183.404 Y30.25 E111.47507
G1 X184.064 Y30.39 E111.50873
G1 X184.95 Y30.714 E111.55579
G1 X185.388 Y30.917 E111.57988
G1 X185.982 Y31.237 E111.61354
G1 X186.535 Y31.625 E111.64724
G1 X187.022 Y32.058 E111.67975
G1 X208.411 Y53.447 E113.18886
G1 X208.859 Y53.952 E113.22254
G1 X209.244 Y54.506 E113.2562
G1 X209.517 Y55.008 E113.28471
G1 X209.693 Y55.374 E113.30497
G1 X209.949 Y55.998 E113.33862
G1 X210.129 Y56.649 E113.37232
G1 X210.235 Y57.354 E113.40788
G1 X210.265 Y57.702 E113.42531
G1 X210.283 Y58.377 E113.459
G1 X210.221 Y59.049 E113.49267
G1 X210.094 Y59.66 E113.5238
G1 X210.005 Y59.994 E113.54105
G1 X209.793 Y60.634 E113.57468
G1 X209.378 Y61.485 E113.62192
G1 X208.933 Y62.157 E113.66213
G1 X208.411 Y62.757 E113.70181
G1 X68.24 Y202.929 E123.59166
G1 X67.735 Y203.378 E123.62537
G1 X67.181 Y203.763 E123.65903
G1 X66.68 Y204.036 E123.6875
G1 X66.312 Y204.213 E123.70787
G1 X65.687 Y204.469 E123.74157
G1 X65.037 Y204.649 E123.77522
G1 X64.337 Y204.754 E123.81053
G1 X63.902 Y204.792 E123.83231
G1 X63.227 Y204.811 E123.866
G1 X62.555 Y204.75 E123.89967
G1 X61.895 Y204.61 E123.93333
G1 X61.009 Y204.286 E123.98039
G1 X60.571 Y204.083 E124.00448
G1 X59.977 Y203.763 E124.03814
G1 X59.424 Y203.375 E124.07184
G1 X58.937 Y202.942 E124.10435
G1 X37.548 Y181.553 E125.61346
G1 X37.1 Y181.048 E125.64714
G1 X36.715 Y180.494 E125.6808
G1 X36.442 Y179.992 E125.70931
G1 X36.266 Y179.626 E125.72957
G1 X36.01 Y179.002 E125.76322
G1 X35.83 Y178.351 E125.79692
G1 X35.724 Y177.646 E125.83249
G1 X35.694 Y177.298 E125.84991
G1 X35.676 Y176.623 E125.8836
G1 X35.738 Y175.951 E125.91727
G1 X35.865 Y175.34 E125.9484
G1 X35.954 Y175.006 E125.96565
G1 X36.166 Y174.366 E125.99928
G1 X36.581 Y173.515 E126.04652
G1 X37.026 Y172.843 E126.08673
G1 X37.548 Y172.243 E126.12641
G0 F6000 X37.973 Y172.667
G1 F1200 X178.144 Y32.495 E136.01626
G1 X178.623 Y32.072 E136.04815
G1 X179.15 Y31.713 E136.07996
G1 X179.539 Y31.505 E136.10197
G1 X179.907 Y31.328 E136.12234
G1 X180.499 Y31.088 E136.15421
G1 X181.116 Y30.923 E136.18607
G1 X181.674 Y30.843 E136.2142
G1 X182.109 Y30.805 E136.23598
G1 X182.747 Y30.79 E136.26782
G1 X183.383 Y30.854 E136.29971
G1 X184.005 Y30.997 E136.33155
G1 X184.698 Y31.259 E136.36851
G1 X185.136 Y31.462 E136.3926
G1 X185.697 Y31.766 E136.42443
G1 X186.216 Y32.138 E136.45629
G1 X186.597 Y32.483 E136.48193
G1 X207.986 Y53.872 E137.99104
G1 X208.409 Y54.351 E138.02292
G1 X208.768 Y54.878 E138.05474
G1 X208.976 Y55.268 E138.07679
G1 X209.152 Y55.634 E138.09705
G1 X209.392 Y56.225 E138.12887
G1 X209.557 Y56.842 E138.16074
G1 X209.637 Y57.406 E138.18916
G1 X209.667 Y57.754 E138.20658
G1 X209.682 Y58.392 E138.23842
G1 X209.617 Y59.027 E138.27027
G1 X209.514 Y59.505 E138.29466
G1 X209.425 Y59.839 E138.31191
G1 X209.222 Y60.445 E138.34379
G1 X208.857 Y61.19 E138.38518
G1 X208.433 Y61.823 E138.42319
G1 X207.986 Y62.333 E138.45702
G1 X67.815 Y202.505 E148.34688
G1 X67.336 Y202.928 E148.37876
G1 X66.809 Y203.287 E148.41058
G1 X66.42 Y203.495 E148.43258
G1 X66.052 Y203.672 E148.45296
G1 X65.46 Y203.912 E148.48483
G1 X64.843 Y204.077 E148.51669
G1 X64.285 Y204.157 E148.54481
G1 X63.85 Y204.195 E148.5666
G1 X63.212 Y204.21 E148.59844
G1 X62.576 Y204.146 E148.63033
G1 X61.954 Y204.003 E148.66217
G1 X61.261 Y203.741 E148.69913
G1 X60.823 Y203.538 E148.72322
G1 X60.262 Y203.234 E148.75505
G1 X59.743 Y202.862 E148.78691
G1 X59.362 Y202.517 E148.81255
G1 X37.973 Y181.128 E150.32166
G1 X37.55 Y180.649 E150.35354
G1 X37.191 Y180.122 E150.38535
G1 X36.983 Y179.732 E150.40741
G1 X36.807 Y179.366 E150.42767
G1 X36.567 Y178.775 E150.45949
G1 X36.402 Y178.158 E150.49135
G1 X36.322 Y177.594 E150.51977
G1 X36.292 Y177.246 E150.5372
G1 X36.277 Y176.608 E150.56904
G1 X36.342 Y175.973 E150.60088
G1 X36.445 Y175.495 E150.62528
G1 X36.534 Y175.161 E150.64252
G1 X36.737 Y174.555 E150.67441
G1 X37.102 Y173.81 E150.7158
G1 X37.526 Y173.177 E150.75381
G1 X37.973 Y172.667 E150.78764
G0 F6000 X38.397 Y173.091
G1 F1200 X178.568 Y32.919 E160.6775
G1 X179.019 Y32.524 E160.70741
G1 X179.519 Y32.193 E160.73733
G1 X179.799 Y32.046 E160.7531
G1 X180.167 Y31.869 E160.77348
G1 X180.724 Y31.645 E160.80343
G1 X181.305 Y31.498 E160.83333
G1 X181.726 Y31.441 E160.85452
G1 X182.161 Y31.403 E160.87631
G1 X182.761 Y31.391 E160.90625
G1 X183.357 Y31.458 E160.93617
G1 X183.938 Y31.605 E160.96607
G1 X184.445 Y31.803 E160.99322
G1 X184.883 Y32.006 E161.01731
G1 X185.409 Y32.294 E161.04723
G1 X185.892 Y32.649 E161.07713
G1 X186.173 Y32.907 E161.09616
G1 X207.562 Y54.296 E162.60527
G1 X207.957 Y54.747 E162.63518
G1 X208.288 Y55.247 E162.6651
G1 X208.435 Y55.528 E162.68092
G1 X208.611 Y55.894 E162.70118
G1 X208.835 Y56.45 E162.73109
G1 X208.982 Y57.032 E162.76104
G1 X209.039 Y57.458 E162.78248
G1 X209.069 Y57.806 E162.7999
G1 X209.081 Y58.405 E162.8298
G1 X209.013 Y59.001 E162.85972
G1 X208.934 Y59.351 E162.87762
G1 X208.845 Y59.685 E162.89487
G1 X208.653 Y60.253 E162.92478
G1 X208.334 Y60.895 E162.96055
G1 X207.934 Y61.488 E162.99623
G1 X207.562 Y61.909 E163.02426
G1 X67.391 Y202.081 E172.91412
G1 X66.94 Y202.476 E172.94403
G1 X66.44 Y202.807 E172.97394
G1 X66.16 Y202.954 E172.98972
G1 X65.792 Y203.131 E173.01009
G1 X65.235 Y203.355 E173.04005
G1 X64.654 Y203.502 E173.06995
G1 X64.233 Y203.559 E173.09114
G1 X63.798 Y203.597 E173.11293
G1 X63.198 Y203.609 E173.14287
G1 X62.602 Y203.542 E173.17279
G1 X62.021 Y203.395 E173.20269
G1 X61.514 Y203.197 E173.22984
G1 X61.076 Y202.994 E173.25393
G1 X60.55 Y202.706 E173.28385
G1 X60.067 Y202.351 E173.31375
G1 X59.786 Y202.093 E173.33278
G1 X38.397 Y180.704 E174.84189
G1 X38.002 Y180.253 E174.8718
G1 X37.671 Y179.753 E174.90172
G1 X37.524 Y179.472 E174.91754
G1 X37.348 Y179.106 E174.9378
G1 X37.124 Y178.55 E174.96771
G1 X36.977 Y177.968 E174.99765
G1 X36.92 Y177.542 E175.0191
G1 X36.89 Y177.194 E175.03652
G1 X36.878 Y176.595 E175.06641
G1 X36.946 Y175.999 E175.09634
G1 X37.025 Y175.649 E175.11424
G1 X37.114 Y175.315 E175.13149
G1 X37.306 Y174.747 E175.1614
