;FLAVOR:Marlin
;TIME:2023
;Filament used: 2.18934m
;Layer height: 0.2
;MINX:95.9
;MINY:67.9
;MINZ:0.2
;MAXX:144.101
;MAXY:167.1
;MAXZ:3
;Generated with Cura_SteamEngine 5.2.2
M140 S50
M105
M190 S50
M104 S210
M105
M109 S210
M82 ;absolute extrusion mode
; Ender 3 Custom Start G-code
G92 E0 ; Reset Extruder
G28 ; Home all axes
G29 ; Auto Bed Level
G1 Z2.0 F3000 ; Move Z Axis up little to prevent scratching of Heat Bed
G1 X0.1 Y20 Z0.3 F5000.0 ; Move to start position
G1 X0.1 Y200.0 Z0.3 F1500.0 E15 ; Draw the first line
G1 X0.4 Y200.0 Z0.3 F5000.0 ; Move to side a little
G1 X0.4 Y20 Z0.3 F1500.0 E30 ; Draw the second line
G92 E0 ; Reset Extruder
G1 Z2.0 F3000 ; Move Z Axis up little to prevent scratching of Heat Bed
G1 X5 Y20 Z0.3 F5000.0 ; Move over to prevent blob squish
G92 E0
G92 E0
G1 F2700 E-5
;LAYER_COUNT:15
;LAYER:0
M107
G0 F6000 X97.298 Y71.451 Z0.2
;TYPE:SKIRT
G1 F2700 E0
G1 F1200 X97.783 Y70.808 E0.04018
G1 X98.328 Y70.217 E0.08029
G1 X98.93 Y69.683 E0.12044
G1 X99.582 Y69.211 E0.16059
G1 X100.278 Y68.806 E0.20077
G1 X101.01 Y68.472 E0.24091
G1 X101.772 Y68.213 E0.28106
G1 X102.555 Y68.03 E0.32118
G1 X103.353 Y67.926 E0.36133
G1 X104 Y67.9 E0.39363
G1 X112 Y67.9 E0.79276
G1 X112.898 Y67.913 E0.83756
G1 X113.711 Y67.945 E0.87815
G1 X114.338 Y67.985 E0.9095
G1 X115.334 Y68.073 E0.95938
G1 X115.959 Y68.145 E0.99077
G1 X116.947 Y68.284 E1.04055
G1 X117.784 Y68.426 E1.0829
G1 X118.563 Y68.578 E1.1225
G1 X119.157 Y68.708 E1.15284
G1 X119.91 Y68.889 E1.19147
G1 X120.931 Y69.168 E1.24428
G1 X121.706 Y69.403 E1.28468
G1 X122.283 Y69.592 E1.31497
G1 X123.073 Y69.871 E1.35677
G1 X124.017 Y70.235 E1.40725
G1 X124.561 Y70.46 E1.43662
G1 X125.331 Y70.8 E1.47861
G1 X126.222 Y71.224 E1.52784
G1 X126.981 Y71.61 E1.57032
G1 X127.499 Y71.89 E1.5997
G1 X128.176 Y72.273 E1.63851
G1 X128.911 Y72.717 E1.68135
G1 X129.571 Y73.137 E1.72038
G1 X130.421 Y73.712 E1.77157
G1 X130.916 Y74.066 E1.80194
G1 X131.736 Y74.684 E1.85316
G1 X132.369 Y75.191 E1.89362
G1 X132.85 Y75.594 E1.92493
G1 X133.592 Y76.249 E1.97431
G1 X134.182 Y76.798 E2.01452
G1 X134.778 Y77.382 E2.05615
G1 X135.338 Y77.961 E2.09633
G1 X135.899 Y78.57 E2.13764
G1 X136.3 Y79.025 E2.1679
G1 X136.82 Y79.645 E2.20827
G1 X137.452 Y80.439 E2.2589
G1 X137.94 Y81.092 E2.29957
G1 X138.406 Y81.749 E2.33976
G1 X138.758 Y82.269 E2.37109
G1 X139.293 Y83.103 E2.42052
G1 X139.609 Y83.624 E2.45092
G1 X140.021 Y84.341 E2.49218
G1 X140.397 Y85.032 E2.53142
G1 X140.795 Y85.816 E2.57529
G1 X141.208 Y86.687 E2.62338
G1 X141.548 Y87.457 E2.66537
G1 X141.773 Y88.001 E2.69474
G1 X142.142 Y88.961 E2.74606
G1 X142.41 Y89.722 E2.78631
G1 X142.66 Y90.495 E2.82684
G1 X142.84 Y91.097 E2.85819
G1 X143.107 Y92.077 E2.90886
G1 X143.292 Y92.843 E2.94818
G1 X143.422 Y93.437 E2.97851
G1 X143.617 Y94.452 E3.03008
G1 X143.747 Y95.256 E3.07071
G1 X143.829 Y95.838 E3.10003
G1 X143.945 Y96.853 E3.151
G1 X144.015 Y97.671 E3.19196
G1 X144.063 Y98.478 E3.23229
G1 X144.091 Y99.285 E3.27258
G1 X144.1 Y100 E3.30825
G1 X144.101 Y159 E6.25177
G1 X144.061 Y159.804 E6.29194
G1 X143.942 Y160.599 E6.33204
G1 X143.744 Y161.379 E6.37219
G1 X143.469 Y162.136 E6.41237
G1 X143.121 Y162.862 E6.45254
G1 X142.703 Y163.549 E6.49266
G1 X142.218 Y164.192 E6.53284
G1 X141.673 Y164.783 E6.57295
G1 X141.071 Y165.317 E6.61309
G1 X140.419 Y165.789 E6.65325
G1 X139.724 Y166.194 E6.69338
G1 X138.991 Y166.528 E6.73357
G1 X138.23 Y166.787 E6.77368
G1 X137.446 Y166.97 E6.81384
G1 X136.648 Y167.074 E6.85399
G1 X136.001 Y167.1 E6.88629
G1 X104 Y167.1 E8.48283
G1 X103.196 Y167.06 E8.52299
G1 X102.4 Y166.94 E8.56315
G1 X101.62 Y166.743 E8.60329
G1 X100.864 Y166.468 E8.64343
G1 X100.138 Y166.12 E8.68359
G1 X99.451 Y165.702 E8.72371
G1 X98.808 Y165.217 E8.76389
G1 X98.217 Y164.672 E8.804
G1 X97.683 Y164.07 E8.84415
G1 X97.211 Y163.418 E8.88431
G1 X96.806 Y162.722 E8.92448
G1 X96.472 Y161.99 E8.96462
G1 X96.213 Y161.228 E9.00477
G1 X96.03 Y160.445 E9.04489
G1 X95.926 Y159.647 E9.08504
G1 X95.9 Y159 E9.11735
G1 X95.9 Y76 E13.25823
G1 X95.94 Y75.196 E13.29839
G1 X96.06 Y74.4 E13.33856
G1 X96.257 Y73.62 E13.37869
G1 X96.532 Y72.864 E13.41883
G1 X96.88 Y72.138 E13.45899
G1 X97.298 Y71.451 E13.49911
G0 F6000 X97.895 Y71.644
G1 F1200 X98.377 Y71.038 E13.53774
G1 X98.918 Y70.484 E13.57638
G1 X99.514 Y69.99 E13.615
G1 X100.158 Y69.559 E13.65366
G1 X100.842 Y69.197 E13.69227
G1 X101.56 Y68.908 E13.73088
G1 X102.305 Y68.694 E13.76955
G1 X103.067 Y68.558 E13.80817
G1 X104 Y68.5 E13.85481
G1 X112 Y68.5 E14.25393
G1 X112.876 Y68.513 E14.29764
G1 X113.672 Y68.544 E14.33738
G1 X114.473 Y68.597 E14.37743
G1 X115.265 Y68.669 E14.4171
G1 X115.89 Y68.741 E14.44849
G1 X116.848 Y68.875 E14.49675
G1 X117.489 Y68.982 E14.52917
G1 X118.434 Y69.164 E14.57719
G1 X119.028 Y69.294 E14.60752
G1 X119.982 Y69.527 E14.65652
G1 X120.587 Y69.693 E14.68782
G1 X121.52 Y69.974 E14.73643
G1 X122.28 Y70.225 E14.77636
G1 X122.872 Y70.436 E14.80772
G1 X123.788 Y70.789 E14.85669
G1 X124.332 Y71.014 E14.88606
G1 X125.264 Y71.429 E14.93696
G1 X125.952 Y71.759 E14.97503
G1 X126.695 Y72.138 E15.01664
G1 X127.352 Y72.495 E15.05394
G1 X128.079 Y72.912 E15.09576
G1 X128.735 Y73.314 E15.13414
G1 X129.42 Y73.755 E15.17479
G1 X130.072 Y74.2 E15.21417
G1 X130.71 Y74.659 E15.25338
G1 X131.197 Y75.025 E15.28377
G1 X131.984 Y75.651 E15.33394
G1 X132.465 Y76.054 E15.36525
G1 X133.05 Y76.567 E15.40407
G1 X133.631 Y77.102 E15.44347
G1 X134.2 Y77.652 E15.48295
G1 X134.772 Y78.236 E15.52374
G1 X135.324 Y78.829 E15.56416
G1 X135.85 Y79.422 E15.6037
G1 X136.36 Y80.029 E15.64326
G1 X136.973 Y80.8 E15.6924
G1 X137.338 Y81.285 E15.72268
G1 X137.909 Y82.086 E15.77176
G1 X138.362 Y82.759 E15.81223
G1 X138.78 Y83.415 E15.85104
G1 X139.199 Y84.111 E15.89157
G1 X139.58 Y84.783 E15.93011
G1 X139.869 Y85.317 E15.9604
G1 X140.326 Y86.223 E16.01103
G1 X140.579 Y86.754 E16.04037
G1 X140.994 Y87.686 E16.09127
G1 X141.219 Y88.23 E16.12064
G1 X141.577 Y89.163 E16.1705
G1 X141.84 Y89.909 E16.20996
G1 X142.085 Y90.666 E16.24966
G1 X142.265 Y91.268 E16.281
G1 X142.524 Y92.22 E16.33023
G1 X142.706 Y92.972 E16.36883
G1 X142.836 Y93.566 E16.39916
G1 X143.025 Y94.549 E16.4491
G1 X143.153 Y95.34 E16.48908
G1 X143.235 Y95.922 E16.5184
G1 X143.328 Y96.718 E16.55838
G1 X143.416 Y97.709 E16.60802
G1 X143.464 Y98.5 E16.64756
G1 X143.487 Y99.108 E16.67791
G1 X143.5 Y100 E16.72242
G1 X143.501 Y159 E19.66594
G1 X143.461 Y159.773 E19.70456
G1 X143.342 Y160.538 E19.74318
G1 X143.144 Y161.287 E19.78183
G1 X142.87 Y162.011 E19.82045
G1 X142.523 Y162.703 E19.85907
G1 X142.106 Y163.356 E19.89773
G1 X141.625 Y163.962 E19.93633
G1 X141.083 Y164.516 E19.975
G1 X140.487 Y165.01 E20.01362
G1 X139.844 Y165.441 E20.05224
G1 X139.159 Y165.803 E20.09089
G1 X138.441 Y166.092 E20.1295
G1 X137.696 Y166.306 E20.16817
G1 X136.934 Y166.442 E20.20679
G1 X136.001 Y166.5 E20.25343
G1 X104 Y166.5 E21.84997
G1 X103.227 Y166.46 E21.88858
G1 X102.462 Y166.341 E21.92721
G1 X101.713 Y166.143 E21.96586
G1 X100.989 Y165.869 E22.00448
G1 X100.296 Y165.522 E22.04314
G1 X99.644 Y165.105 E22.08176
G1 X99.038 Y164.623 E22.12039
G1 X98.484 Y164.082 E22.15902
G1 X97.99 Y163.486 E22.19764
G1 X97.559 Y162.842 E22.2363
G1 X97.197 Y162.158 E22.27491
G1 X96.908 Y161.44 E22.31352
G1 X96.694 Y160.695 E22.3522
G1 X96.558 Y159.933 E22.39081
G1 X96.5 Y159 E22.43745
G1 X96.5 Y76 E26.57834
G1 X96.54 Y75.227 E26.61695
G1 X96.659 Y74.462 E26.65558
G1 X96.857 Y73.713 E26.69423
G1 X97.131 Y72.989 E26.73285
G1 X97.478 Y72.296 E26.77152
G1 X97.895 Y71.644 E26.81013
G0 F6000 X98.491 Y71.845
G1 F1200 X98.969 Y71.277 E26.84717
G1 X99.506 Y70.764 E26.88422
G1 X100.095 Y70.311 E26.92129
G1 X100.729 Y69.925 E26.95832
G1 X101.401 Y69.608 E26.99539
G1 X102.103 Y69.366 E27.03243
G1 X102.827 Y69.2 E27.06949
G1 X103.565 Y69.114 E27.10656
G1 X104 Y69.1 E27.12827
G1 X112 Y69.1 E27.5274
G1 X112.855 Y69.112 E27.57006
G1 X113.442 Y69.133 E27.59936
G1 X114.261 Y69.183 E27.6403
G1 X115.197 Y69.265 E27.68717
G1 X115.822 Y69.337 E27.71856
G1 X116.749 Y69.467 E27.76526
G1 X117.557 Y69.604 E27.80615
G1 X118.134 Y69.715 E27.83546
G1 X119.054 Y69.916 E27.88244
G1 X119.823 Y70.106 E27.92196
G1 X120.586 Y70.317 E27.96146
G1 X121.169 Y70.492 E27.99183
G1 X122.079 Y70.79 E28.0396
G1 X122.671 Y71.001 E28.07095
G1 X123.407 Y71.283 E28.11028
G1 X124.102 Y71.569 E28.14777
G1 X124.843 Y71.896 E28.18818
G1 X125.537 Y72.224 E28.22647
G1 X126.41 Y72.666 E28.27529
G1 X127.056 Y73.017 E28.31197
G1 X127.767 Y73.424 E28.35284
G1 X128.287 Y73.741 E28.38323
G1 X129.083 Y74.252 E28.43042
G1 X129.723 Y74.689 E28.46908
G1 X130.349 Y75.139 E28.50755
G1 X130.989 Y75.623 E28.54758
G1 X131.465 Y76.002 E28.57793
G1 X132.212 Y76.628 E28.62656
G1 X132.777 Y77.129 E28.66423
G1 X133.223 Y77.542 E28.69456
G1 X133.918 Y78.219 E28.74296
G1 X134.457 Y78.776 E28.78163
G1 X134.999 Y79.364 E28.82153
G1 X135.522 Y79.961 E28.86113
G1 X135.899 Y80.413 E28.89049
G1 X136.493 Y81.161 E28.93814
G1 X136.963 Y81.789 E28.97728
G1 X137.412 Y82.422 E29.016
G1 X137.764 Y82.942 E29.04732
G1 X138.267 Y83.726 E29.0938
G1 X138.583 Y84.247 E29.1242
G1 X139.052 Y85.069 E29.17141
G1 X139.44 Y85.792 E29.21235
G1 X139.784 Y86.481 E29.25077
G1 X140.112 Y87.175 E29.28907
G1 X140.439 Y87.916 E29.32947
G1 X140.731 Y88.627 E29.36782
G1 X141.012 Y89.365 E29.40722
G1 X141.209 Y89.917 E29.43646
G1 X141.51 Y90.838 E29.4848
G1 X141.69 Y91.44 E29.51615
G1 X141.895 Y92.186 E29.55474
G1 X142.081 Y92.935 E29.59325
G1 X142.284 Y93.862 E29.64059
G1 X142.433 Y94.647 E29.68045
G1 X142.559 Y95.423 E29.71968
G1 X142.641 Y96.005 E29.749
G1 X142.75 Y96.96 E29.79695
G1 X142.804 Y97.567 E29.82736
G1 X142.864 Y98.523 E29.87515
G1 X142.887 Y99.131 E29.9055
G1 X142.9 Y100 E29.94886
G1 X142.901 Y159 E32.89238
G1 X142.861 Y159.742 E32.92945
G1 X142.742 Y160.475 E32.9665
G1 X142.544 Y161.19 E33.00352
G1 X142.271 Y161.881 E33.04058
G1 X141.925 Y162.538 E33.07763
G1 X141.51 Y163.154 E33.11469
G1 X141.032 Y163.723 E33.15176
G1 X140.495 Y164.236 E33.18881
G1 X139.906 Y164.689 E33.22588
G1 X139.272 Y165.075 E33.26291
G1 X138.6 Y165.392 E33.29998
G1 X137.898 Y165.634 E33.33703
G1 X137.174 Y165.8 E33.37409
G1 X136.437 Y165.886 E33.41111
G1 X136.001 Y165.9 E33.43287
G1 X104 Y165.9 E35.02941
G1 X103.258 Y165.86 E35.06648
G1 X102.525 Y165.741 E35.10353
G1 X101.809 Y165.543 E35.14059
G1 X101.119 Y165.27 E35.17761
G1 X100.462 Y164.924 E35.21465
G1 X99.845 Y164.509 E35.25175
G1 X99.277 Y164.031 E35.28879
G1 X98.764 Y163.494 E35.32584
G1 X98.311 Y162.905 E35.36291
G1 X97.925 Y162.271 E35.39994
G1 X97.608 Y161.599 E35.43701
G1 X97.366 Y160.897 E35.47406
G1 X97.2 Y160.173 E35.51111
G1 X97.114 Y159.435 E35.54818
G1 X97.1 Y159 E35.5699
G1 X97.1 Y76 E39.71078
G1 X97.14 Y75.258 E39.74786
G1 X97.259 Y74.525 E39.7849
G1 X97.457 Y73.809 E39.82197
G1 X97.73 Y73.119 E39.85899
G1 X98.076 Y72.462 E39.89603
G1 X98.491 Y71.845 E39.93313
G0 F6000 X99.086 Y72.057
G1 F1200 X99.561 Y71.53 E39.96853
G1 X100.092 Y71.059 E40.00394
G1 X100.672 Y70.651 E40.03932
G1 X101.295 Y70.31 E40.07475
G1 X101.952 Y70.042 E40.11015
G1 X102.635 Y69.85 E40.14554
G1 X103.336 Y69.735 E40.18098
G1 X104 Y69.7 E40.21416
G1 X112 Y69.7 E40.61328
G1 X112.833 Y69.712 E40.65484
G1 X113.596 Y69.742 E40.69294
G1 X114.369 Y69.793 E40.73159
G1 X115.128 Y69.861 E40.76961
G1 X115.753 Y69.933 E40.80099
G1 X116.483 Y70.033 E40.83775
G1 X117.444 Y70.193 E40.88636
G1 X118.021 Y70.304 E40.91567
G1 X118.913 Y70.499 E40.96122
G1 X119.485 Y70.638 E40.99059
G1 X120.413 Y70.892 E41.03859
G1 X121.146 Y71.114 E41.0768
G1 X121.723 Y71.303 E41.10709
G1 X122.624 Y71.624 E41.15481
G1 X123.329 Y71.898 E41.19255
G1 X123.873 Y72.123 E41.22192
G1 X124.599 Y72.444 E41.26152
G1 X125.411 Y72.83 E41.30638
G1 X125.971 Y73.113 E41.33768
G1 X126.759 Y73.538 E41.38235
G1 X127.287 Y73.838 E41.41264
G1 X128.089 Y74.325 E41.45946
G1 X128.746 Y74.748 E41.49844
G1 X129.247 Y75.088 E41.52865
G1 X129.869 Y75.531 E41.56674
G1 X130.615 Y76.092 E41.61331
G1 X131.091 Y76.471 E41.64367
G1 X131.816 Y77.078 E41.69084
G1 X132.257 Y77.467 E41.72018
G1 X132.815 Y77.982 E41.75806
G1 X133.487 Y78.637 E41.80488
G1 X134.017 Y79.184 E41.84288
G1 X134.444 Y79.645 E41.87423
G1 X135.061 Y80.346 E41.92082
G1 X135.528 Y80.908 E41.95727
G1 X136.014 Y81.522 E41.99634
G1 X136.474 Y82.137 E42.03466
G1 X136.915 Y82.758 E42.07266
G1 X137.267 Y83.278 E42.10398
G1 X137.754 Y84.037 E42.14898
G1 X138.07 Y84.558 E42.17938
G1 X138.525 Y85.354 E42.22512
G1 X138.814 Y85.888 E42.25541
G1 X139.186 Y86.624 E42.29655
G1 X139.564 Y87.419 E42.34047
G1 X139.885 Y88.145 E42.38007
G1 X140.171 Y88.842 E42.41766
G1 X140.396 Y89.429 E42.44903
G1 X140.699 Y90.281 E42.49414
G1 X140.935 Y91.01 E42.53237
G1 X141.157 Y91.758 E42.57129
G1 X141.317 Y92.344 E42.6016
G1 X141.533 Y93.228 E42.647
G1 X141.695 Y93.975 E42.68514
G1 X141.841 Y94.744 E42.72419
G1 X141.943 Y95.365 E42.75558
G1 X142.067 Y96.252 E42.80027
G1 X142.152 Y97.013 E42.83847
G1 X142.219 Y97.784 E42.87708
G1 X142.257 Y98.39 E42.90737
G1 X142.287 Y99.154 E42.94552
G1 X142.3 Y100 E42.98773
G1 X142.301 Y159 E45.93125
G1 X142.261 Y159.708 E45.96663
G1 X142.142 Y160.408 E46.00205
G1 X141.944 Y161.09 E46.03748
G1 X141.672 Y161.745 E46.07287
G1 X141.327 Y162.365 E46.10827
G1 X140.915 Y162.943 E46.14368
G1 X140.44 Y163.47 E46.17907
G1 X139.909 Y163.941 E46.21449
G1 X139.329 Y164.349 E46.24986
G1 X138.706 Y164.69 E46.2853
G1 X138.049 Y164.958 E46.3207
G1 X137.366 Y165.15 E46.35609
G1 X136.666 Y165.265 E46.39148
G1 X136.001 Y165.3 E46.42471
G1 X104 Y165.3 E48.02124
G1 X103.291 Y165.26 E48.05667
G1 X102.592 Y165.141 E48.09205
G1 X101.91 Y164.943 E48.12748
G1 X101.255 Y164.671 E48.16286
G1 X100.635 Y164.326 E48.19826
G1 X100.057 Y163.914 E48.23367
G1 X99.53 Y163.439 E48.26907
G1 X99.059 Y162.908 E48.30448
G1 X98.651 Y162.328 E48.33986
G1 X98.31 Y161.705 E48.37529
G1 X98.042 Y161.048 E48.41069
G1 X97.85 Y160.365 E48.44609
G1 X97.735 Y159.664 E48.48153
G1 X97.7 Y159 E48.5147
G1 X97.7 Y76 E52.65559
G1 X97.74 Y75.291 E52.69102
G1 X97.859 Y74.592 E52.72639
G1 X98.057 Y73.91 E52.76182
G1 X98.329 Y73.255 E52.7972
G1 X98.674 Y72.635 E52.8326
G1 X99.086 Y72.057 E52.86801
G0 F6000 X99.681 Y72.281
G1 F1200 X100.151 Y71.796 E52.90171
G1 X100.675 Y71.371 E52.93537
G1 X101.245 Y71.01 E52.96903
G1 X101.854 Y70.719 E53.0027
G1 X102.494 Y70.503 E53.0364
G1 X103.154 Y70.363 E53.07006
G1 X104 Y70.3 E53.11239
G1 X112.075 Y70.3 E53.51525
G1 X112.683 Y70.308 E53.54559
G1 X113.558 Y70.341 E53.58927
G1 X114.317 Y70.391 E53.62722
G1 X115.059 Y70.457 E53.66438
G1 X115.684 Y70.529 E53.69577
G1 X116.551 Y70.651 E53.73945
G1 X117.192 Y70.758 E53.77188
G1 X118.05 Y70.923 E53.81547
G1 X118.771 Y71.082 E53.8523
G1 X119.505 Y71.263 E53.89002
G1 X120.11 Y71.429 E53.92132
G1 X120.959 Y71.684 E53.96554
G1 X121.676 Y71.921 E54.00322
G1 X122.408 Y72.184 E54.04202
G1 X123.1 Y72.453 E54.07906
G1 X123.783 Y72.737 E54.11597
G1 X124.356 Y72.992 E54.14726
G1 X125.021 Y73.307 E54.18397
G1 X125.7 Y73.649 E54.2219
G1 X126.463 Y74.06 E54.26514
G1 X127.142 Y74.449 E54.30418
G1 X127.662 Y74.766 E54.33456
G1 X128.409 Y75.245 E54.37883
G1 X129.025 Y75.665 E54.41603
G1 X129.628 Y76.098 E54.45306
G1 X130.115 Y76.464 E54.48346
G1 X130.828 Y77.031 E54.5289
G1 X131.419 Y77.528 E54.56743
G1 X131.86 Y77.917 E54.59677
G1 X132.408 Y78.423 E54.63398
G1 X133.057 Y79.055 E54.67917
G1 X133.577 Y79.592 E54.71647
G1 X134.098 Y80.157 E54.75481
G1 X134.6 Y80.73 E54.79282
G1 X135.058 Y81.281 E54.82856
G1 X135.534 Y81.882 E54.86681
G1 X135.986 Y82.485 E54.90441
G1 X136.339 Y82.98 E54.93474
G1 X136.847 Y83.732 E54.98002
G1 X137.241 Y84.348 E55.0165
G1 X137.635 Y85.002 E55.05459
G1 X137.997 Y85.64 E55.09119
G1 X138.368 Y86.331 E55.13032
G1 X138.701 Y86.997 E55.16746
G1 X139.016 Y87.662 E55.20418
G1 X139.271 Y88.235 E55.23547
G1 X139.555 Y88.918 E55.27237
G1 X139.835 Y89.644 E55.31119
G1 X140.129 Y90.467 E55.35479
G1 X140.318 Y91.046 E55.38518
G1 X140.578 Y91.916 E55.43048
G1 X140.776 Y92.648 E55.46831
G1 X140.916 Y93.22 E55.49769
G1 X141.106 Y94.089 E55.54207
G1 X141.249 Y94.841 E55.58026
G1 X141.351 Y95.462 E55.61166
G1 X141.471 Y96.32 E55.65488
G1 X141.555 Y97.066 E55.69233
G1 X141.609 Y97.673 E55.72273
G1 X141.658 Y98.427 E55.76043
